; G-Code generated by Simplify3D(R) Version 4.1.2
; Oct 27, 2020 at 1:56:04 AM
; Settings Summary
;   processName,Process1
;   applyToModels,MiniCalTest
;   profileName,PLA-1.75mm-N80 (modified)
;   profileVersion,2020-07-06 14:17:30
;   baseProfile,Ultimaker 2 (modified)
;   printMaterial,PLA
;   printQuality,Medium
;   printExtruders,
;   extruderName,Primary Extruder
;   extruderToolheadNumber,0
;   extruderDiameter,0.8
;   extruderAutoWidth,0
;   extruderWidth,0.8
;   extrusionMultiplier,1.05
;   extruderUseRetract,1
;   extruderRetractionDistance,4
;   extruderExtraRestartDistance,0
;   extruderRetractionZLift,0
;   extruderRetractionSpeed,2400
;   extruderUseCoasting,0
;   extruderCoastingDistance,0.2
;   extruderUseWipe,0
;   extruderWipeDistance,5
;   primaryExtruder,0
;   layerHeight,0.25
;   topSolidLayers,0
;   bottomSolidLayers,3
;   perimeterOutlines,2
;   printPerimetersInsideOut,1
;   startPointOption,2
;   startPointOriginX,0
;   startPointOriginY,0
;   sequentialIslands,0
;   spiralVaseMode,0
;   firstLayerHeightPercentage,75
;   firstLayerWidthPercentage,100
;   firstLayerUnderspeed,1
;   useRaft,0
;   raftExtruder,0
;   raftTopLayers,3
;   raftBaseLayers,2
;   raftOffset,3
;   raftSeparationDistance,0.14
;   raftTopInfill,100
;   aboveRaftSpeedMultiplier,0.3
;   useSkirt,1
;   skirtExtruder,0
;   skirtLayers,2
;   skirtOutlines,3
;   skirtOffset,0
;   usePrimePillar,0
;   primePillarExtruder,999
;   primePillarWidth,12
;   primePillarLocation,7
;   primePillarSpeedMultiplier,1
;   useOozeShield,0
;   oozeShieldExtruder,999
;   oozeShieldOffset,2
;   oozeShieldOutlines,1
;   oozeShieldSidewallShape,1
;   oozeShieldSidewallAngle,30
;   oozeShieldSpeedMultiplier,1
;   infillExtruder,0
;   internalInfillPattern,Rectilinear
;   externalInfillPattern,Rectilinear
;   infillPercentage,0
;   outlineOverlapPercentage,30
;   infillExtrusionWidthPercentage,100
;   minInfillLength,1
;   infillLayerInterval,1
;   internalInfillAngles,45,-45
;   overlapInternalInfillAngles,0
;   externalInfillAngles,45
;   generateSupport,0
;   supportExtruder,0
;   supportInfillPercentage,8
;   supportExtraInflation,0
;   supportBaseLayers,0
;   denseSupportExtruder,0
;   denseSupportLayers,0
;   denseSupportInfillPercentage,70
;   supportLayerInterval,1
;   supportHorizontalPartOffset,0.75
;   supportUpperSeparationLayers,1
;   supportLowerSeparationLayers,1
;   supportType,0
;   supportGridSpacing,4
;   maxOverhangAngle,60
;   supportAngles,45
;   temperatureName,Primary Extruder,Heated Build Platform
;   temperatureNumber,0,1
;   temperatureSetpointCount,1,1
;   temperatureSetpointLayers,1,1
;   temperatureSetpointTemperatures,205,60
;   temperatureStabilizeAtStartup,1,1
;   temperatureHeatedBed,0,1
;   fanLayers,1,2,3,4,5
;   fanSpeeds,0,25,50,75,100
;   blipFanToFullPower,1
;   adjustSpeedForCooling,1
;   minSpeedLayerTime,3
;   minCoolingSpeedSlowdown,25
;   increaseFanForCooling,0
;   minFanLayerTime,10
;   maxCoolingFanSpeed,30
;   increaseFanForBridging,0
;   bridgingFanSpeed,45
;   use5D,1
;   relativeEdistances,0
;   allowEaxisZeroing,1
;   independentExtruderAxes,0
;   includeM10123,0
;   stickySupport,1
;   applyToolheadOffsets,0
;   gcodeXoffset,0
;   gcodeYoffset,0
;   gcodeZoffset,0
;   overrideMachineDefinition,1
;   machineTypeOverride,0
;   strokeXoverride,225
;   strokeYoverride,225
;   strokeZoverride,212
;   originOffsetXoverride,0
;   originOffsetYoverride,0
;   originOffsetZoverride,0
;   homeXdirOverride,-1
;   homeYdirOverride,-1
;   homeZdirOverride,-1
;   flipXoverride,1
;   flipYoverride,-1
;   flipZoverride,1
;   toolheadOffsets,0,0|0,0|0,0|0,0|0,0|0,0
;   overrideFirmwareConfiguration,1
;   firmwareTypeOverride,RepRap (Marlin/Repetier/Sprinter)
;   GPXconfigOverride,r2
;   baudRateOverride,250000
;   overridePrinterModels,1
;   printerModelsOverride
;   startingGcode,M907 E1400 ; increase extruder current,G28 ; home all axes,; purging:,G1 X5 Y6 F[travel_speed]  ; move to front near the clamp,G1 Z5 F2400                 ; lower head,G92 E0                           ; reset E,G1 E50 F150                  ; extrude 50mm make a blob,G92 E0                           ; reset E,G1 Z15 F60                    ; higher (hopeing blob will stay on bed),G1 E-5 F2400                  ; retract,G1 X200 Z0 F[travel_speed]  ; move away,G1 E0 F[retract_speed]     ; unretract
;   layerChangeGcode,
;   retractionGcode,
;   toolChangeGcode,
;   endingGcode,G28 X0 ; home the X-axis,M104 S0 ; turn off heaters,M140 S0 ; turn off bed,M84 ; disable motors,M107 ; fan off
;   exportFileFormat,gcode
;   celebration,0
;   celebrationSong,Random Song
;   postProcessing,
;   defaultSpeed,4500
;   outlineUnderspeed,1
;   solidInfillUnderspeed,1
;   supportUnderspeed,1
;   rapidXYspeed,15000
;   rapidZspeed,2400
;   minBridgingArea,5
;   bridgingExtraInflation,0
;   bridgingExtrusionMultiplier,1
;   bridgingSpeedMultiplier,1
;   useFixedBridgingAngle,0
;   fixedBridgingAngle,0
;   applyBridgingToPerimeters,0
;   filamentDiameters,1.75|1.75|1.75|1.75|1.75|1.75
;   filamentPricesPerKg,25|25|25|25|25|25
;   filamentDensities,1.25|1.25|1.25|1.25|1.25|1.25
;   useMinPrintHeight,0
;   minPrintHeight,0
;   useMaxPrintHeight,0
;   maxPrintHeight,0
;   useDiaphragm,0
;   diaphragmLayerInterval,200
;   robustSlicing,1
;   mergeAllIntoSolid,0
;   onlyRetractWhenCrossingOutline,1
;   retractBetweenLayers,0
;   useRetractionMinTravel,1
;   retractionMinTravel,0.02
;   retractWhileWiping,0
;   onlyWipeOutlines,1
;   avoidCrossingOutline,0
;   maxMovementDetourFactor,3
;   toolChangeRetractionDistance,12
;   toolChangeExtraRestartDistance,-0.5
;   toolChangeRetractionSpeed,600
;   externalThinWallType,0
;   internalThinWallType,1
;   thinWallAllowedOverlapPercentage,10
;   singleExtrusionMinLength,0.5
;   singleExtrusionMinPrintingWidthPercentage,50
;   singleExtrusionMaxPrintingWidthPercentage,200
;   singleExtrusionEndpointExtension,0.2
;   horizontalSizeCompensation,0
G90
M82
M106 S0
M140 S60
M190 S60
M104 S205 T0
M109 S205 T0
M907 E1400 ; increase extruder current
G28 ; home all axes
; purging:
G1 X5 Y6 F15000  ; move to front near the clamp
G1 Z5 F2400                 ; lower head
G92 E0                           ; reset E
G1 E50 F150                  ; extrude 50mm make a blob
G92 E0                           ; reset E
G1 Z15 F60                    ; higher (hopeing blob will stay on bed)
G1 E-5 F2400                  ; retract
G1 X200 Z0 F15000  ; move away
G1 E0 F2400     ; unretract
; process Process1
; layer 1, Z = 0.188
T0
G92 E0.0000
G1 E-4.0000 F2400
; feature skirt
; tool H0.188 W0.800
G1 Z0.188 F2400
G1 X80.500 Y81.672 F15000
G1 E0.0000 F2400
G92 E0.0000
G1 X81.672 Y80.500 E0.1085 F4500
G1 X143.328 Y80.500 E4.1458
G1 X144.500 Y81.672 E4.2543
G1 X144.500 Y143.328 E8.2917
G1 X143.328 Y144.500 E8.4002
G1 X81.672 Y144.500 E12.4375
G1 X80.500 Y143.328 E12.5460
G1 X80.500 Y81.672 E16.5834
G92 E0.0000
G1 E-4.0000 F2400
G1 X81.300 Y82.003 F15000
G1 E0.0000 F2400
G92 E0.0000
G1 X82.003 Y81.300 E0.0651 F4500
G1 X142.997 Y81.300 E4.0590
G1 X143.700 Y82.003 E4.1241
G1 X143.700 Y142.997 E8.1181
G1 X142.997 Y143.700 E8.1832
G1 X82.003 Y143.700 E12.1771
G1 X81.300 Y142.997 E12.2422
G1 X81.300 Y82.003 E16.2362
G92 E0.0000
G1 E-4.0000 F2400
G1 X82.100 Y82.334 F15000
G1 E0.0000 F2400
G92 E0.0000
G1 X82.334 Y82.100 E0.0217 F4500
G1 X142.666 Y82.100 E3.9723
G1 X142.900 Y82.334 E3.9939
G1 X142.900 Y142.666 E7.9445
G1 X142.666 Y142.900 E7.9662
G1 X82.334 Y142.900 E11.9168
G1 X82.100 Y142.666 E11.9384
G1 X82.100 Y82.334 E15.8890
G92 E0.0000
G1 E-4.0000 F2400
; feature inner perimeter
G1 X83.700 Y83.700 F15000
G1 E0.0000 F2400
G92 E0.0000
G1 X141.300 Y83.700 E3.7717 F4500
G1 X141.300 Y141.300 E7.5434
G1 X83.700 Y141.300 E11.3151
G1 X83.700 Y83.700 E15.0868
; feature outer perimeter
G1 X82.900 Y82.900 F15000
G92 E0.0000
G1 X142.100 Y82.900 E3.8765 F4500
G1 X142.100 Y142.100 E7.7529
G1 X82.900 Y142.100 E11.6294
G1 X82.900 Y82.900 E15.5059
; feature solid layer
G1 X139.697 Y84.260 F15000
G92 E0.0000
G1 X140.740 Y85.303 E0.0966 F4500
G1 X140.740 Y86.434 E0.1707
G1 X138.566 Y84.260 E0.3720
G1 X137.434 Y84.260 E0.4461
G1 X140.740 Y87.566 E0.7522
G1 X140.740 Y88.697 E0.8263
G1 X136.303 Y84.260 E1.2371
G1 X135.172 Y84.260 E1.3112
G1 X140.740 Y89.828 E1.8269
G1 X140.740 Y90.960 E1.9010
G1 X134.040 Y84.260 E2.5214
G1 X132.909 Y84.260 E2.5955
G1 X140.740 Y92.091 E3.3206
G1 X140.740 Y93.222 E3.3947
G1 X131.778 Y84.260 E4.2247
G1 X130.646 Y84.260 E4.2988
G1 X140.740 Y94.354 E5.2335
G1 X140.740 Y95.485 E5.3076
G1 X129.515 Y84.260 E6.3471
G1 X128.383 Y84.260 E6.4211
G1 X140.740 Y96.617 E7.5654
G1 X140.740 Y97.748 E7.6395
G1 X127.252 Y84.260 E8.8885
G1 X126.121 Y84.260 E8.9626
G1 X140.740 Y98.879 E10.3164
G1 X140.740 Y100.011 E10.3905
G1 X124.989 Y84.260 E11.8491
G1 X123.858 Y84.260 E11.9231
G1 X140.740 Y101.142 E13.4865
G1 X140.740 Y102.273 E13.5606
G1 X122.727 Y84.260 E15.2287
G1 X121.595 Y84.260 E15.3028
G1 X140.740 Y103.405 E17.0756
G1 X140.740 Y104.536 E17.1497
G1 X120.464 Y84.260 E19.0274
G1 X119.333 Y84.260 E19.1015
G1 X140.740 Y105.667 E21.0839
G1 X140.740 Y106.799 E21.1580
G1 X118.201 Y84.260 E23.2451
G1 X117.070 Y84.260 E23.3192
G1 X140.740 Y107.930 E25.5112
G1 X140.740 Y109.062 E25.5853
G1 X115.938 Y84.260 E27.8820
G1 X114.807 Y84.260 E27.9561
G1 X140.740 Y110.193 E30.3576
G1 X140.740 Y111.324 E30.4317
G1 X113.676 Y84.260 E32.9379
G1 X112.544 Y84.260 E33.0120
G1 X140.740 Y112.456 E35.6230
G1 X140.740 Y113.587 E35.6971
G1 X111.413 Y84.260 E38.4129
G1 X110.282 Y84.260 E38.4870
G1 X140.740 Y114.718 E41.3076
G1 X140.740 Y115.850 E41.3817
G1 X109.150 Y84.260 E44.3070
G1 X108.019 Y84.260 E44.3811
G1 X140.740 Y116.981 E47.4112
G1 X140.740 Y118.113 E47.4853
G1 X106.887 Y84.260 E50.6202
G1 X105.756 Y84.260 E50.6943
G1 X140.740 Y119.244 E53.9339
G1 X140.740 Y120.375 E54.0080
G1 X104.625 Y84.260 E57.3524
G1 X103.493 Y84.260 E57.4265
G1 X140.740 Y121.507 E60.8757
G1 X140.740 Y122.638 E60.9498
G1 X102.362 Y84.260 E64.5037
G1 X101.231 Y84.260 E64.5778
G1 X140.740 Y123.769 E68.2365
G1 X140.740 Y124.901 E68.3106
G1 X100.099 Y84.260 E72.0741
G1 X98.968 Y84.260 E72.1482
G1 X140.740 Y126.032 E76.0165
G1 X140.740 Y127.164 E76.0906
G1 X97.836 Y84.260 E80.0636
G1 X96.705 Y84.260 E80.1377
G1 X140.740 Y128.295 E84.2155
G1 X140.740 Y129.426 E84.2896
G1 X95.574 Y84.260 E88.4722
G1 X94.442 Y84.260 E88.5462
G1 X140.740 Y130.558 E92.8336
G1 X140.740 Y131.689 E92.9077
G1 X93.311 Y84.260 E97.2998
G1 X92.180 Y84.260 E97.3739
G1 X140.740 Y132.820 E101.8707
G1 X140.740 Y133.952 E101.9448
G1 X91.048 Y84.260 E106.5465
G1 X89.917 Y84.260 E106.6206
G1 X140.740 Y135.083 E111.3270
G1 X140.740 Y136.215 E111.4011
G1 X88.785 Y84.260 E116.2123
G1 X87.654 Y84.260 E116.2863
G1 X140.740 Y137.346 E121.2023
G1 X140.740 Y138.477 E121.2764
G1 X86.523 Y84.260 E126.2971
G1 X85.391 Y84.260 E126.3712
G1 X140.740 Y139.609 E131.4967
G1 X140.740 Y140.740 E131.5708
G1 X84.260 Y84.260 E136.8011
G1 X84.260 Y85.391 E136.8751
G1 X139.609 Y140.740 E142.0007
G1 X138.477 Y140.740 E142.0747
G1 X84.260 Y86.523 E147.0955
G1 X84.260 Y87.654 E147.1696
G1 X137.346 Y140.740 E152.0855
G1 X136.215 Y140.740 E152.1596
G1 X84.260 Y88.785 E156.9708
G1 X84.260 Y89.917 E157.0449
G1 X135.083 Y140.740 E161.7513
G1 X133.952 Y140.740 E161.8254
G1 X84.260 Y91.048 E166.4270
G1 X84.260 Y92.180 E166.5011
G1 X132.820 Y140.740 E170.9980
G1 X131.689 Y140.740 E171.0721
G1 X84.260 Y93.311 E175.4642
G1 X84.260 Y94.442 E175.5383
G1 X130.558 Y140.740 E179.8256
G1 X129.426 Y140.740 E179.8997
G1 X84.260 Y95.574 E184.0823
G1 X84.260 Y96.705 E184.1564
G1 X128.295 Y140.740 E188.2342
G1 X127.164 Y140.740 E188.3083
G1 X84.260 Y97.836 E192.2813
G1 X84.260 Y98.968 E192.3554
G1 X126.032 Y140.740 E196.2237
G1 X124.901 Y140.740 E196.2978
G1 X84.260 Y100.099 E200.0613
G1 X84.260 Y101.231 E200.1353
G1 X123.769 Y140.740 E203.7941
G1 X122.638 Y140.740 E203.8682
G1 X84.260 Y102.362 E207.4221
G1 X84.260 Y103.493 E207.4962
G1 X121.507 Y140.740 E210.9454
G1 X120.375 Y140.740 E211.0195
G1 X84.260 Y104.625 E214.3639
G1 X84.260 Y105.756 E214.4380
G1 X119.244 Y140.740 E217.6776
G1 X118.113 Y140.740 E217.7517
G1 X84.260 Y106.887 E220.8866
G1 X84.260 Y108.019 E220.9607
G1 X116.981 Y140.740 E223.9908
G1 X115.850 Y140.740 E224.0649
G1 X84.260 Y109.150 E226.9902
G1 X84.260 Y110.282 E227.0643
G1 X114.718 Y140.740 E229.8849
G1 X113.587 Y140.740 E229.9590
G1 X84.260 Y111.413 E232.6748
G1 X84.260 Y112.544 E232.7489
G1 X112.456 Y140.740 E235.3599
G1 X111.324 Y140.740 E235.4340
G1 X84.260 Y113.676 E237.9403
G1 X84.260 Y114.807 E238.0143
G1 X110.193 Y140.740 E240.4158
G1 X109.062 Y140.740 E240.4899
G1 X84.260 Y115.938 E242.7867
G1 X84.260 Y117.070 E242.8607
G1 X107.930 Y140.740 E245.0527
G1 X106.799 Y140.740 E245.1268
G1 X84.260 Y118.201 E247.2140
G1 X84.260 Y119.332 E247.2881
G1 X105.668 Y140.740 E249.2705
G1 X104.536 Y140.740 E249.3446
G1 X84.260 Y120.464 E251.2222
G1 X84.260 Y121.595 E251.2963
G1 X103.405 Y140.740 E253.0692
G1 X102.273 Y140.740 E253.1433
G1 X84.260 Y122.727 E254.8114
G1 X84.260 Y123.858 E254.8855
G1 X101.142 Y140.740 E256.4488
G1 X100.011 Y140.740 E256.5229
G1 X84.260 Y124.989 E257.9815
G1 X84.260 Y126.121 E258.0555
G1 X98.879 Y140.740 E259.4093
G1 X97.748 Y140.740 E259.4834
G1 X84.260 Y127.252 E260.7325
G1 X84.260 Y128.383 E260.8065
G1 X96.617 Y140.740 E261.9508
G1 X95.485 Y140.740 E262.0249
G1 X84.260 Y129.515 E263.0644
G1 X84.260 Y130.646 E263.1385
G1 X94.354 Y140.740 E264.0732
G1 X93.222 Y140.740 E264.1473
G1 X84.260 Y131.778 E264.9772
G1 X84.260 Y132.909 E265.0513
G1 X92.091 Y140.740 E265.7765
G1 X90.960 Y140.740 E265.8506
G1 X84.260 Y134.040 E266.4710
G1 X84.260 Y135.172 E266.5451
G1 X89.828 Y140.740 E267.0607
G1 X88.697 Y140.740 E267.1348
G1 X84.260 Y136.303 E267.5457
G1 X84.260 Y137.434 E267.6198
G1 X87.566 Y140.740 E267.9259
G1 X86.434 Y140.740 E268.0000
G1 X84.260 Y138.566 E268.2013
G1 X84.260 Y139.697 E268.2754
G1 X85.303 Y140.740 E268.3720
G92 E0.0000
G1 E-4.0000 F2400
; layer 2, Z = 0.438
M106 S255
G4 P500
M106 S64
; feature skirt
; tool H0.250 W0.800
G1 Z0.438 F2400
G1 X81.672 Y144.500 F15000
G1 E0.0000 F2400
G92 E0.0000
G1 X80.500 Y143.328 E0.1447 F4500
G1 X80.500 Y81.672 E5.5278
G1 X81.672 Y80.500 E5.6724
G1 X143.328 Y80.500 E11.0556
G1 X144.500 Y81.672 E11.2002
G1 X144.500 Y143.328 E16.5834
G1 X143.328 Y144.500 E16.7280
G1 X81.672 Y144.500 E22.1111
G92 E0.0000
G1 E-4.0000 F2400
G1 X82.003 Y143.700 F15000
G1 E0.0000 F2400
G92 E0.0000
G1 X81.300 Y142.997 E0.0868 F4500
G1 X81.300 Y82.003 E5.4121
G1 X82.003 Y81.300 E5.4989
G1 X142.997 Y81.300 E10.8241
G1 X143.700 Y82.003 E10.9109
G1 X143.700 Y142.997 E16.2362
G1 X142.997 Y143.700 E16.3230
G1 X82.003 Y143.700 E21.6482
G92 E0.0000
G1 E-4.0000 F2400
G1 X82.334 Y142.900 F15000
G1 E0.0000 F2400
G92 E0.0000
G1 X82.100 Y142.666 E0.0289 F4500
G1 X82.100 Y82.334 E5.2963
G1 X82.334 Y82.100 E5.3253
G1 X142.666 Y82.100 E10.5927
G1 X142.900 Y82.334 E10.6216
G1 X142.900 Y142.666 E15.8890
G1 X142.666 Y142.900 E15.9179
G1 X82.334 Y142.900 E21.1853
G92 E0.0000
G1 E-4.0000 F2400
; feature inner perimeter
G1 X83.700 Y141.300 F15000
G1 E0.0000 F2400
G92 E0.0000
G1 X83.700 Y83.700 E5.0289 F4500
G1 X141.300 Y83.700 E10.0579
G1 X141.300 Y141.300 E15.0868
G1 X83.700 Y141.300 E20.1157
; feature outer perimeter
G1 X82.900 Y142.100 F15000
G92 E0.0000
G1 X82.900 Y82.900 E5.1686 F4500
G1 X142.100 Y82.900 E10.3372
G1 X142.100 Y142.100 E15.5059
G1 X82.900 Y142.100 E20.6745
; feature solid layer
G1 X85.303 Y140.740 F15000
G92 E0.0000
G1 X84.260 Y139.697 E0.1288 F4500
G1 X84.260 Y138.566 E0.2275
G1 X86.434 Y140.740 E0.4960
G1 X87.566 Y140.740 E0.5948
G1 X84.260 Y137.434 E1.0029
G1 X84.260 Y136.303 E1.1017
G1 X88.697 Y140.740 E1.6495
G1 X89.828 Y140.740 E1.7483
G1 X84.260 Y135.172 E2.4358
G1 X84.260 Y134.040 E2.5346
G1 X90.960 Y140.740 E3.3618
G1 X92.091 Y140.740 E3.4606
G1 X84.260 Y132.909 E4.4275
G1 X84.260 Y131.778 E4.5263
G1 X93.222 Y140.740 E5.6329
G1 X94.354 Y140.740 E5.7317
G1 X84.260 Y130.646 E6.9780
G1 X84.260 Y129.515 E7.0768
G1 X95.485 Y140.740 E8.4628
G1 X96.617 Y140.740 E8.5616
