; G-Code generated by Simplify3D(R) Version 4.1.2
; Dec 9, 2020 at 12:05:24 AM
; Settings Summary
;   processName,Process1
;   applyToModels,gradual_tower_0.1_bis_0.5_9mm_steps,gradual_tower_0.1_bis_0.5_9mm_steps(2)
;   profileName,PLA-1.75mm-N80 (modified)
;   profileVersion,2020-07-06 14:17:30
;   baseProfile,Ultimaker 2 (modified)
;   printMaterial,PLA
;   printQuality,Medium
;   printExtruders,
;   extruderName,Primary Extruder
;   extruderToolheadNumber,0
;   extruderDiameter,0.8
;   extruderAutoWidth,0
;   extruderWidth,0.8
;   extrusionMultiplier,1.05
;   extruderUseRetract,1
;   extruderRetractionDistance,4
;   extruderExtraRestartDistance,0
;   extruderRetractionZLift,0
;   extruderRetractionSpeed,2400
;   extruderUseCoasting,0
;   extruderCoastingDistance,0.2
;   extruderUseWipe,0
;   extruderWipeDistance,5
;   primaryExtruder,0
;   layerHeight,0.25
;   topSolidLayers,0
;   bottomSolidLayers,1
;   perimeterOutlines,2
;   printPerimetersInsideOut,1
;   startPointOption,2
;   startPointOriginX,0
;   startPointOriginY,0
;   sequentialIslands,0
;   spiralVaseMode,0
;   firstLayerHeightPercentage,80
;   firstLayerWidthPercentage,100
;   firstLayerUnderspeed,1
;   useRaft,0
;   raftExtruder,0
;   raftTopLayers,3
;   raftBaseLayers,2
;   raftOffset,3
;   raftSeparationDistance,0.14
;   raftTopInfill,100
;   aboveRaftSpeedMultiplier,0.3
;   useSkirt,1
;   skirtExtruder,0
;   skirtLayers,1
;   skirtOutlines,3
;   skirtOffset,0
;   usePrimePillar,0
;   primePillarExtruder,999
;   primePillarWidth,12
;   primePillarLocation,7
;   primePillarSpeedMultiplier,1
;   useOozeShield,0
;   oozeShieldExtruder,999
;   oozeShieldOffset,2
;   oozeShieldOutlines,1
;   oozeShieldSidewallShape,1
;   oozeShieldSidewallAngle,30
;   oozeShieldSpeedMultiplier,1
;   infillExtruder,0
;   internalInfillPattern,Rectilinear
;   externalInfillPattern,Rectilinear
;   infillPercentage,0
;   outlineOverlapPercentage,30
;   infillExtrusionWidthPercentage,100
;   minInfillLength,1
;   infillLayerInterval,1
;   internalInfillAngles,45,-45
;   overlapInternalInfillAngles,0
;   externalInfillAngles,45
;   generateSupport,0
;   supportExtruder,0
;   supportInfillPercentage,8
;   supportExtraInflation,0
;   supportBaseLayers,0
;   denseSupportExtruder,0
;   denseSupportLayers,0
;   denseSupportInfillPercentage,70
;   supportLayerInterval,1
;   supportHorizontalPartOffset,0.75
;   supportUpperSeparationLayers,1
;   supportLowerSeparationLayers,1
;   supportType,0
;   supportGridSpacing,4
;   maxOverhangAngle,60
;   supportAngles,45
;   temperatureName,Primary Extruder,Heated Build Platform
;   temperatureNumber,0,1
;   temperatureSetpointCount,1,1
;   temperatureSetpointLayers,1,1
;   temperatureSetpointTemperatures,205,60
;   temperatureStabilizeAtStartup,1,1
;   temperatureHeatedBed,0,1
;   fanLayers,1,2,3,4,5
;   fanSpeeds,0,25,50,75,100
;   blipFanToFullPower,1
;   adjustSpeedForCooling,1
;   minSpeedLayerTime,5
;   minCoolingSpeedSlowdown,25
;   increaseFanForCooling,0
;   minFanLayerTime,10
;   maxCoolingFanSpeed,30
;   increaseFanForBridging,0
;   bridgingFanSpeed,45
;   use5D,1
;   relativeEdistances,0
;   allowEaxisZeroing,1
;   independentExtruderAxes,0
;   includeM10123,0
;   stickySupport,1
;   applyToolheadOffsets,0
;   gcodeXoffset,0
;   gcodeYoffset,0
;   gcodeZoffset,0
;   overrideMachineDefinition,1
;   machineTypeOverride,0
;   strokeXoverride,225
;   strokeYoverride,225
;   strokeZoverride,212
;   originOffsetXoverride,0
;   originOffsetYoverride,0
;   originOffsetZoverride,0
;   homeXdirOverride,-1
;   homeYdirOverride,-1
;   homeZdirOverride,-1
;   flipXoverride,1
;   flipYoverride,-1
;   flipZoverride,1
;   toolheadOffsets,0,0|0,0|0,0|0,0|0,0|0,0
;   overrideFirmwareConfiguration,1
;   firmwareTypeOverride,RepRap (Marlin/Repetier/Sprinter)
;   GPXconfigOverride,r2
;   baudRateOverride,250000
;   overridePrinterModels,1
;   printerModelsOverride
;   startingGcode,M907 E1400 ; increase extruder current,G28 ; home all axes,; purging:,G1 X5 Y6 F[travel_speed]  ; move to front near the clamp,G1 Z5 F2400                 ; lower head,G92 E0                           ; reset E,G1 E50 F150                  ; extrude 50mm make a blob,G92 E0                           ; reset E,G1 Z15 F60                    ; higher (hopeing blob will stay on bed),G1 E-5 F2400                  ; retract,G1 X200 Z0 F[travel_speed]  ; move away,G1 E0 F[retract_speed]     ; unretract
;   layerChangeGcode,
;   retractionGcode,
;   toolChangeGcode,
;   endingGcode,G28 X0 ; home the X-axis,M104 S0 ; turn off heaters,M140 S0 ; turn off bed,M84 ; disable motors,M107 ; fan off
;   exportFileFormat,gcode
;   celebration,0
;   celebrationSong,Random Song
;   postProcessing,
;   defaultSpeed,4500
;   outlineUnderspeed,1
;   solidInfillUnderspeed,1
;   supportUnderspeed,1
;   rapidXYspeed,15000
;   rapidZspeed,3000
;   minBridgingArea,5
;   bridgingExtraInflation,0
;   bridgingExtrusionMultiplier,1
;   bridgingSpeedMultiplier,1
;   useFixedBridgingAngle,0
;   fixedBridgingAngle,0
;   applyBridgingToPerimeters,0
;   filamentDiameters,1.75|1.75|1.75|1.75|1.75|1.75
;   filamentPricesPerKg,25|25|25|25|25|25
;   filamentDensities,1.25|1.25|1.25|1.25|1.25|1.25
;   useMinPrintHeight,0
;   minPrintHeight,0
;   useMaxPrintHeight,0
;   maxPrintHeight,0
;   useDiaphragm,0
;   diaphragmLayerInterval,200
;   robustSlicing,1
;   mergeAllIntoSolid,0
;   onlyRetractWhenCrossingOutline,1
;   retractBetweenLayers,0
;   useRetractionMinTravel,1
;   retractionMinTravel,0.02
;   retractWhileWiping,0
;   onlyWipeOutlines,1
;   avoidCrossingOutline,0
;   maxMovementDetourFactor,3
;   toolChangeRetractionDistance,12
;   toolChangeExtraRestartDistance,-0.5
;   toolChangeRetractionSpeed,600
;   externalThinWallType,0
;   internalThinWallType,1
;   thinWallAllowedOverlapPercentage,10
;   singleExtrusionMinLength,0.5
;   singleExtrusionMinPrintingWidthPercentage,50
;   singleExtrusionMaxPrintingWidthPercentage,200
;   singleExtrusionEndpointExtension,0.2
;   horizontalSizeCompensation,0
G90
M82
M106 S0
M140 S60
M190 S60
M104 S205 T0
M109 S205 T0
M907 E1400 ; increase extruder current
G28 ; home all axes
; purging:
G1 X5 Y6 F15000  ; move to front near the clamp
G1 Z5 F2400                 ; lower head
G92 E0                           ; reset E
G1 E50 F150                  ; extrude 50mm make a blob
G92 E0                           ; reset E
G1 Z15 F60                    ; higher (hopeing blob will stay on bed)
G1 E-5 F2400                  ; retract
G1 X200 Z0 F15000  ; move away
G1 E0 F2400     ; unretract
; process Process1
; layer 1, Z = 0.200
T0
G92 E0.0000
G1 E-4.0000 F2400
; feature skirt
; tool H0.200 W0.800
G1 Z0.200 F3000
G1 X73.668 Y33.005 F15000
G1 E0.0000 F2400
G92 E0.0000
G1 X150.828 Y33.000 E5.3894 F4500
G1 X152.000 Y34.172 E5.5051
G1 X152.000 Y111.336 E10.8948
G1 X149.531 Y112.359 E11.0814
G1 X72.645 Y35.474 E18.6760
G1 X73.668 Y33.005 E18.8627
G92 E0.0000
G1 E-4.0000 F2400
G1 X74.203 Y33.804 F15000
G1 E0.0000 F2400
G92 E0.0000
G1 X150.497 Y33.800 E5.3289 F4500
G1 X151.200 Y34.503 E5.3983
G1 X151.200 Y110.802 E10.7275
G1 X149.718 Y111.415 E10.8395
G1 X73.589 Y35.286 E18.3594
G1 X74.203 Y33.804 E18.4714
G92 E0.0000
G1 E-4.0000 F2400
G1 X74.737 Y34.604 F15000
G1 E0.0000 F2400
G92 E0.0000
G1 X150.166 Y34.600 E5.2684 F4500
G1 X150.400 Y34.834 E5.2915
G1 X150.400 Y110.267 E10.5603
G1 X149.906 Y110.472 E10.5976
G1 X74.533 Y35.098 E18.0428
G1 X74.737 Y34.604 E18.0801
G92 E0.0000
G1 E-4.0000 F2400
G1 X73.668 Y113.005 F15000
G1 E0.0000 F2400
G92 E0.0000
G1 X150.828 Y113.000 E5.3894 F4500
G1 X152.000 Y114.172 E5.5051
G1 X152.000 Y191.336 E10.8948
G1 X149.531 Y192.359 E11.0814
G1 X72.645 Y115.474 E18.6760
G1 X73.668 Y113.005 E18.8627
G92 E0.0000
G1 E-4.0000 F2400
G1 X74.203 Y113.804 F15000
G1 E0.0000 F2400
G92 E0.0000
G1 X150.497 Y113.800 E5.3289 F4500
G1 X151.200 Y114.503 E5.3983
G1 X151.200 Y190.802 E10.7275
G1 X149.718 Y191.415 E10.8395
G1 X73.589 Y115.286 E18.3594
G1 X74.203 Y113.804 E18.4714
G92 E0.0000
G1 E-4.0000 F2400
G1 X74.737 Y114.604 F15000
G1 E0.0000 F2400
G92 E0.0000
G1 X150.166 Y114.600 E5.2684 F4500
G1 X150.400 Y114.834 E5.2915
G1 X150.400 Y190.267 E10.5603
G1 X149.906 Y190.472 E10.5976
G1 X74.533 Y115.098 E18.0428
G1 X74.737 Y114.604 E18.0801
G92 E0.0000
G1 E-4.0000 F2400
; feature inner perimeter
G1 X148.800 Y107.103 F15000
G1 E0.0000 F2400
G92 E0.0000
G1 X77.901 Y36.204 E7.0032 F4500
G1 X148.800 Y36.200 E11.9552
G1 X148.800 Y107.103 E16.9075
; feature outer perimeter
G1 X149.600 Y109.034 F15000
G92 E0.0000
G1 X75.970 Y35.404 E7.2730 F4500
G1 X149.600 Y35.400 E12.4158
G1 X149.600 Y109.034 E17.5588
; feature solid layer
G1 X148.240 Y105.248 F15000
G92 E0.0000
G1 X79.756 Y36.764 E6.7647 F4500
G1 X80.888 Y36.764 E6.8437
G1 X148.240 Y104.117 E13.4966
G1 X148.240 Y102.985 E13.5756
G1 X82.019 Y36.764 E20.1168
G1 X83.150 Y36.764 E20.1958
G1 X148.240 Y101.854 E26.6252
G1 X148.240 Y100.722 E26.7042
G1 X84.281 Y36.764 E33.0219
G1 X85.413 Y36.764 E33.1009
G1 X148.240 Y99.591 E39.3068
G1 X148.240 Y98.460 E39.3858
G1 X86.544 Y36.764 E45.4800
G1 X87.675 Y36.764 E45.5590
G1 X148.240 Y97.328 E51.5415
G1 X148.240 Y96.197 E51.6205
G1 X88.807 Y36.764 E57.4912
G1 X89.938 Y36.764 E57.5702
G1 X148.240 Y95.066 E63.3291
G1 X148.240 Y93.934 E63.4081
G1 X91.069 Y36.763 E69.0553
G1 X92.201 Y36.763 E69.1343
G1 X148.240 Y92.803 E74.6698
G1 X148.240 Y91.671 E74.7488
G1 X93.332 Y36.763 E80.1725
G1 X94.463 Y36.763 E80.2515
G1 X148.240 Y90.540 E85.5634
G1 X148.240 Y89.409 E85.6425
G1 X95.595 Y36.763 E90.8426
G1 X96.726 Y36.763 E90.9217
G1 X148.240 Y88.277 E96.0101
G1 X148.240 Y87.146 E96.0891
G1 X97.857 Y36.763 E101.0658
G1 X98.988 Y36.763 E101.1448
G1 X148.240 Y86.015 E106.0098
G1 X148.240 Y84.883 E106.0888
G1 X100.120 Y36.763 E110.8420
G1 X101.251 Y36.763 E110.9210
G1 X148.240 Y83.752 E115.5625
G1 X148.240 Y82.620 E115.6415
G1 X102.382 Y36.763 E120.1712
G1 X103.514 Y36.763 E120.2502
G1 X148.240 Y81.489 E124.6682
G1 X148.240 Y80.358 E124.7472
G1 X104.645 Y36.763 E129.0534
G1 X105.776 Y36.763 E129.1324
G1 X148.240 Y79.226 E133.3269
G1 X148.240 Y78.095 E133.4059
G1 X106.908 Y36.763 E137.4887
G1 X108.039 Y36.762 E137.5677
G1 X148.240 Y76.964 E141.5386
G1 X148.240 Y75.832 E141.6177
G1 X109.170 Y36.762 E145.4769
G1 X110.301 Y36.762 E145.5559
G1 X148.240 Y74.701 E149.3034
G1 X148.240 Y73.570 E149.3824
G1 X111.433 Y36.762 E153.0181
G1 X112.564 Y36.762 E153.0971
G1 X148.240 Y72.438 E156.6211
G1 X148.240 Y71.307 E156.7002
G1 X113.695 Y36.762 E160.1124
G1 X114.827 Y36.762 E160.1914
G1 X148.240 Y70.175 E163.4919
G1 X148.240 Y69.044 E163.5709
G1 X115.958 Y36.762 E166.7597
G1 X117.089 Y36.762 E166.8387
G1 X148.240 Y67.913 E169.9157
G1 X148.240 Y66.781 E169.9947
G1 X118.221 Y36.762 E172.9599
G1 X119.352 Y36.762 E173.0389
G1 X148.240 Y65.650 E175.8924
G1 X148.240 Y64.519 E175.9715
G1 X120.483 Y36.762 E178.7132
G1 X121.615 Y36.762 E178.7922
G1 X148.240 Y63.387 E181.4222
G1 X148.240 Y62.256 E181.5013
G1 X122.746 Y36.762 E184.0195
G1 X123.877 Y36.762 E184.0985
G1 X148.240 Y61.124 E186.5050
G1 X148.240 Y59.993 E186.5841
G1 X125.008 Y36.761 E188.8788
G1 X126.140 Y36.761 E188.9578
G1 X148.240 Y58.862 E191.1408
G1 X148.240 Y57.730 E191.2199
G1 X127.271 Y36.761 E193.2911
G1 X128.402 Y36.761 E193.3701
G1 X148.240 Y56.599 E195.3297
G1 X148.240 Y55.468 E195.4087
G1 X129.534 Y36.761 E197.2565
G1 X130.665 Y36.761 E197.3355
G1 X148.240 Y54.336 E199.0715
G1 X148.240 Y53.205 E199.1505
G1 X131.796 Y36.761 E200.7748
G1 X132.928 Y36.761 E200.8538
G1 X148.240 Y52.073 E202.3663
G1 X148.240 Y50.942 E202.4454
G1 X134.059 Y36.761 E203.8461
G1 X135.190 Y36.761 E203.9252
G1 X148.240 Y49.811 E205.2142
G1 X148.240 Y48.679 E205.2932
G1 X136.321 Y36.761 E206.4705
G1 X137.453 Y36.761 E206.5495
G1 X148.240 Y47.548 E207.6150
G1 X148.240 Y46.417 E207.6941
G1 X138.584 Y36.761 E208.6479
G1 X139.715 Y36.761 E208.7269
G1 X148.240 Y45.285 E209.5689
G1 X148.240 Y44.154 E209.6479
G1 X140.847 Y36.761 E210.3782
G1 X141.978 Y36.760 E210.4573
G1 X148.240 Y43.022 E211.0758
G1 X148.240 Y41.891 E211.1548
G1 X143.109 Y36.760 E211.6616
G1 X144.241 Y36.760 E211.7406
G1 X148.240 Y40.760 E212.1357
G1 X148.240 Y39.628 E212.2147
G1 X145.372 Y36.760 E212.4980
G1 X146.503 Y36.760 E212.5770
G1 X148.240 Y38.497 E212.7486
G1 X148.240 Y37.366 E212.8276
G1 X147.634 Y36.760 E212.8874
G92 E0.0000
G1 E-4.0000 F2400
; feature inner perimeter
G1 X148.800 Y116.200 F15000
G1 E0.0000 F2400
G92 E0.0000
G1 X148.800 Y187.103 E4.9523 F4500
G1 X77.901 Y116.204 E11.9555
G1 X148.800 Y116.200 E16.9075
; feature outer perimeter
G1 X149.600 Y115.400 F15000
G92 E0.0000
G1 X149.600 Y189.034 E5.1431 F4500
G1 X75.970 Y115.404 E12.4161
G1 X149.600 Y115.400 E17.5588
; feature solid layer
G1 X147.307 Y116.760 F15000
G92 E0.0000
G1 X148.240 Y117.693 E0.0921 F4500
G1 X148.240 Y118.824 E0.1712
G1 X146.176 Y116.760 E0.3751
G1 X145.045 Y116.760 E0.4541
G1 X148.240 Y119.956 E0.7697
G1 X148.240 Y121.087 E0.8487
G1 X143.913 Y116.760 E1.2761
G1 X142.782 Y116.760 E1.3551
G1 X148.240 Y122.218 E1.8943
G1 X148.240 Y123.350 E1.9733
G1 X141.651 Y116.760 E2.6242
G1 X140.519 Y116.761 E2.7032
G1 X148.240 Y124.481 E3.4658
G1 X148.240 Y125.613 E3.5448
G1 X139.388 Y116.761 E4.4192
G1 X138.257 Y116.761 E4.4982
G1 X148.240 Y126.744 E5.4843
G1 X148.240 Y127.875 E5.5634
G1 X137.125 Y116.761 E6.6612
G1 X135.994 Y116.761 E6.7402
G1 X148.240 Y129.007 E7.9499
G1 X148.240 Y130.138 E8.0289
G1 X134.863 Y116.761 E9.3502
G1 X133.732 Y116.761 E9.4293
G1 X148.240 Y131.269 E10.8624
G1 X148.240 Y132.401 E10.9414
G1 X132.600 Y116.761 E12.4863
G1 X131.469 Y116.761 E12.5653
G1 X148.240 Y133.532 E14.2219
G1 X148.240 Y134.664 E14.3009
G1 X130.338 Y116.761 E16.0693
G1 X129.206 Y116.761 E16.1483
G1 X148.240 Y135.795 E18.0284
G1 X148.240 Y136.926 E18.1074
G1 X128.075 Y116.761 E20.0992
G1 X126.944 Y116.761 E20.1783
G1 X148.240 Y138.058 E22.2819
G1 X148.240 Y139.189 E22.3609
G1 X125.812 Y116.761 E24.5762
G1 X124.681 Y116.761 E24.6552
G1 X148.240 Y140.320 E26.9823
G1 X148.240 Y141.452 E27.0614
G1 X123.550 Y116.762 E29.5002
G1 X122.418 Y116.762 E29.5792
G1 X148.240 Y142.583 E32.1298
G1 X148.240 Y143.715 E32.2088
G1 X121.287 Y116.762 E34.8711
G1 X120.156 Y116.762 E34.9502
G1 X148.240 Y144.846 E37.7242
G1 X148.240 Y145.977 E37.8033
G1 X119.025 Y116.762 E40.6891
G1 X117.893 Y116.762 E40.7681
G1 X148.240 Y147.109 E43.7657
G1 X148.240 Y148.240 E43.8447
G1 X116.762 Y116.762 E46.9540
G1 X115.631 Y116.762 E47.0330
G1 X148.240 Y149.371 E50.2541
G1 X148.240 Y150.503 E50.3331
G1 X114.499 Y116.762 E53.6660
G1 X113.368 Y116.762 E53.7450
G1 X148.240 Y151.634 E57.1895
G1 X148.240 Y152.765 E57.2686
G1 X112.237 Y116.762 E60.8249
G1 X111.105 Y116.762 E60.9039
G1 X148.240 Y153.897 E64.5719
G1 X148.240 Y155.028 E64.6510
G1 X109.974 Y116.762 E68.4308
G1 X108.843 Y116.762 E68.5098
G1 X148.240 Y156.160 E72.4013
G1 X148.240 Y157.291 E72.4804
G1 X107.712 Y116.763 E76.4837
G1 X106.580 Y116.763 E76.5627
G1 X148.240 Y158.422 E80.6777
G1 X148.240 Y159.554 E80.7568
G1 X105.449 Y116.763 E84.9836
G1 X104.318 Y116.763 E85.0626
G1 X148.240 Y160.685 E89.4011
G1 X148.240 Y161.816 E89.4801
G1 X103.186 Y116.763 E93.9304
G1 X102.055 Y116.763 E94.0094
G1 X148.240 Y162.948 E98.5715
G1 X148.240 Y164.079 E98.6505
G1 X100.924 Y116.763 E103.3243
G1 X99.792 Y116.763 E103.4033
G1 X148.240 Y165.211 E108.1888
G1 X148.240 Y166.342 E108.2679
G1 X98.661 Y116.763 E113.1651
G1 X97.530 Y116.763 E113.2442
G1 X148.240 Y167.473 E118.2532
G1 X148.240 Y168.605 E118.3322
G1 X96.399 Y116.763 E123.4530
G1 X95.267 Y116.763 E123.5320
G1 X148.240 Y169.736 E128.7645
G1 X148.240 Y170.867 E128.8436
G1 X94.136 Y116.763 E134.1878
G1 X93.005 Y116.763 E134.2668
G1 X148.240 Y171.999 E139.7229
G1 X148.240 Y173.130 E139.8019
G1 X91.873 Y116.763 E145.3697
G1 X90.742 Y116.764 E145.4487
G1 X148.240 Y174.262 E151.1282
G1 X148.240 Y175.393 E151.2072
G1 X89.611 Y116.764 E156.9985
G1 X88.479 Y116.764 E157.0775
G1 X148.240 Y176.524 E162.9805
G1 X148.240 Y177.656 E163.0595
G1 X87.348 Y116.764 E169.0743
G1 X86.217 Y116.764 E169.1533
G1 X148.240 Y178.787 E175.2798
G1 X148.240 Y179.918 E175.3588
