;FLAVOR:UltiGCode
;TIME:1642      
;MATERIAL:1862      
;MATERIAL2:0         

;Layer count: 252
;LAYER:0
M107
G0 F9000 X142.21 Y69.92 Z0.30
G0 X142.21 Y69.92
;TYPE:SKIRT
; mod erri: un-retract without retract G11
G1 F1200 X142.52 Y69.38 E0.07487
G1 X142.89 Y68.83 E0.15558
G1 X143.06 Y68.61 E0.18808
G1 X143.21 Y68.43 E0.21635
G1 X143.63 Y67.97 E0.29141
G1 X144.09 Y67.54 E0.36622
G1 X144.58 Y67.17 E0.44067
G1 X145.01 Y66.88 E0.50314
G1 X145.58 Y66.58 E0.58003
G1 X146.19 Y66.32 E0.65979
G1 X146.56 Y66.21 E0.70524
G1 X147.13 Y66.06 E0.77651
G1 X147.73 Y65.97 E0.84959
G1 X148.05 Y65.95 E0.88744
G1 X148.40 Y65.94 E0.92924
G1 X148.73 Y65.95 E0.96937
G1 X148.73 Y65.95 E0.96949
G1 X149.06 Y65.97 E1.00888
G1 X149.61 Y66.06 E1.07590
G1 X150.30 Y66.22 E1.16077
G1 X150.96 Y66.47 E1.24514
G1 X151.56 Y66.77 E1.32661
G1 X152.25 Y67.20 E1.42319
G1 X153.03 Y67.86 E1.54597
G1 X153.38 Y68.24 E1.60864
G1 X153.61 Y67.98 E1.65038
G1 X154.25 Y67.42 E1.75266
G1 X154.57 Y67.17 E1.80147
G1 X155.08 Y66.84 E1.87347
G1 X155.78 Y66.48 E1.96916
G1 X156.09 Y66.36 E2.00865
G1 X156.29 Y66.27 E2.03521
G1 X157.18 Y66.05 E2.14479
G1 X157.73 Y65.97 E2.21203
G1 X158.20 Y65.95 E2.26789
G1 X158.41 Y65.90 E2.29446
G1 X159.58 Y66.05 E2.43536
G1 X160.34 Y66.24 E2.52945
G1 X161.16 Y66.56 E2.63479
G1 X161.81 Y66.91 E2.72404
G1 X162.63 Y67.50 E2.84506
G1 X163.13 Y67.97 E2.92716
G1 X163.59 Y68.47 E3.00869
G1 X164.21 Y69.32 E3.13471
G1 X164.54 Y69.89 E3.21477
G1 X164.81 Y70.43 E3.28620
G1 X165.16 Y71.34 E3.40362
G1 X165.42 Y72.16 E3.50710
G1 X165.57 Y72.86 E3.59227
G1 X165.70 Y73.66 E3.68959
G1 X165.76 Y74.14 E3.74810
G1 X165.80 Y74.87 E3.83610
G1 X165.81 Y75.26 E3.88232
G1 X165.81 Y75.70 E3.93585
G1 X165.81 Y75.84 E3.95209
G1 X165.79 Y76.16 E3.99028
G1 X165.75 Y76.72 E4.05799
G1 X165.67 Y77.30 E4.12883
G1 X165.52 Y78.14 E4.23108
G1 X165.45 Y78.42 E4.26487
G1 X165.32 Y78.91 E4.32658
G1 X165.14 Y79.46 E4.39594
G1 X164.80 Y80.34 E4.50874
G1 X164.45 Y81.02 E4.60127
G1 X164.26 Y81.33 E4.64473
G1 X164.03 Y81.70 E4.69687
G1 X163.36 Y82.55 E4.82609
G1 X162.69 Y83.18 E4.93679
G1 X162.31 Y83.49 E4.99632
G1 X161.74 Y83.88 E5.07883
G1 X161.25 Y84.13 E5.14469
G1 X160.70 Y84.37 E5.21681
G1 X160.32 Y84.51 E5.26505
G1 X159.88 Y84.62 E5.31902
G1 X159.65 Y84.68 E5.34833
G1 X159.06 Y84.77 E5.41987
G1 X158.40 Y84.81 E5.49956
G1 X157.89 Y84.78 E5.55998
G1 X157.62 Y84.75 E5.59249
G1 X156.94 Y84.64 E5.67525
G1 X156.02 Y84.36 E5.79119
G1 X155.15 Y83.95 E5.90648
G1 X154.81 Y83.73 E5.95471
G1 X154.51 Y83.54 E5.99782
G1 X153.67 Y82.82 E6.13070
G1 X153.38 Y82.50 E6.18167
G1 X153.14 Y82.77 E6.22450
G1 X152.63 Y83.24 E6.30824
G1 X152.17 Y83.59 E6.37826
G1 X151.85 Y83.79 E6.42257
G1 X151.16 Y84.18 E6.51774
G1 X150.62 Y84.41 E6.58790
G1 X149.51 Y84.72 E6.72617
G1 X148.43 Y84.81 E6.85638
G1 X147.66 Y84.77 E6.94919
G1 X147.31 Y84.70 E6.99170
G1 X147.13 Y84.69 E7.01372
G1 X146.46 Y84.51 E7.09665
G1 X146.14 Y84.40 E7.13790
G1 X145.56 Y84.16 E7.21282
G1 X145.34 Y84.04 E7.24276
G1 X145.03 Y83.88 E7.28473
G1 X144.67 Y83.63 E7.33735
G1 X143.94 Y83.08 E7.44714
G1 X143.41 Y82.55 E7.53623
G1 X142.85 Y81.88 E7.64117
G1 X142.79 Y81.76 E7.65803
G1 X142.70 Y81.64 E7.67495
G1 X142.47 Y81.27 E7.72822
G1 X142.04 Y80.48 E7.83579
G1 X141.74 Y79.79 E7.92668
G1 X141.44 Y78.91 E8.03787
G1 X141.25 Y78.16 E8.13036
G1 X141.11 Y77.44 E8.21841
G1 X141.02 Y76.72 E8.30544
G1 X140.97 Y76.09 E8.38136
G1 X140.96 Y75.42 E8.46227
G1 X140.95 Y75.31 E8.47572
G1 X140.96 Y74.90 E8.52435
G1 X140.97 Y74.75 E8.54308
G1 X140.99 Y74.35 E8.59023
G1 X140.99 Y74.23 E8.60451
G1 X141.06 Y73.71 E8.66763
G1 X141.10 Y73.41 E8.70380
G1 X141.25 Y72.58 E8.80554
G1 X141.35 Y72.17 E8.85637
G1 X141.60 Y71.35 E8.95860
G1 X141.92 Y70.50 E9.06755
G1 X142.21 Y69.92 E9.14515
G0 F9000 X142.56 Y70.11
G1 F1200 X142.86 Y69.59 E9.21669
G1 X143.22 Y69.06 E9.29334
G1 X143.38 Y68.86 E9.32420
G1 X143.51 Y68.69 E9.35128
G1 X143.91 Y68.25 E9.42218
G1 X144.35 Y67.85 E9.49300
G1 X144.81 Y67.49 E9.56335
G1 X145.22 Y67.22 E9.62199
G1 X145.75 Y66.94 E9.69442
G1 X146.33 Y66.70 E9.76930
G1 X146.66 Y66.59 E9.81140
G1 X147.21 Y66.45 E9.87934
G1 X147.77 Y66.37 E9.94742
G1 X148.06 Y66.35 E9.98262
G1 X148.40 Y66.34 E10.02227
G1 X148.69 Y66.35 E10.05820
G1 X149.02 Y66.37 E10.09688
G1 X149.53 Y66.45 E10.15926
G1 X150.18 Y66.61 E10.23947
G1 X150.80 Y66.84 E10.31856
G1 X151.37 Y67.12 E10.39493
G1 X152.01 Y67.52 E10.48569
G1 X152.75 Y68.15 E10.60224
G1 X153.29 Y68.74 E10.69829
G1 X153.38 Y68.85 E10.71518
G1 X153.41 Y68.82 E10.72046
G1 X153.44 Y68.77 E10.72758
G1 X153.53 Y68.68 E10.74252
G1 X153.89 Y68.27 E10.80882
G1 X154.51 Y67.73 E10.90677
G1 X154.80 Y67.50 E10.95190
G1 X155.28 Y67.19 E11.01944
G1 X155.95 Y66.84 E11.10993
G1 X156.25 Y66.73 E11.14865
G1 X156.43 Y66.64 E11.17269
G1 X157.26 Y66.45 E11.27485
G1 X157.77 Y66.37 E11.33760
G1 X158.25 Y66.34 E11.39467
G1 X158.43 Y66.31 E11.41693
G1 X159.51 Y66.44 E11.54706
G1 X160.22 Y66.62 E11.63522
G1 X160.99 Y66.92 E11.73452
G1 X161.60 Y67.25 E11.81770
G1 X162.38 Y67.81 E11.93269
G1 X162.85 Y68.25 E12.01004
G1 X163.28 Y68.72 E12.08681
G1 X163.87 Y69.54 E12.20750
G1 X164.19 Y70.08 E12.28370
G1 X164.44 Y70.59 E12.35148
G1 X164.79 Y71.47 E12.46479
G1 X165.03 Y72.27 E12.56463
G1 X165.18 Y72.93 E12.64660
G1 X165.30 Y73.71 E12.74148
G1 X165.36 Y74.18 E12.79757
G1 X165.40 Y74.89 E12.88341
G1 X165.41 Y75.26 E12.92771
G1 X165.41 Y75.71 E12.98196
G1 X165.41 Y75.83 E12.99676
G1 X165.39 Y76.13 E13.03218
G1 X165.35 Y76.68 E13.09834
G1 X165.27 Y77.24 E13.16651
G1 X165.13 Y78.06 E13.26608
G1 X165.06 Y78.32 E13.29801
G1 X164.94 Y78.80 E13.35808
G1 X164.77 Y79.33 E13.42445
G1 X164.43 Y80.17 E13.53349
G1 X164.10 Y80.83 E13.62198
G1 X163.92 Y81.12 E13.66319
G1 X163.70 Y81.47 E13.71246
G1 X163.07 Y82.28 E13.83561
G1 X162.43 Y82.88 E13.94105
G1 X162.07 Y83.17 E13.99673
G1 X161.53 Y83.53 E14.07431
G1 X161.08 Y83.77 E14.13583
G1 X160.55 Y84.00 E14.20467
G1 X160.20 Y84.13 E14.24923
G1 X159.79 Y84.23 E14.30031
G1 X159.57 Y84.28 E14.32718
G1 X159.02 Y84.37 E14.39459
G1 X158.39 Y84.41 E14.46947
G1 X157.92 Y84.39 E14.52581
G1 X157.68 Y84.36 E14.55554
G1 X157.03 Y84.25 E14.63406
G1 X156.16 Y83.99 E14.74297
G1 X155.35 Y83.60 E14.85161
G1 X155.03 Y83.39 E14.89681
G1 X154.75 Y83.21 E14.93679
G1 X153.95 Y82.53 E15.06329
G1 X153.48 Y82.01 E15.14706
G1 X153.38 Y81.89 E15.16617
G1 X153.31 Y81.98 E15.18018
G1 X152.86 Y82.49 E15.26183
G1 X152.37 Y82.93 E15.34108
G1 X151.94 Y83.27 E15.40682
G1 X151.65 Y83.45 E15.44780
G1 X150.99 Y83.82 E15.53883
G1 X150.49 Y84.03 E15.60339
G1 X149.44 Y84.32 E15.73419
G1 X148.43 Y84.41 E15.85633
G1 X147.71 Y84.37 E15.94287
G1 X147.36 Y84.31 E15.98539
G1 X147.20 Y84.30 E16.00500
G1 X146.58 Y84.13 E16.08162
G1 X146.28 Y84.03 E16.11991
G1 X145.73 Y83.80 E16.19042
G1 X145.53 Y83.69 E16.21874
G1 X145.24 Y83.53 E16.25831
G1 X144.90 Y83.31 E16.30680
G1 X144.21 Y82.77 E16.41197
G1 X143.71 Y82.28 E16.49589
G1 X143.19 Y81.66 E16.59367
G1 X143.12 Y81.54 E16.60908
G1 X143.04 Y81.42 E16.62730
G1 X142.81 Y81.07 E16.67755
G1 X142.40 Y80.31 E16.78152
G1 X142.11 Y79.64 E16.86817
G1 X141.82 Y78.80 E16.97556
G1 X141.64 Y78.08 E17.06459
G1 X141.51 Y77.38 E17.14984
G1 X141.42 Y76.68 E17.23420
G1 X141.37 Y76.07 E17.30759
G1 X141.35 Y75.40 E17.38850
G1 X141.35 Y75.30 E17.40016
G1 X141.36 Y74.92 E17.44639
G1 X141.37 Y74.77 E17.46428
G1 X141.39 Y74.36 E17.51275
G1 X141.39 Y74.26 E17.52535
G1 X141.46 Y73.76 E17.58532
G1 X141.49 Y73.48 E17.62006
G1 X141.65 Y72.66 E17.71947
G1 X141.74 Y72.27 E17.76771
G1 X141.97 Y71.48 E17.86652
G1 X142.29 Y70.67 E17.97164
G1 X142.56 Y70.11 E18.04565
G10
G0 F9000 X146.08 Y71.61
;TYPE:WALL-INNER
G11
G1 F1200 X146.43 Y71.13 E18.11629
G1 X146.80 Y70.75 E18.18010
G1 X147.17 Y70.49 E18.23439
G1 X147.39 Y70.37 E18.26425
G1 X147.69 Y70.25 E18.30273
G1 X147.98 Y70.18 E18.33879
G1 X148.15 Y70.15 E18.35992
G1 X148.39 Y70.14 E18.38815
G1 X148.62 Y70.15 E18.41591
G1 X149.07 Y70.25 E18.47164
G1 X149.50 Y70.44 E18.52814
G1 X149.76 Y70.59 E18.56390
G1 X150.12 Y70.90 E18.62018
G1 X150.36 Y71.17 E18.66409
G1 X150.62 Y71.52 E18.71614
G1 X150.86 Y71.94 E18.77452
G1 X151.11 Y72.49 E18.84702
G1 X151.29 Y73.00 E18.91138
G1 X151.41 Y73.45 E18.96758
G1 X151.56 Y74.42 E19.08599
G1 X151.60 Y74.89 E19.14185
G1 X151.61 Y75.52 E19.21746
G1 X151.60 Y75.79 E19.24989
G1 X151.60 Y75.80 E19.25122
G1 X151.55 Y76.46 E19.33115
G1 X151.40 Y77.33 E19.43668
G1 X151.20 Y78.01 E19.52223
G1 X150.91 Y78.72 E19.61351
G1 X150.71 Y79.10 E19.66565
G1 X150.35 Y79.59 E19.73825
G1 X150.16 Y79.81 E19.77326
G1 X149.77 Y80.14 E19.83487
G1 X149.32 Y80.40 E19.89745
G1 X148.76 Y80.57 E19.96734
G1 X148.37 Y80.60 E20.01371
G1 X148.15 Y80.59 E20.04064
G1 X147.70 Y80.49 E20.09580
G1 X147.41 Y80.38 E20.13349
G1 X147.12 Y80.22 E20.17357
G1 X146.71 Y79.91 E20.23458
G1 X146.35 Y79.52 E20.29852
G1 X146.09 Y79.15 E20.35252
G1 X145.81 Y78.63 E20.42271
G1 X145.66 Y78.27 E20.46963
G1 X145.47 Y77.73 E20.53843
G1 X145.35 Y77.25 E20.59771
G1 X145.20 Y76.28 E20.71608
G1 X145.15 Y75.25 E20.83980
G1 X145.16 Y75.05 E20.86321
G1 X145.16 Y74.98 E20.87209
G1 X145.22 Y74.24 E20.96086
G1 X145.37 Y73.43 E21.06020
G1 X145.57 Y72.73 E21.14764
G1 X145.78 Y72.19 E21.21697
G1 X146.08 Y71.61 E21.29550
G0 F9000 X145.75 Y71.39
;TYPE:WALL-OUTER
G1 F1200 X145.95 Y71.09 E21.33957
G1 X146.12 Y70.88 E21.37203
G1 X146.33 Y70.65 E21.40914
G1 X146.54 Y70.45 E21.44361
G1 X146.96 Y70.14 E21.50643
G1 X147.47 Y69.90 E21.57422
G1 X147.90 Y69.79 E21.62667
G1 X148.11 Y69.76 E21.65276
G1 X148.39 Y69.74 E21.68616
G1 X148.67 Y69.76 E21.71968
G1 X149.19 Y69.87 E21.78349
G1 X149.46 Y69.97 E21.81830
G1 X149.70 Y70.09 E21.85067
G1 X149.99 Y70.27 E21.89192
G1 X150.39 Y70.61 E21.95441
G1 X150.67 Y70.91 E22.00451
G1 X150.96 Y71.29 E22.06144
G1 X151.22 Y71.75 E22.12459
G1 X151.49 Y72.34 E22.20267
G1 X151.67 Y72.87 E22.26995
G1 X151.80 Y73.36 E22.33038
G1 X151.89 Y73.85 E22.38978
G1 X151.96 Y74.37 E22.45310
G1 X152.00 Y74.86 E22.51221
G1 X152.01 Y75.50 E22.58927
G1 X152.01 Y75.52 E22.59107
G1 X152.00 Y75.78 E22.62315
G1 X152.00 Y75.80 E22.62531
G1 X151.95 Y76.48 E22.70742
G1 X151.78 Y77.42 E22.82192
G1 X151.58 Y78.13 E22.91020
G1 X151.27 Y78.90 E23.00950
G1 X151.05 Y79.30 E23.06466
G1 X150.66 Y79.85 E23.14491
G1 X150.44 Y80.09 E23.18399
G1 X150.19 Y80.32 E23.22569
G1 X149.91 Y80.52 E23.26686
G1 X149.49 Y80.76 E23.32409
G1 X149.37 Y80.81 E23.34045
G1 X148.83 Y80.96 E23.40780
G1 X148.38 Y81.00 E23.46115
G1 X148.10 Y80.99 E23.49529
G1 X147.77 Y80.93 E23.53526
G1 X147.47 Y80.84 E23.57274
G1 X147.23 Y80.74 E23.60465
G1 X146.98 Y80.61 E23.63837
G1 X146.88 Y80.54 E23.65302
G1 X146.45 Y80.21 E23.71830
G1 X146.21 Y79.97 E23.75802
G1 X146.02 Y79.74 E23.79431
G1 X145.75 Y79.35 E23.85189
G1 X145.46 Y78.82 E23.92428
G1 X145.28 Y78.42 E23.97658
G1 X145.09 Y77.84 E24.04978
G1 X144.96 Y77.35 E24.11070
G1 X144.87 Y76.83 E24.17323
G1 X144.80 Y76.33 E24.23424
G1 X144.77 Y75.91 E24.28501
G1 X144.75 Y75.27 E24.36231
G1 X144.75 Y75.25 E24.36388
G1 X144.79 Y74.48 E24.45714
G1 X144.79 Y74.47 E24.45846
G1 X144.98 Y73.35 E24.59381
G1 X145.19 Y72.60 E24.68795
G1 X145.41 Y72.03 E24.76126
G1 X145.57 Y71.70 E24.80549
G1 X145.75 Y71.39 E24.84762
G0 F9000 X146.14 Y71.75
;TYPE:FILL
G1 F1200 X151.34 Y76.95 E25.73001
G0 F9000 X151.25 Y77.42
G1 F1200 X145.94 Y72.12 E26.62945
G0 F9000 X145.78 Y72.52
G1 F1200 X151.12 Y77.86 E27.53627
G0 F9000 X150.97 Y78.27
G1 F1200 X145.63 Y72.94 E28.44148
G0 F9000 X145.51 Y73.38
G1 F1200 X150.80 Y78.67 E29.33973
G0 F9000 X150.60 Y79.04
G1 F1200 X145.41 Y73.86 E30.21940
G0 F9000 X145.34 Y74.34
G1 F1200 X150.36 Y79.37 E31.07259
G0 F9000 X150.11 Y79.68
G1 F1200 X145.29 Y74.86 E31.89032
G0 F9000 X145.28 Y75.42
G1 F1200 X149.81 Y79.95 E32.65900
G0 F9000 X149.47 Y80.17
G1 F1200 X145.30 Y76.01 E33.36583
G0 F9000 X145.38 Y76.64
G1 F1200 X149.08 Y80.35 E33.99391
G0 F9000 X148.62 Y80.46
G1 F1200 X145.50 Y77.33 E34.52441
G0 F9000 X145.74 Y78.14
G1 F1200 X148.04 Y80.44 E34.91541
G0 F9000 X147.04 Y80.01
G1 F1200 X146.37 Y79.34 E35.02962
G0 F9000 X151.42 Y76.47
G1 F1200 X146.37 Y71.41 E35.88774
G0 F9000 X146.62 Y71.10
G1 F1200 X151.47 Y75.95 E36.71047
G0 F9000 X151.49 Y75.41
G1 F1200 X146.91 Y70.83 E37.48772
G0 F9000 X147.24 Y70.59
G1 F1200 X151.47 Y74.82 E38.20676
G0 F9000 X151.40 Y74.19
G1 F1200 X147.62 Y70.41 E38.84791
G0 F9000 X148.07 Y70.29
G1 F1200 X151.29 Y73.51 E39.39487
G0 F9000 X151.06 Y72.72
G1 F1200 X148.62 Y70.28 E39.80938
G0 F9000 X149.47 Y70.56
G1 F1200 X150.56 Y71.64 E39.99419
G10
G0 F9000 X155.49 Y72.96
;TYPE:WALL-INNER
G11
G1 F1200 X155.63 Y72.55 E40.04618
G1 X155.82 Y72.09 E40.10624
G1 X156.15 Y71.50 E40.18727
G1 X156.35 Y71.23 E40.22794
G1 X156.58 Y70.97 E40.26902
G1 X157.01 Y70.60 E40.33708
G1 X157.48 Y70.33 E40.40199
G1 X157.72 Y70.24 E40.43240
G1 X158.15 Y70.15 E40.48605
G1 X158.38 Y70.14 E40.51297
G1 X158.80 Y70.18 E40.56385
G1 X159.06 Y70.25 E40.59558
G1 X159.39 Y70.38 E40.63914
G1 X159.58 Y70.48 E40.66444
G1 X159.97 Y70.76 E40.72171
G1 X160.33 Y71.13 E40.78417
G1 X160.68 Y71.60 E40.85457
G1 X160.96 Y72.12 E40.92567
G1 X161.20 Y72.72 E41.00326
G1 X161.35 Y73.24 E41.06746
G1 X161.45 Y73.65 E41.11820
G1 X161.54 Y74.23 E41.18890
G1 X161.61 Y75.05 E41.28776
G1 X161.61 Y75.28 E41.31489
G1 X161.60 Y75.78 E41.37502
G1 X161.57 Y76.30 E41.43722
G1 X161.41 Y77.26 E41.55415
G1 X161.29 Y77.73 E41.61236
G1 X161.19 Y78.03 E41.65065
G1 X160.96 Y78.61 E41.72499
G1 X160.69 Y79.12 E41.79473
G1 X160.59 Y79.28 E41.81700
G1 X160.25 Y79.71 E41.88273
G1 X159.80 Y80.12 E41.95621
G1 X159.59 Y80.26 E41.98683
G1 X159.07 Y80.50 E42.05504
G1 X158.85 Y80.55 E42.08196
G1 X158.61 Y80.59 E42.11098
G1 X158.37 Y80.60 E42.13994
G1 X157.89 Y80.54 E42.19835
G1 X157.55 Y80.44 E42.24136
G1 X157.21 Y80.28 E42.28645
G1 X157.01 Y80.15 E42.31437
G1 X156.60 Y79.80 E42.37992
G1 X156.41 Y79.59 E42.41323
G1 X156.22 Y79.34 E42.45081
G1 X156.00 Y78.99 E42.50075
G1 X155.83 Y78.67 E42.54326
G1 X155.60 Y78.10 E42.61756
G1 X155.37 Y77.33 E42.71351
G1 X155.28 Y76.90 E42.76703
G1 X155.17 Y75.98 E42.87735
G1 X155.15 Y75.51 E42.93489
G1 X155.16 Y75.01 E42.99478
G1 X155.20 Y74.44 E43.06348
G1 X155.28 Y73.88 E43.13105
G1 X155.49 Y72.96 E43.24402
G0 F9000 X155.10 Y72.88
;TYPE:WALL-OUTER
G1 F1200 X155.26 Y72.40 E43.30504
G1 X155.45 Y71.93 E43.36591
G1 X155.81 Y71.29 E43.45364
G1 X156.10 Y70.90 E43.51225
G1 X156.30 Y70.68 E43.54743
G1 X156.69 Y70.34 E43.60959
G1 X156.97 Y70.14 E43.65153
G1 X157.32 Y69.96 E43.69817
G1 X157.60 Y69.86 E43.73382
G1 X158.11 Y69.76 E43.79701
G1 X158.38 Y69.74 E43.82873
G1 X158.55 Y69.75 E43.85000
G1 X158.87 Y69.79 E43.88807
G1 X159.18 Y69.87 E43.92658
G1 X159.56 Y70.02 E43.97547
G1 X159.79 Y70.14 E44.00731
G1 X160.22 Y70.45 E44.07095
G1 X160.65 Y70.88 E44.14316
G1 X161.01 Y71.39 E44.21813
G1 X161.20 Y71.70 E44.26244
G1 X161.33 Y71.97 E44.29824
G1 X161.58 Y72.59 E44.37853
G1 X161.74 Y73.13 E44.44610
G1 X161.84 Y73.57 E44.49989
G1 X161.94 Y74.18 E44.57425
G1 X161.97 Y74.48 E44.61028
G1 X162.01 Y75.04 E44.67761
G1 X162.01 Y75.27 E44.70510
G1 X162.00 Y75.80 E44.76896
G1 X161.97 Y76.34 E44.83403
G1 X161.80 Y77.34 E44.95572
G1 X161.68 Y77.84 E45.01713
G1 X161.33 Y78.77 E45.13689
G1 X161.13 Y79.16 E45.18911
G1 X161.03 Y79.33 E45.21329
G1 X160.92 Y79.51 E45.23760
G1 X160.55 Y79.97 E45.30913
G1 X160.19 Y80.32 E45.36924
G1 X159.79 Y80.61 E45.42790
G1 X159.29 Y80.84 E45.49377
G1 X158.93 Y80.94 E45.53972
G1 X158.66 Y80.99 E45.57251
G1 X158.38 Y81.00 E45.60616
G1 X158.14 Y80.99 E45.63430
G1 X157.80 Y80.93 E45.67622
G1 X157.40 Y80.81 E45.72611
G1 X157.02 Y80.63 E45.77699
G1 X156.77 Y80.47 E45.81197
G1 X156.32 Y80.08 E45.88365
G1 X156.10 Y79.84 E45.92265
G1 X155.89 Y79.57 E45.96333
G1 X155.50 Y78.89 E46.05773
G1 X155.22 Y78.23 E46.14369
G1 X155.06 Y77.73 E46.20668
G1 X154.89 Y76.97 E46.30110
G1 X154.78 Y76.02 E46.41555
G1 X154.75 Y75.49 E46.47921
G1 X154.76 Y74.99 E46.53885
G1 X154.81 Y74.38 E46.61201
G1 X154.88 Y73.84 E46.67764
G1 X154.88 Y73.83 E46.67909
G1 X155.10 Y72.88 E46.79570
G0 F9000 X155.55 Y73.24
;TYPE:FILL
G1 F1200 X160.86 Y78.55 E47.69692
G0 F9000 X160.66 Y78.92
G1 F1200 X155.44 Y73.70 E48.58278
G0 F9000 X155.35 Y74.18
G1 F1200 X160.44 Y79.27 E49.44625
G0 F9000 X160.20 Y79.59
G1 F1200 X155.30 Y74.69 E50.27695
G0 F9000 X155.27 Y75.23
