;FLAVOR:UltiGCode
;TIME:2061      
;MATERIAL:2711      
;MATERIAL2:0         

;Layer count: 336
;LAYER:0
M107
G0 F9000 X66.17 Y66.54 Z0.30
G0 X66.17 Y66.54
;TYPE:SKIRT
; mod erri: un-retract without retract G11
G1 F1200 X67.04 Y65.85 E0.19959
G1 X68.00 Y65.36 E0.39352
G1 X69.00 Y65.08 E0.58024
G1 X69.78 Y65.01 E0.72158
G1 X70.34 Y65.00 E0.82275
G1 X70.65 Y65.00 E0.87837
G1 X70.69 Y65.00 E0.88576
G1 X71.48 Y65.01 E1.02725
G1 X71.85 Y65.00 E1.09385
G1 X72.19 Y65.01 E1.15505
G1 X72.58 Y65.00 E1.22579
G1 X72.92 Y65.01 E1.28717
G1 X73.31 Y65.00 E1.35791
G1 X73.66 Y65.01 E1.41911
G1 X74.05 Y65.00 E1.48985
G1 X74.39 Y65.01 E1.55105
G1 X74.78 Y65.00 E1.62179
G1 X75.10 Y65.01 E1.67993
G1 X75.77 Y65.00 E1.79945
G1 X75.83 Y65.00 E1.80971
G1 X76.10 Y65.00 E1.85957
G1 X76.17 Y65.00 E1.87239
G1 X77.16 Y65.03 E2.04997
G1 X77.34 Y65.01 E2.08223
G1 X78.03 Y65.00 E2.20680
G1 X78.31 Y65.00 E2.25792
G1 X78.51 Y65.00 E2.29266
G1 X79.08 Y65.01 E2.39599
G1 X79.53 Y65.00 E2.47609
G1 X79.79 Y65.01 E2.52451
G1 X80.26 Y65.00 E2.60803
G1 X80.53 Y65.01 E2.65645
G1 X80.99 Y65.00 E2.73997
G1 X81.26 Y65.01 E2.78839
G1 X81.72 Y65.00 E2.87209
G1 X81.99 Y65.01 E2.92051
G1 X82.46 Y65.00 E3.00403
G1 X82.71 Y65.01 E3.04867
G1 X83.25 Y65.00 E3.14695
G1 X83.54 Y65.00 E3.19933
G1 X83.79 Y65.00 E3.24361
G1 X83.99 Y65.00 E3.27979
G1 X85.16 Y65.07 E3.49110
G1 X86.26 Y65.40 E3.69827
G1 X87.23 Y65.91 E3.89484
G1 X88.08 Y66.62 E4.09465
G1 X88.77 Y67.49 E4.29424
G1 X89.26 Y68.45 E4.48817
G1 X89.54 Y69.45 E4.67472
G1 X89.62 Y70.24 E4.81805
G1 X89.62 Y70.93 E4.94261
G1 X89.62 Y71.27 E5.00273
G1 X89.62 Y71.46 E5.03729
G1 X89.62 Y72.10 E5.15286
G1 X89.62 Y72.59 E5.24142
G1 X89.62 Y72.90 E5.29632
G1 X89.62 Y73.41 E5.38830
G1 X89.62 Y73.71 E5.44302
G1 X89.62 Y74.22 E5.53500
G1 X89.62 Y74.53 E5.58972
G1 X89.62 Y75.04 E5.68170
G1 X89.62 Y75.34 E5.73660
G1 X89.62 Y75.85 E5.82840
G1 X89.62 Y76.16 E5.88312
G1 X89.62 Y76.67 E5.97510
G1 X89.62 Y76.97 E6.03000
G1 X89.62 Y77.48 E6.12198
G1 X89.62 Y77.79 E6.17670
G1 X89.62 Y78.30 E6.26868
G1 X89.62 Y78.60 E6.32340
G1 X89.62 Y79.11 E6.41538
G1 X89.62 Y79.42 E6.47028
G1 X89.62 Y80.00 E6.57522
G1 X89.62 Y80.32 E6.63264
G1 X89.62 Y80.59 E6.68034
G1 X89.62 Y80.80 E6.71959
G1 X89.56 Y82.01 E6.93626
G1 X89.22 Y83.11 E7.14457
G1 X88.71 Y84.08 E7.34114
G1 X88.00 Y84.93 E7.54095
G1 X87.13 Y85.62 E7.74054
G1 X86.17 Y86.11 E7.93447
G1 X85.18 Y86.39 E8.12119
G1 X84.38 Y86.47 E8.26434
G1 X83.74 Y86.47 E8.37955
G1 X83.46 Y86.47 E8.43067
G1 X83.27 Y86.47 E8.46541
G1 X82.69 Y86.47 E8.56873
G1 X82.25 Y86.47 E8.64865
G1 X81.98 Y86.47 E8.69707
G1 X81.52 Y86.47 E8.78077
G1 X81.25 Y86.47 E8.82919
G1 X80.78 Y86.47 E8.91271
G1 X80.51 Y86.47 E8.96113
G1 X80.05 Y86.47 E9.04465
G1 X79.78 Y86.47 E9.09307
G1 X79.31 Y86.47 E9.17677
G1 X79.07 Y86.47 E9.22141
G1 X78.52 Y86.47 E9.31970
G1 X78.23 Y86.47 E9.37208
G1 X77.99 Y86.47 E9.41600
G1 X77.82 Y86.47 E9.44552
G1 X77.02 Y86.44 E9.59016
G1 X76.85 Y86.46 E9.62151
G1 X76.23 Y86.47 E9.73186
G1 X75.92 Y86.47 E9.78748
G1 X75.88 Y86.47 E9.79487
G1 X75.10 Y86.47 E9.93636
G1 X74.73 Y86.47 E10.00296
G1 X74.39 Y86.47 E10.06434
G1 X73.99 Y86.47 E10.13508
G1 X73.65 Y86.47 E10.19628
G1 X73.26 Y86.47 E10.26702
G1 X72.92 Y86.47 E10.32822
G1 X72.53 Y86.47 E10.39896
G1 X72.19 Y86.47 E10.46034
G1 X71.79 Y86.47 E10.53108
G1 X71.47 Y86.47 E10.58904
G1 X70.81 Y86.47 E10.70856
G1 X70.75 Y86.47 E10.71882
G1 X70.48 Y86.47 E10.76814
G1 X70.39 Y86.48 E10.78330
G1 X69.56 Y86.45 E10.93336
G1 X68.93 Y86.38 E11.04734
G1 X67.91 Y86.08 E11.23891
G1 X66.95 Y85.56 E11.43548
G1 X66.09 Y84.85 E11.63529
G1 X65.40 Y83.98 E11.83489
G1 X64.91 Y83.02 E12.02881
G1 X64.63 Y82.03 E12.21536
G1 X64.56 Y81.24 E12.35724
G1 X64.55 Y80.64 E12.46615
G1 X64.55 Y80.27 E12.53185
G1 X64.55 Y80.24 E12.53743
G1 X64.56 Y79.38 E12.69314
G1 X64.56 Y78.97 E12.76658
G1 X64.56 Y78.58 E12.83642
G1 X64.56 Y78.15 E12.91346
G1 X64.56 Y77.77 E12.98312
G1 X64.56 Y77.34 E13.06016
G1 X64.56 Y76.95 E13.12982
G1 X64.56 Y76.52 E13.20686
G1 X64.56 Y76.13 E13.27670
G1 X64.56 Y75.71 E13.35356
G1 X64.56 Y75.32 E13.42322
G1 X64.56 Y74.89 E13.50026
G1 X64.56 Y74.50 E13.57010
G1 X64.56 Y74.08 E13.64714
G1 X64.56 Y73.69 E13.71680
G1 X64.56 Y73.26 E13.79384
G1 X64.56 Y72.87 E13.86350
G1 X64.56 Y72.45 E13.94054
G1 X64.56 Y72.06 E14.01038
G1 X64.55 Y71.31 E14.14520
G1 X64.55 Y71.28 E14.15133
G1 X64.55 Y70.95 E14.20965
G1 X64.55 Y70.87 E14.22407
G1 X64.58 Y70.01 E14.37844
G1 X64.64 Y69.38 E14.49333
G1 X64.95 Y68.36 E14.68490
G1 X65.46 Y67.40 E14.88147
G1 X66.17 Y66.54 E15.08128
G0 F9000 X66.59 Y66.97
G1 F1200 X67.37 Y66.36 E15.25883
G1 X68.22 Y65.92 E15.43151
G1 X69.11 Y65.67 E15.59749
G1 X69.81 Y65.61 E15.72473
G1 X70.35 Y65.60 E15.82086
G1 X70.66 Y65.60 E15.87648
G1 X70.70 Y65.60 E15.88477
G1 X71.47 Y65.61 E16.02391
G1 X71.85 Y65.61 E16.09123
G1 X72.19 Y65.61 E16.15261
G1 X72.58 Y65.61 E16.22317
G1 X72.92 Y65.61 E16.28473
G1 X73.31 Y65.61 E16.35529
G1 X73.66 Y65.61 E16.41667
G1 X74.05 Y65.61 E16.48723
G1 X74.39 Y65.61 E16.54861
G1 X74.78 Y65.61 E16.61918
G1 X75.11 Y65.61 E16.67786
G1 X75.78 Y65.60 E16.79936
G1 X75.83 Y65.60 E16.80818
G1 X76.11 Y65.60 E16.85876
G1 X76.18 Y65.60 E16.87157
G1 X77.13 Y65.63 E17.04268
G1 X77.16 Y65.63 E17.04741
G1 X77.38 Y65.61 E17.08673
G1 X78.03 Y65.60 E17.20464
G1 X78.31 Y65.60 E17.25558
G1 X78.50 Y65.60 E17.28996
G1 X79.08 Y65.61 E17.39274
G1 X79.53 Y65.61 E17.47356
G1 X79.79 Y65.61 E17.52162
G1 X80.26 Y65.61 E17.60550
G1 X80.53 Y65.61 E17.65356
G1 X80.99 Y65.61 E17.73744
G1 X81.26 Y65.61 E17.78550
G1 X81.72 Y65.61 E17.86956
G1 X81.99 Y65.61 E17.91762
G1 X82.46 Y65.61 E18.00150
G1 X82.71 Y65.61 E18.04650
G1 X83.25 Y65.60 E18.14497
G1 X83.54 Y65.60 E18.19681
G1 X83.79 Y65.60 E18.24181
G1 X83.98 Y65.60 E18.27475
G1 X85.06 Y65.66 E18.46965
G1 X86.03 Y65.96 E18.65330
G1 X86.89 Y66.41 E18.82821
G1 X87.65 Y67.04 E19.00590
G1 X88.27 Y67.82 E19.18345
G1 X88.70 Y68.67 E19.35612
G1 X88.95 Y69.56 E19.52205
G1 X89.02 Y70.27 E19.65094
G1 X89.02 Y70.93 E19.77028
G1 X89.02 Y71.26 E19.82968
G1 X89.02 Y71.46 E19.86442
G1 X89.02 Y72.09 E19.97927
G1 X89.02 Y72.59 E20.06855
G1 X89.02 Y72.89 E20.12327
G1 X89.02 Y73.41 E20.21543
G1 X89.02 Y73.71 E20.26997
G1 X89.02 Y74.22 E20.36213
G1 X89.02 Y74.53 E20.41667
G1 X89.02 Y75.04 E20.50883
G1 X89.02 Y75.34 E20.56355
G1 X89.02 Y75.85 E20.65553
G1 X89.02 Y76.16 E20.71007
G1 X89.02 Y76.67 E20.80223
G1 X89.02 Y76.97 E20.85695
G1 X89.02 Y77.48 E20.94911
G1 X89.02 Y77.79 E21.00365
G1 X89.02 Y78.30 E21.09581
G1 X89.02 Y78.60 E21.15035
G1 X89.02 Y79.11 E21.24251
G1 X89.02 Y79.42 E21.29723
G1 X89.02 Y80.00 E21.40307
G1 X89.02 Y80.32 E21.45995
G1 X89.02 Y80.64 E21.51737
G1 X89.02 Y80.79 E21.54456
G1 X88.96 Y81.90 E21.74483
G1 X88.67 Y82.88 E21.92944
G1 X88.21 Y83.74 E22.10435
G1 X87.58 Y84.50 E22.28204
G1 X86.81 Y85.11 E22.45959
G1 X85.95 Y85.55 E22.63227
G1 X85.07 Y85.80 E22.79824
G1 X84.35 Y85.87 E22.92692
G1 X83.74 Y85.87 E23.03709
G1 X83.46 Y85.87 E23.08803
G1 X83.27 Y85.87 E23.12241
G1 X82.70 Y85.87 E23.22519
G1 X82.25 Y85.87 E23.30583
G1 X81.98 Y85.87 E23.35389
G1 X81.52 Y85.87 E23.43795
G1 X81.25 Y85.87 E23.48601
G1 X80.78 Y85.87 E23.56989
G1 X80.52 Y85.87 E23.61795
G1 X80.05 Y85.87 E23.70184
G1 X79.78 Y85.87 E23.74990
G1 X79.31 Y85.87 E23.83396
G1 X79.06 Y85.87 E23.87896
G1 X78.52 Y85.87 E23.97742
G1 X78.23 Y85.87 E24.02926
G1 X77.98 Y85.87 E24.07390
G1 X77.83 Y85.87 E24.10126
G1 X77.04 Y85.84 E24.24410
G1 X77.02 Y85.84 E24.24795
G1 X76.81 Y85.86 E24.28602
G1 X76.23 Y85.87 E24.38989
G1 X75.92 Y85.87 E24.44551
G1 X75.87 Y85.88 E24.45380
G1 X75.10 Y85.87 E24.59295
G1 X74.73 Y85.87 E24.66027
G1 X74.39 Y85.87 E24.72183
G1 X73.99 Y85.87 E24.79239
G1 X73.65 Y85.87 E24.85377
G1 X73.26 Y85.87 E24.92433
G1 X72.92 Y85.87 E24.98571
G1 X72.53 Y85.87 E25.05627
G1 X72.19 Y85.87 E25.11783
G1 X71.79 Y85.87 E25.18839
G1 X71.47 Y85.87 E25.24689
G1 X70.79 Y85.87 E25.36839
G1 X70.74 Y85.87 E25.37721
G1 X70.46 Y85.87 E25.42851
G1 X70.38 Y85.88 E25.44204
G1 X69.60 Y85.85 E25.58309
G1 X69.05 Y85.79 E25.68332
G1 X68.14 Y85.52 E25.85382
G1 X67.28 Y85.06 E26.02872
G1 X66.52 Y84.43 E26.20641
G1 X65.91 Y83.66 E26.38397
G1 X65.47 Y82.80 E26.55664
G1 X65.22 Y81.92 E26.72257
G1 X65.16 Y81.21 E26.85001
G1 X65.15 Y80.63 E26.95406
G1 X65.15 Y80.26 E27.02084
G1 X65.15 Y80.23 E27.02606
G1 X65.16 Y79.38 E27.17942
G1 X65.16 Y78.97 E27.25376
G1 X65.16 Y78.58 E27.32342
G1 X65.16 Y78.15 E27.40064
G1 X65.16 Y77.77 E27.47012
G1 X65.16 Y77.34 E27.54734
G1 X65.16 Y76.95 E27.61682
G1 X65.16 Y76.52 E27.69405
G1 X65.16 Y76.14 E27.76371
G1 X65.16 Y75.71 E27.84075
G1 X65.16 Y75.32 E27.91023
G1 X65.16 Y74.89 E27.98745
G1 X65.16 Y74.50 E28.05711
G1 X65.16 Y74.08 E28.13433
G1 X65.16 Y73.69 E28.20381
G1 X65.16 Y73.26 E28.28103
G1 X65.16 Y72.88 E28.35051
G1 X65.16 Y72.45 E28.42773
G1 X65.16 Y72.06 E28.49739
G1 X65.15 Y71.31 E28.63311
G1 X65.15 Y71.27 E28.63941
G1 X65.15 Y70.94 E28.69881
G1 X65.15 Y70.86 E28.71252
G1 X65.18 Y70.06 E28.85806
G1 X65.23 Y69.50 E28.95920
G1 X65.51 Y68.59 E29.12970
G1 X65.96 Y67.73 E29.30461
G1 X66.59 Y66.97 E29.48230
G0 F9000 X69.12 Y69.56
;TYPE:WALL-OUTER
G1 F1200 X69.33 Y69.40 E29.52843
G1 X69.54 Y69.29 E29.57109
G1 X69.77 Y69.23 E29.61451
G1 X70.37 Y69.20 E29.72298
G1 X70.73 Y69.20 E29.78688
G1 X70.76 Y69.20 E29.79228
G1 X71.45 Y69.21 E29.91775
G1 X71.85 Y69.20 E29.98867
G1 X72.19 Y69.21 E30.04987
G1 X72.58 Y69.20 E30.12061
G1 X72.92 Y69.21 E30.18199
G1 X73.31 Y69.20 E30.25273
G1 X73.65 Y69.21 E30.31393
G1 X74.05 Y69.20 E30.38467
G1 X74.39 Y69.21 E30.44587
G1 X74.78 Y69.20 E30.51661
G1 X75.12 Y69.21 E30.57817
G1 X75.83 Y69.20 E30.70579
G1 X75.87 Y69.20 E30.71336
G1 X76.23 Y69.20 E30.77780
G1 X76.76 Y69.22 E30.87325
G1 X76.91 Y69.24 E30.90029
G1 X77.02 Y69.28 E30.92176
G1 X77.15 Y69.28 E30.94463
G1 X77.25 Y69.25 E30.96406
G1 X77.61 Y69.21 E31.02803
G1 X78.05 Y69.20 E31.10687
G1 X78.32 Y69.20 E31.15637
G1 X78.50 Y69.20 E31.18841
G1 X79.05 Y69.21 E31.28814
G1 X79.52 Y69.20 E31.37274
G1 X79.79 Y69.21 E31.42044
G1 X80.25 Y69.20 E31.50468
G1 X80.52 Y69.21 E31.55238
G1 X80.99 Y69.20 E31.63662
G1 X81.25 Y69.21 E31.68432
G1 X81.72 Y69.20 E31.76874
G1 X81.99 Y69.21 E31.81644
G1 X82.45 Y69.20 E31.90068
G1 X82.72 Y69.21 E31.94856
G1 X83.28 Y69.20 E32.04828
G1 X83.54 Y69.20 E32.09652
G1 X83.82 Y69.20 E32.14656
G1 X83.89 Y69.20 E32.15880
G1 X84.43 Y69.23 E32.25634
G1 X84.65 Y69.30 E32.29769
G1 X84.88 Y69.42 E32.34359
G1 X85.06 Y69.58 E32.38781
G1 X85.22 Y69.77 E32.43355
G1 X85.33 Y69.99 E32.47662
G1 X85.40 Y70.22 E32.52004
G1 X85.42 Y70.94 E32.65062
G1 X85.42 Y71.25 E32.70624
G1 X85.42 Y71.45 E32.74170
G1 X85.42 Y72.07 E32.85276
G1 X85.42 Y72.59 E32.94655
G1 X85.42 Y72.88 E32.99983
G1 X85.42 Y73.40 E33.09343
G1 X85.42 Y73.70 E33.14653
G1 X85.42 Y74.22 E33.24013
G1 X85.42 Y74.51 E33.29323
G1 X85.42 Y75.03 E33.38683
G1 X85.42 Y75.33 E33.44011
G1 X85.42 Y75.85 E33.53353
G1 X85.42 Y76.14 E33.58663
G1 X85.42 Y76.66 E33.68023
G1 X85.42 Y76.96 E33.73351
G1 X85.42 Y77.48 E33.82711
G1 X85.42 Y77.78 E33.88021
G1 X85.42 Y78.30 E33.97381
G1 X85.42 Y78.59 E34.02691
G1 X85.42 Y79.11 E34.12051
G1 X85.42 Y79.41 E34.17379
G1 X85.42 Y80.32 E34.33831
G1 X85.42 Y80.63 E34.39411
G1 X85.42 Y80.70 E34.40743
G1 X85.39 Y81.28 E34.51126
G1 X85.33 Y81.50 E34.55261
G1 X85.21 Y81.72 E34.59851
G1 X85.05 Y81.91 E34.64273
G1 X84.85 Y82.07 E34.68886
G1 X84.64 Y82.18 E34.73153
G1 X84.41 Y82.25 E34.77495
G1 X83.73 Y82.27 E34.89690
G1 X83.45 Y82.27 E34.94640
G1 X83.28 Y82.27 E34.97844
G1 X82.72 Y82.27 E35.07816
G1 X82.25 Y82.27 E35.16258
G1 X81.99 Y82.27 E35.21028
G1 X81.52 Y82.27 E35.29470
G1 X81.25 Y82.27 E35.34240
G1 X80.78 Y82.27 E35.42664
G1 X80.52 Y82.27 E35.47434
G1 X80.05 Y82.27 E35.55858
G1 X79.79 Y82.27 E35.60628
G1 X79.32 Y82.27 E35.69070
G1 X79.05 Y82.27 E35.73859
G1 X78.50 Y82.27 E35.83831
G1 X78.23 Y82.27 E35.88655
G1 X77.95 Y82.27 E35.93659
G1 X77.88 Y82.27 E35.94991
G1 X77.41 Y82.26 E36.03367
G1 X77.27 Y82.23 E36.06054
G1 X77.15 Y82.19 E36.08274
G1 X77.01 Y82.20 E36.10687
G1 X76.92 Y82.23 E36.12480
G1 X76.57 Y82.27 E36.18859
G1 X76.20 Y82.27 E36.25394
G1 X75.85 Y82.27 E36.31784
G1 X75.82 Y82.27 E36.32324
G1 X75.12 Y82.27 E36.44871
G1 X74.73 Y82.27 E36.51963
G1 X74.39 Y82.27 E36.58101
G1 X73.99 Y82.27 E36.65175
G1 X73.65 Y82.27 E36.71295
G1 X73.26 Y82.27 E36.78369
G1 X72.92 Y82.27 E36.84489
G1 X72.53 Y82.27 E36.91563
G1 X72.19 Y82.27 E36.97701
G1 X71.79 Y82.27 E37.04775
G1 X71.45 Y82.27 E37.10913
G1 X70.74 Y82.27 E37.23675
G1 X70.70 Y82.27 E37.24431
G1 X69.84 Y82.25 E37.39862
G1 X69.75 Y82.25 E37.41508
G1 X69.52 Y82.18 E37.45830
G1 X69.30 Y82.06 E37.50420
G1 X69.11 Y81.90 E37.54843
G1 X68.95 Y81.70 E37.59456
G1 X68.84 Y81.49 E37.63722
G1 X68.78 Y81.25 E37.68064
G1 X68.75 Y80.61 E37.79594
G1 X68.75 Y80.22 E37.86776
G1 X68.75 Y80.19 E37.87191
G1 X68.76 Y79.41 E38.01339
G1 X68.75 Y78.97 E38.09205
G1 X68.76 Y78.59 E38.16045
G1 X68.75 Y78.15 E38.23893
G1 X68.76 Y77.78 E38.30715
G1 X68.75 Y77.34 E38.38563
G1 X68.76 Y76.96 E38.45385
G1 X68.75 Y76.52 E38.53233
G1 X68.76 Y76.14 E38.60073
G1 X68.75 Y75.71 E38.67903
G1 X68.76 Y75.33 E38.74725
G1 X68.75 Y74.89 E38.82573
G1 X68.76 Y74.51 E38.89413
G1 X68.75 Y74.08 E38.97261
G1 X68.76 Y73.70 E39.04083
G1 X68.75 Y73.26 E39.11931
G1 X68.76 Y72.88 E39.18753
G1 X68.75 Y72.45 E39.26601
G1 X68.76 Y72.07 E39.33459
G1 X68.75 Y71.28 E39.47626
G1 X68.75 Y71.24 E39.48364
G1 X68.75 Y70.84 E39.55600
G1 X68.77 Y70.29 E39.65380
G1 X68.78 Y70.20 E39.67008
G1 X68.85 Y69.97 E39.71330
G1 X68.97 Y69.75 E39.75920
G1 X69.12 Y69.56 E39.80343
G0 F9000 X69.26 Y69.68
;TYPE:FILL
G1 F1200 X81.66 Y82.09 E42.96123
G0 F9000 X80.81 Y82.09
G1 F1200 X68.96 Y70.23 E45.97978
G0 F9000 X68.93 Y71.05
G1 F1200 X79.97 Y82.09 E48.78960
G0 F9000 X79.12 Y82.09
G1 F1200 X68.93 Y71.90 E51.38355
G0 F9000 X68.93 Y72.75
G1 F1200 X78.27 Y82.09 E53.76125
G0 F9000 X77.41 Y82.07
G1 F1200 X68.93 Y73.60 E55.91812
G0 F9000 X68.93 Y74.45
G1 F1200 X76.57 Y82.08 E57.86231
G0 F9000 X75.73 Y82.09
G1 F1200 X68.93 Y75.30 E59.59217
G0 F9000 X68.93 Y76.15
G1 F1200 X74.87 Y82.09 E61.10450
G0 F9000 X74.03 Y82.09
G1 F1200 X68.93 Y76.99 E62.40122
G0 F9000 X68.93 Y77.84
G1 F1200 X73.18 Y82.09 E63.48195
G0 F9000 X72.33 Y82.09
G1 F1200 X68.94 Y78.69 E64.34668
G0 F9000 X68.93 Y79.54
G1 F1200 X71.48 Y82.09 E64.99568
G0 F9000 X70.64 Y82.09
G1 F1200 X68.93 Y80.39 E65.42996
G0 F9000 X68.97 Y81.27
G1 F1200 X69.75 Y82.05 E65.62877
G0 F9000 X69.81 Y81.84
G0 X69.85 Y69.62
G0 X69.83 Y69.41
G1 F1200 X82.51 Y82.09 E68.85733
G0 F9000 X83.36 Y82.09
G1 F1200 X70.65 Y69.38 E72.09277
G0 F9000 X71.51 Y69.39
G1 F1200 X84.19 Y82.07 E75.32248
G0 F9000 X84.83 Y81.86
G1 F1200 X72.36 Y69.39 E78.49733
G0 F9000 X73.20 Y69.38
G1 F1200 X85.18 Y81.36 E81.54618
G0 F9000 X85.24 Y80.57
G1 F1200 X74.05 Y69.38 E84.39494
G0 F9000 X74.90 Y69.38
G1 F1200 X85.24 Y79.72 E87.02797
G0 F9000 X85.24 Y78.88
G1 F1200 X75.75 Y69.38 E89.44500
G0 F9000 X76.61 Y69.39
G1 F1200 X85.24 Y78.03 E91.64311
G0 F9000 X85.24 Y77.18
G1 F1200 X77.46 Y69.40 E93.62230
G0 F9000 X78.29 Y69.38
G1 F1200 X85.24 Y76.33 E95.39097
G0 F9000 X85.24 Y75.48
G1 F1200 X79.14 Y69.39 E96.94225
G0 F9000 X79.99 Y69.39
G1 F1200 X85.24 Y74.63 E98.27779
G0 F9000 X85.24 Y73.78
G1 F1200 X80.84 Y69.38 E99.39760
G0 F9000 X81.69 Y69.38
G1 F1200 X85.24 Y72.93 E100.30141
G0 F9000 X85.24 Y72.09
G1 F1200 X82.53 Y69.38 E100.98948
G0 F9000 X83.38 Y69.38
G1 F1200 X85.24 Y71.24 E101.46258
G0 F9000 X85.22 Y70.37
G1 F1200 X84.25 Y69.40 E101.70937
G0 F9000 X83.92 Y70.72
;LAYER:1
M106 S127
G0 X83.97 Y69.53 Z0.40
G0 X83.98 Y69.13
;TYPE:WALL-OUTER
G1 F1620 X84.44 Y69.16 E101.73673
G1 X84.68 Y69.23 E101.75194
G1 X84.91 Y69.36 E101.76785
G1 X85.12 Y69.53 E101.78379
G1 X85.28 Y69.73 E101.79958
G1 X85.40 Y69.96 E101.81493
G1 X85.47 Y70.21 E101.83016
G1 X85.49 Y71.06 E101.88119
G1 X85.49 Y71.25 E101.89295
G1 X85.49 Y71.68 E101.91845
G1 X85.49 Y72.07 E101.94179
G1 X85.49 Y72.69 E101.97923
G1 X85.49 Y72.88 E101.99075
G1 X85.49 Y73.51 E102.02813
G1 X85.49 Y73.70 E102.03965
G1 X85.49 Y74.32 E102.07703
G1 X85.49 Y74.51 E102.08855
G1 X85.49 Y75.14 E102.12599
G1 X85.49 Y75.33 E102.13751
G1 X85.49 Y75.95 E102.17483
G1 X85.49 Y76.14 E102.18635
G1 X85.49 Y76.77 E102.22379
G1 X85.49 Y76.96 E102.23531
