; G-Code generated by Simplify3D(R) Version 4.1.2
; Nov 9, 2020 at 9:10:08 PM
; Settings Summary
;   processName,Process1
;   applyToModels,minimal_calibration_fish,minimal_calibration_fish(2)
;   profileName,PLA-1.75mm-N80 (modified)
;   profileVersion,2020-07-06 14:17:30
;   baseProfile,Ultimaker 2 (modified)
;   printMaterial,PLA
;   printQuality,Medium
;   printExtruders,
;   extruderName,Primary Extruder
;   extruderToolheadNumber,0
;   extruderDiameter,0.8
;   extruderAutoWidth,0
;   extruderWidth,0.8
;   extrusionMultiplier,1.05
;   extruderUseRetract,1
;   extruderRetractionDistance,4
;   extruderExtraRestartDistance,0
;   extruderRetractionZLift,0
;   extruderRetractionSpeed,2400
;   extruderUseCoasting,0
;   extruderCoastingDistance,0.2
;   extruderUseWipe,0
;   extruderWipeDistance,5
;   primaryExtruder,0
;   layerHeight,0.25
;   topSolidLayers,0
;   bottomSolidLayers,2
;   perimeterOutlines,2
;   printPerimetersInsideOut,1
;   startPointOption,2
;   startPointOriginX,0
;   startPointOriginY,0
;   sequentialIslands,0
;   spiralVaseMode,0
;   firstLayerHeightPercentage,75
;   firstLayerWidthPercentage,100
;   firstLayerUnderspeed,1
;   useRaft,0
;   raftExtruder,0
;   raftTopLayers,3
;   raftBaseLayers,2
;   raftOffset,3
;   raftSeparationDistance,0.14
;   raftTopInfill,100
;   aboveRaftSpeedMultiplier,0.3
;   useSkirt,1
;   skirtExtruder,0
;   skirtLayers,2
;   skirtOutlines,5
;   skirtOffset,0
;   usePrimePillar,0
;   primePillarExtruder,999
;   primePillarWidth,12
;   primePillarLocation,7
;   primePillarSpeedMultiplier,1
;   useOozeShield,0
;   oozeShieldExtruder,999
;   oozeShieldOffset,2
;   oozeShieldOutlines,1
;   oozeShieldSidewallShape,1
;   oozeShieldSidewallAngle,30
;   oozeShieldSpeedMultiplier,1
;   infillExtruder,0
;   internalInfillPattern,Rectilinear
;   externalInfillPattern,Rectilinear
;   infillPercentage,0
;   outlineOverlapPercentage,30
;   infillExtrusionWidthPercentage,100
;   minInfillLength,1
;   infillLayerInterval,1
;   internalInfillAngles,45,-45
;   overlapInternalInfillAngles,0
;   externalInfillAngles,45
;   generateSupport,0
;   supportExtruder,0
;   supportInfillPercentage,8
;   supportExtraInflation,0
;   supportBaseLayers,0
;   denseSupportExtruder,0
;   denseSupportLayers,0
;   denseSupportInfillPercentage,70
;   supportLayerInterval,1
;   supportHorizontalPartOffset,0.75
;   supportUpperSeparationLayers,1
;   supportLowerSeparationLayers,1
;   supportType,0
;   supportGridSpacing,4
;   maxOverhangAngle,60
;   supportAngles,45
;   temperatureName,Primary Extruder,Heated Build Platform
;   temperatureNumber,0,1
;   temperatureSetpointCount,1,1
;   temperatureSetpointLayers,1,1
;   temperatureSetpointTemperatures,205,60
;   temperatureStabilizeAtStartup,1,1
;   temperatureHeatedBed,0,1
;   fanLayers,1,2,3,4,5
;   fanSpeeds,0,25,50,75,100
;   blipFanToFullPower,1
;   adjustSpeedForCooling,1
;   minSpeedLayerTime,3
;   minCoolingSpeedSlowdown,25
;   increaseFanForCooling,0
;   minFanLayerTime,10
;   maxCoolingFanSpeed,30
;   increaseFanForBridging,0
;   bridgingFanSpeed,45
;   use5D,1
;   relativeEdistances,0
;   allowEaxisZeroing,1
;   independentExtruderAxes,0
;   includeM10123,0
;   stickySupport,1
;   applyToolheadOffsets,0
;   gcodeXoffset,0
;   gcodeYoffset,0
;   gcodeZoffset,0
;   overrideMachineDefinition,1
;   machineTypeOverride,0
;   strokeXoverride,225
;   strokeYoverride,225
;   strokeZoverride,212
;   originOffsetXoverride,0
;   originOffsetYoverride,0
;   originOffsetZoverride,0
;   homeXdirOverride,-1
;   homeYdirOverride,-1
;   homeZdirOverride,-1
;   flipXoverride,1
;   flipYoverride,-1
;   flipZoverride,1
;   toolheadOffsets,0,0|0,0|0,0|0,0|0,0|0,0
;   overrideFirmwareConfiguration,1
;   firmwareTypeOverride,RepRap (Marlin/Repetier/Sprinter)
;   GPXconfigOverride,r2
;   baudRateOverride,250000
;   overridePrinterModels,1
;   printerModelsOverride
;   startingGcode,M907 E1400 ; increase extruder current,G28 ; home all axes,; purging:,G1 X5 Y6 F[travel_speed]  ; move to front near the clamp,G1 Z5 F2400                 ; lower head,G92 E0                           ; reset E,G1 E50 F150                  ; extrude 50mm make a blob,G92 E0                           ; reset E,G1 Z15 F60                    ; higher (hopeing blob will stay on bed),G1 E-5 F2400                  ; retract,G1 X200 Z0 F[travel_speed]  ; move away,G1 E0 F[retract_speed]     ; unretract
;   layerChangeGcode,
;   retractionGcode,
;   toolChangeGcode,
;   endingGcode,G28 X0 ; home the X-axis,M104 S0 ; turn off heaters,M140 S0 ; turn off bed,M84 ; disable motors,M107 ; fan off
;   exportFileFormat,gcode
;   celebration,0
;   celebrationSong,Random Song
;   postProcessing,
;   defaultSpeed,4500
;   outlineUnderspeed,1
;   solidInfillUnderspeed,1
;   supportUnderspeed,1
;   rapidXYspeed,12000
;   rapidZspeed,2400
;   minBridgingArea,5
;   bridgingExtraInflation,0
;   bridgingExtrusionMultiplier,1
;   bridgingSpeedMultiplier,1
;   useFixedBridgingAngle,0
;   fixedBridgingAngle,0
;   applyBridgingToPerimeters,0
;   filamentDiameters,1.75|1.75|1.75|1.75|1.75|1.75
;   filamentPricesPerKg,25|25|25|25|25|25
;   filamentDensities,1.25|1.25|1.25|1.25|1.25|1.25
;   useMinPrintHeight,0
;   minPrintHeight,0
;   useMaxPrintHeight,0
;   maxPrintHeight,0
;   useDiaphragm,0
;   diaphragmLayerInterval,200
;   robustSlicing,1
;   mergeAllIntoSolid,0
;   onlyRetractWhenCrossingOutline,1
;   retractBetweenLayers,0
;   useRetractionMinTravel,1
;   retractionMinTravel,0.02
;   retractWhileWiping,0
;   onlyWipeOutlines,1
;   avoidCrossingOutline,0
;   maxMovementDetourFactor,3
;   toolChangeRetractionDistance,12
;   toolChangeExtraRestartDistance,-0.5
;   toolChangeRetractionSpeed,600
;   externalThinWallType,0
;   internalThinWallType,1
;   thinWallAllowedOverlapPercentage,10
;   singleExtrusionMinLength,0.5
;   singleExtrusionMinPrintingWidthPercentage,50
;   singleExtrusionMaxPrintingWidthPercentage,200
;   singleExtrusionEndpointExtension,0.2
;   horizontalSizeCompensation,0
G90
M82
M106 S0
M140 S60
M190 S60
M104 S205 T0
M109 S205 T0
M907 E1400 ; increase extruder current
G28 ; home all axes
; purging:
G1 X5 Y6 F12000  ; move to front near the clamp
G1 Z5 F2400                 ; lower head
G92 E0                           ; reset E
G1 E50 F150                  ; extrude 50mm make a blob
G92 E0                           ; reset E
G1 Z15 F60                    ; higher (hopeing blob will stay on bed)
G1 E-5 F2400                  ; retract
G1 X200 Z0 F12000  ; move away
G1 E0 F2400     ; unretract
; process Process1
; layer 1, Z = 0.188
T0
G92 E0.0000
G1 E-4.0000 F2400
; feature skirt
; tool H0.188 W0.800
G1 Z0.188 F2400
G1 X72.500 Y33.172 F12000
G1 E0.0000 F2400
G92 E0.0000
G1 X73.672 Y32.000 E0.1085 F4500
G1 X145.328 Y32.000 E4.8006
G1 X146.500 Y33.172 E4.9091
G1 X146.500 Y42.828 E5.5415
G1 X145.328 Y44.000 E5.6500
G1 X116.500 Y44.000 E7.5377
G1 X116.500 Y64.000 E8.8473
G1 X151.328 Y64.000 E11.1279
G1 X152.500 Y65.172 E11.2364
G1 X152.500 Y74.828 E11.8687
G1 X151.328 Y76.000 E11.9772
G1 X116.500 Y76.000 E14.2578
G1 X116.500 Y110.828 E16.5384
G1 X115.328 Y112.000 E16.6469
G1 X105.672 Y112.000 E17.2792
G1 X104.500 Y110.828 E17.3877
G1 X104.500 Y76.000 E19.6683
G1 X84.500 Y76.000 E20.9780
G1 X84.500 Y104.828 E22.8657
G1 X83.328 Y106.000 E22.9742
G1 X73.672 Y106.000 E23.6065
G1 X72.500 Y104.828 E23.7150
G1 X72.500 Y33.172 E28.4071
G92 E0.0000
G1 E-4.0000 F2400
G1 X73.300 Y33.503 F12000
G1 E0.0000 F2400
G92 E0.0000
G1 X74.003 Y32.800 E0.0651 F4500
G1 X144.997 Y32.800 E4.7139
G1 X145.700 Y33.503 E4.7789
G1 X145.700 Y42.497 E5.3679
G1 X144.997 Y43.200 E5.4330
G1 X115.700 Y43.200 E7.3514
G1 X115.700 Y64.800 E8.7658
G1 X150.997 Y64.800 E11.0771
G1 X151.700 Y65.503 E11.1421
G1 X151.700 Y74.497 E11.7311
G1 X150.997 Y75.200 E11.7962
G1 X115.700 Y75.200 E14.1075
G1 X115.700 Y110.497 E16.4188
G1 X114.997 Y111.200 E16.4838
G1 X106.003 Y111.200 E17.0728
G1 X105.300 Y110.497 E17.1379
G1 X105.300 Y75.200 E19.4492
G1 X83.700 Y75.200 E20.8636
G1 X83.700 Y104.497 E22.7820
G1 X82.997 Y105.200 E22.8470
G1 X74.003 Y105.200 E23.4360
G1 X73.300 Y104.497 E23.5011
G1 X73.300 Y33.503 E28.1498
G92 E0.0000
G1 E-4.0000 F2400
G1 X74.100 Y33.834 F12000
G1 E0.0000 F2400
G92 E0.0000
G1 X74.334 Y33.600 E0.0217 F4500
G1 X144.666 Y33.600 E4.6271
G1 X144.900 Y33.834 E4.6488
G1 X144.900 Y42.166 E5.1943
G1 X144.666 Y42.400 E5.2160
G1 X114.900 Y42.400 E7.1651
G1 X114.900 Y65.600 E8.6842
G1 X150.666 Y65.600 E11.0262
G1 X150.900 Y65.834 E11.0479
G1 X150.900 Y74.166 E11.5935
G1 X150.666 Y74.400 E11.6152
G1 X114.900 Y74.400 E13.9571
G1 X114.900 Y110.166 E16.2991
G1 X114.666 Y110.400 E16.3208
G1 X106.334 Y110.400 E16.8663
G1 X106.100 Y110.166 E16.8880
G1 X106.100 Y74.400 E19.2300
G1 X82.900 Y74.400 E20.7492
G1 X82.900 Y104.166 E22.6982
G1 X82.666 Y104.400 E22.7199
G1 X74.334 Y104.400 E23.2655
G1 X74.100 Y104.166 E23.2872
G1 X74.100 Y33.834 E27.8925
G92 E0.0000
G1 E-4.0000 F2400
G1 X70.900 Y32.509 F12000
G1 E0.0000 F2400
G92 E0.0000
G1 X73.009 Y30.400 E0.1953 F4500
G1 X145.991 Y30.400 E4.9742
G1 X148.100 Y32.509 E5.1695
G1 X148.100 Y43.491 E5.8887
G1 X145.991 Y45.600 E6.0839
G1 X118.100 Y45.600 E7.9103
G1 X118.100 Y62.400 E9.0104
G1 X151.991 Y62.400 E11.2296
G1 X154.100 Y64.509 E11.4249
G1 X154.100 Y75.491 E12.1440
G1 X151.991 Y77.600 E12.3393
G1 X118.100 Y77.600 E14.5585
G1 X118.100 Y111.400 E16.7718
G1 X145.991 Y111.400 E18.5981
G1 X148.100 Y113.509 E18.7934
G1 X148.100 Y124.491 E19.5125
G1 X145.991 Y126.600 E19.7078
G1 X118.100 Y126.600 E21.5341
G1 X118.100 Y143.400 E22.6342
G1 X151.991 Y143.400 E24.8534
G1 X154.100 Y145.509 E25.0487
G1 X154.100 Y156.491 E25.7679
G1 X151.991 Y158.600 E25.9632
G1 X118.100 Y158.600 E28.1824
G1 X118.100 Y192.491 E30.4016
G1 X115.991 Y194.600 E30.5969
G1 X105.009 Y194.600 E31.3160
G1 X102.900 Y192.491 E31.5113
G1 X102.900 Y158.600 E33.7305
G1 X86.100 Y158.600 E34.8306
G1 X86.100 Y186.491 E36.6569
G1 X83.991 Y188.600 E36.8522
G1 X73.009 Y188.600 E37.5714
G1 X70.900 Y186.491 E37.7667
G1 X70.900 Y113.509 E42.5456
G1 X73.009 Y111.400 E42.7409
G1 X102.900 Y111.400 E44.6982
G1 X102.900 Y77.600 E46.9114
G1 X86.100 Y77.600 E48.0115
G1 X86.100 Y105.491 E49.8379
G1 X83.991 Y107.600 E50.0332
G1 X73.009 Y107.600 E50.7523
G1 X70.900 Y105.491 E50.9476
G1 X70.900 Y32.509 E55.7265
G92 E0.0000
G1 E-4.0000 F2400
G1 X71.700 Y32.840 F12000
G1 E0.0000 F2400
G92 E0.0000
G1 X73.340 Y31.200 E0.1519 F4500
G1 X145.660 Y31.200 E4.8874
G1 X147.300 Y32.840 E5.0393
G1 X147.300 Y43.160 E5.7151
G1 X145.660 Y44.800 E5.8670
G1 X117.300 Y44.800 E7.7240
G1 X117.300 Y63.200 E8.9288
G1 X151.660 Y63.200 E11.1787
G1 X153.300 Y64.840 E11.3306
G1 X153.300 Y75.160 E12.0064
G1 X151.660 Y76.800 E12.1583
G1 X117.300 Y76.800 E14.4082
G1 X117.300 Y111.160 E16.6581
G1 X116.260 Y112.200 E16.7544
G1 X145.660 Y112.200 E18.6795
G1 X147.300 Y113.840 E18.8314
G1 X147.300 Y124.160 E19.5072
G1 X145.660 Y125.800 E19.6591
G1 X117.300 Y125.800 E21.5161
G1 X117.300 Y144.200 E22.7209
G1 X151.660 Y144.200 E24.9708
G1 X153.300 Y145.840 E25.1227
G1 X153.300 Y156.160 E25.7985
G1 X151.660 Y157.800 E25.9503
G1 X117.300 Y157.800 E28.2003
G1 X117.300 Y192.160 E30.4502
G1 X115.660 Y193.800 E30.6021
G1 X105.340 Y193.800 E31.2778
G1 X103.700 Y192.160 E31.4297
G1 X103.700 Y157.800 E33.6796
G1 X85.300 Y157.800 E34.8844
G1 X85.300 Y186.160 E36.7415
G1 X83.660 Y187.800 E36.8934
G1 X73.340 Y187.800 E37.5691
G1 X71.700 Y186.160 E37.7210
G1 X71.700 Y113.840 E42.4565
G1 X73.340 Y112.200 E42.6084
G1 X104.740 Y112.200 E44.6645
G1 X103.700 Y111.160 E44.7609
G1 X103.700 Y76.800 E47.0108
G1 X85.300 Y76.800 E48.2156
G1 X85.300 Y105.160 E50.0726
G1 X83.660 Y106.800 E50.2245
G1 X73.340 Y106.800 E50.9003
G1 X71.700 Y105.160 E51.0522
G1 X71.700 Y32.840 E55.7877
G92 E0.0000
G1 E-4.0000 F2400
G1 X73.672 Y113.000 F12000
G1 E0.0000 F2400
G92 E0.0000
G1 X145.328 Y113.000 E4.6922 F4500
G1 X146.500 Y114.172 E4.8006
G1 X146.500 Y123.828 E5.4330
G1 X145.328 Y125.000 E5.5415
G1 X116.500 Y125.000 E7.4292
G1 X116.500 Y145.000 E8.7388
G1 X151.328 Y145.000 E11.0194
G1 X152.500 Y146.172 E11.1279
G1 X152.500 Y155.828 E11.7602
G1 X151.328 Y157.000 E11.8687
G1 X116.500 Y157.000 E14.1493
G1 X116.500 Y191.828 E16.4299
G1 X115.328 Y193.000 E16.5384
G1 X105.672 Y193.000 E17.1708
G1 X104.500 Y191.828 E17.2792
G1 X104.500 Y157.000 E19.5598
G1 X84.500 Y157.000 E20.8695
G1 X84.500 Y185.828 E22.7572
G1 X83.328 Y187.000 E22.8657
G1 X73.672 Y187.000 E23.4980
G1 X72.500 Y185.828 E23.6065
G1 X72.500 Y114.172 E28.2987
G1 X73.672 Y113.000 E28.4071
G92 E0.0000
G1 E-4.0000 F2400
G1 X74.003 Y113.800 F12000
G1 E0.0000 F2400
G92 E0.0000
G1 X144.997 Y113.800 E4.6488 F4500
G1 X145.700 Y114.503 E4.7139
G1 X145.700 Y123.497 E5.3028
G1 X144.997 Y124.200 E5.3679
G1 X115.700 Y124.200 E7.2863
G1 X115.700 Y145.800 E8.7007
G1 X150.997 Y145.800 E11.0120
G1 X151.700 Y146.503 E11.0771
G1 X151.700 Y155.497 E11.6660
G1 X150.997 Y156.200 E11.7311
G1 X115.700 Y156.200 E14.0424
G1 X115.700 Y191.497 E16.3537
G1 X114.997 Y192.200 E16.4188
G1 X106.003 Y192.200 E17.0077
G1 X105.300 Y191.497 E17.0728
G1 X105.300 Y156.200 E19.3841
G1 X83.700 Y156.200 E20.7985
G1 X83.700 Y185.497 E22.7169
G1 X82.997 Y186.200 E22.7820
G1 X74.003 Y186.200 E23.3709
G1 X73.300 Y185.497 E23.4360
G1 X73.300 Y114.503 E28.0848
G1 X74.003 Y113.800 E28.1498
G92 E0.0000
G1 E-4.0000 F2400
G1 X74.334 Y114.600 F12000
G1 E0.0000 F2400
G92 E0.0000
G1 X144.666 Y114.600 E4.6054 F4500
G1 X144.900 Y114.834 E4.6271
G1 X144.900 Y123.166 E5.1726
G1 X144.666 Y123.400 E5.1943
G1 X114.900 Y123.400 E7.1434
G1 X114.900 Y146.600 E8.6625
G1 X150.666 Y146.600 E11.0045
G1 X150.900 Y146.834 E11.0262
G1 X150.900 Y155.166 E11.5718
G1 X150.666 Y155.400 E11.5935
G1 X114.900 Y155.400 E13.9354
G1 X114.900 Y191.166 E16.2774
G1 X114.666 Y191.400 E16.2991
G1 X106.334 Y191.400 E16.8446
G1 X106.100 Y191.166 E16.8663
G1 X106.100 Y155.400 E19.2083
G1 X82.900 Y155.400 E20.7275
G1 X82.900 Y185.166 E22.6765
G1 X82.666 Y185.400 E22.6982
G1 X74.334 Y185.400 E23.2438
G1 X74.100 Y185.166 E23.2655
G1 X74.100 Y114.834 E27.8708
G1 X74.334 Y114.600 E27.8925
G92 E0.0000
G1 E-4.0000 F2400
; feature inner perimeter
G1 X75.700 Y102.800 F12000
G1 E0.0000 F2400
G92 E0.0000
G1 X75.700 Y35.200 E4.4265 F4500
G1 X143.300 Y35.200 E8.8530
G1 X143.300 Y40.800 E9.2197
G1 X113.300 Y40.800 E11.1841
G1 X113.300 Y67.200 E12.9128
G1 X149.300 Y67.200 E15.2701
G1 X149.300 Y72.800 E15.6368
G1 X113.300 Y72.800 E17.9941
G1 X113.300 Y108.800 E20.3515
G1 X107.700 Y108.800 E20.7182
G1 X107.700 Y72.800 E23.0755
G1 X81.300 Y72.800 E24.8042
G1 X81.300 Y102.800 E26.7686
G1 X75.700 Y102.800 E27.1353
; feature outer perimeter
G1 X74.900 Y103.600 F12000
G92 E0.0000
G1 X74.900 Y34.400 E4.5313 F4500
G1 X144.100 Y34.400 E9.0626
G1 X144.100 Y41.600 E9.5340
G1 X114.100 Y41.600 E11.4984
G1 X114.100 Y66.400 E13.1224
G1 X150.100 Y66.400 E15.4797
G1 X150.100 Y73.600 E15.9511
G1 X114.100 Y73.600 E18.3085
G1 X114.100 Y109.600 E20.6658
G1 X106.900 Y109.600 E21.1372
G1 X106.900 Y73.600 E23.4945
G1 X82.100 Y73.600 E25.1185
G1 X82.100 Y103.600 E27.0829
G1 X74.900 Y103.600 E27.5544
; feature inner perimeter
G1 X81.300 Y67.200 F12000
G92 E0.0000
G1 X107.700 Y67.200 E1.7287 F4500
G1 X107.700 Y40.800 E3.4574
G1 X81.300 Y40.800 E5.1861
G1 X81.300 Y67.200 E6.9148
; feature outer perimeter
G1 X82.100 Y66.400 F12000
G92 E0.0000
G1 X106.900 Y66.400 E1.6239 F4500
G1 X106.900 Y41.600 E3.2479
G1 X82.100 Y41.600 E4.8718
G1 X82.100 Y66.400 E6.4957
; feature solid layer
G1 X86.948 Y72.240 F12000
G92 E0.0000
G1 X82.468 Y67.760 E0.4149 F4500
G1 X83.599 Y67.760 E0.4889
G1 X88.079 Y72.240 E0.9038
G1 X89.211 Y72.240 E0.9779
G1 X84.731 Y67.760 E1.3928
G1 X85.862 Y67.760 E1.4668
G1 X90.342 Y72.240 E1.8817
G1 X91.473 Y72.240 E1.9558
G1 X86.993 Y67.760 E2.3707
G1 X88.125 Y67.760 E2.4447
G1 X92.605 Y72.240 E2.8596
G1 X93.736 Y72.240 E2.9337
G1 X89.256 Y67.760 E3.3486
G1 X90.387 Y67.760 E3.4226
G1 X94.867 Y72.240 E3.8375
G1 X95.999 Y72.240 E3.9116
G1 X91.519 Y67.760 E4.3265
G1 X92.650 Y67.760 E4.4005
G1 X97.130 Y72.240 E4.8154
G1 X98.262 Y72.240 E4.8895
G1 X93.782 Y67.760 E5.3044
