; G-Code generated by Simplify3D(R) Version 4.1.2
; Nov 14, 2020 at 10:23:16 AM
; Settings Summary
;   processName,Process1
;   applyToModels,gradual_tower_0.1_bis_0.5_9mm_steps
;   profileName,PLA-1.75mm-N80 (modified)
;   profileVersion,2020-07-06 14:17:30
;   baseProfile,Ultimaker 2 (modified)
;   printMaterial,PLA
;   printQuality,Medium
;   printExtruders,
;   extruderName,Primary Extruder
;   extruderToolheadNumber,0
;   extruderDiameter,0.8
;   extruderAutoWidth,0
;   extruderWidth,0.8
;   extrusionMultiplier,1.05
;   extruderUseRetract,1
;   extruderRetractionDistance,4
;   extruderExtraRestartDistance,0
;   extruderRetractionZLift,0
;   extruderRetractionSpeed,2400
;   extruderUseCoasting,0
;   extruderCoastingDistance,0.2
;   extruderUseWipe,0
;   extruderWipeDistance,5
;   primaryExtruder,0
;   layerHeight,0.25
;   topSolidLayers,0
;   bottomSolidLayers,0
;   perimeterOutlines,2
;   printPerimetersInsideOut,1
;   startPointOption,2
;   startPointOriginX,0
;   startPointOriginY,0
;   sequentialIslands,0
;   spiralVaseMode,0
;   firstLayerHeightPercentage,80
;   firstLayerWidthPercentage,100
;   firstLayerUnderspeed,1
;   useRaft,0
;   raftExtruder,0
;   raftTopLayers,3
;   raftBaseLayers,2
;   raftOffset,3
;   raftSeparationDistance,0.14
;   raftTopInfill,100
;   aboveRaftSpeedMultiplier,0.3
;   useSkirt,1
;   skirtExtruder,0
;   skirtLayers,1
;   skirtOutlines,3
;   skirtOffset,2
;   usePrimePillar,0
;   primePillarExtruder,999
;   primePillarWidth,12
;   primePillarLocation,7
;   primePillarSpeedMultiplier,1
;   useOozeShield,0
;   oozeShieldExtruder,999
;   oozeShieldOffset,2
;   oozeShieldOutlines,1
;   oozeShieldSidewallShape,1
;   oozeShieldSidewallAngle,30
;   oozeShieldSpeedMultiplier,1
;   infillExtruder,0
;   internalInfillPattern,Rectilinear
;   externalInfillPattern,Rectilinear
;   infillPercentage,5
;   outlineOverlapPercentage,30
;   infillExtrusionWidthPercentage,100
;   minInfillLength,1
;   infillLayerInterval,1
;   internalInfillAngles,45,-45
;   overlapInternalInfillAngles,0
;   externalInfillAngles,45
;   generateSupport,0
;   supportExtruder,0
;   supportInfillPercentage,8
;   supportExtraInflation,0
;   supportBaseLayers,0
;   denseSupportExtruder,0
;   denseSupportLayers,0
;   denseSupportInfillPercentage,70
;   supportLayerInterval,1
;   supportHorizontalPartOffset,0.75
;   supportUpperSeparationLayers,1
;   supportLowerSeparationLayers,1
;   supportType,0
;   supportGridSpacing,4
;   maxOverhangAngle,60
;   supportAngles,45
;   temperatureName,Primary Extruder,Heated Build Platform
;   temperatureNumber,0,1
;   temperatureSetpointCount,1,1
;   temperatureSetpointLayers,1,1
;   temperatureSetpointTemperatures,205,60
;   temperatureStabilizeAtStartup,1,1
;   temperatureHeatedBed,0,1
;   fanLayers,1,2,3,4,5
;   fanSpeeds,0,25,50,75,100
;   blipFanToFullPower,1
;   adjustSpeedForCooling,1
;   minSpeedLayerTime,5
;   minCoolingSpeedSlowdown,25
;   increaseFanForCooling,0
;   minFanLayerTime,10
;   maxCoolingFanSpeed,30
;   increaseFanForBridging,0
;   bridgingFanSpeed,45
;   use5D,1
;   relativeEdistances,0
;   allowEaxisZeroing,1
;   independentExtruderAxes,0
;   includeM10123,0
;   stickySupport,1
;   applyToolheadOffsets,0
;   gcodeXoffset,0
;   gcodeYoffset,0
;   gcodeZoffset,0
;   overrideMachineDefinition,1
;   machineTypeOverride,0
;   strokeXoverride,225
;   strokeYoverride,225
;   strokeZoverride,212
;   originOffsetXoverride,0
;   originOffsetYoverride,0
;   originOffsetZoverride,0
;   homeXdirOverride,-1
;   homeYdirOverride,-1
;   homeZdirOverride,-1
;   flipXoverride,1
;   flipYoverride,-1
;   flipZoverride,1
;   toolheadOffsets,0,0|0,0|0,0|0,0|0,0|0,0
;   overrideFirmwareConfiguration,1
;   firmwareTypeOverride,RepRap (Marlin/Repetier/Sprinter)
;   GPXconfigOverride,r2
;   baudRateOverride,250000
;   overridePrinterModels,1
;   printerModelsOverride
;   startingGcode,M907 E1400 ; increase extruder current,G28 ; home all axes,; purging:,G1 X5 Y6 F[travel_speed]  ; move to front near the clamp,G1 Z5 F2400                 ; lower head,G92 E0                           ; reset E,G1 E50 F150                  ; extrude 50mm make a blob,G92 E0                           ; reset E,G1 Z15 F60                    ; higher (hopeing blob will stay on bed),G1 E-5 F2400                  ; retract,G1 X200 Z0 F[travel_speed]  ; move away,G1 E0 F[retract_speed]     ; unretract
;   layerChangeGcode,
;   retractionGcode,
;   toolChangeGcode,
;   endingGcode,G28 X0 ; home the X-axis,M104 S0 ; turn off heaters,M140 S0 ; turn off bed,M84 ; disable motors,M107 ; fan off
;   exportFileFormat,gcode
;   celebration,0
;   celebrationSong,Random Song
;   postProcessing,
;   defaultSpeed,6000
;   outlineUnderspeed,1
;   solidInfillUnderspeed,1
;   supportUnderspeed,1
;   rapidXYspeed,15000
;   rapidZspeed,3000
;   minBridgingArea,5
;   bridgingExtraInflation,0
;   bridgingExtrusionMultiplier,1
;   bridgingSpeedMultiplier,1
;   useFixedBridgingAngle,0
;   fixedBridgingAngle,0
;   applyBridgingToPerimeters,0
;   filamentDiameters,1.75|1.75|1.75|1.75|1.75|1.75
;   filamentPricesPerKg,25|25|25|25|25|25
;   filamentDensities,1.25|1.25|1.25|1.25|1.25|1.25
;   useMinPrintHeight,0
;   minPrintHeight,0
;   useMaxPrintHeight,0
;   maxPrintHeight,0
;   useDiaphragm,0
;   diaphragmLayerInterval,200
;   robustSlicing,1
;   mergeAllIntoSolid,0
;   onlyRetractWhenCrossingOutline,1
;   retractBetweenLayers,0
;   useRetractionMinTravel,1
;   retractionMinTravel,0.02
;   retractWhileWiping,0
;   onlyWipeOutlines,1
;   avoidCrossingOutline,0
;   maxMovementDetourFactor,3
;   toolChangeRetractionDistance,12
;   toolChangeExtraRestartDistance,-0.5
;   toolChangeRetractionSpeed,600
;   externalThinWallType,0
;   internalThinWallType,1
;   thinWallAllowedOverlapPercentage,10
;   singleExtrusionMinLength,0.5
;   singleExtrusionMinPrintingWidthPercentage,50
;   singleExtrusionMaxPrintingWidthPercentage,200
;   singleExtrusionEndpointExtension,0.2
;   horizontalSizeCompensation,0
G90
M82
M106 S0
M140 S60
M190 S60
M104 S205 T0
M109 S205 T0
M907 E1400 ; increase extruder current
G28 ; home all axes
; purging:
G1 X5 Y6 F15000  ; move to front near the clamp
G1 Z5 F2400                 ; lower head
G92 E0                           ; reset E
G1 E50 F150                  ; extrude 50mm make a blob
G92 E0                           ; reset E
G1 Z15 F60                    ; higher (hopeing blob will stay on bed)
G1 E-5 F2400                  ; retract
G1 X200 Z0 F15000  ; move away
G1 E0 F2400     ; unretract
; process Process1
; layer 1, Z = 0.200
T0
G92 E0.0000
G1 E-4.0000 F2400
; feature skirt
; tool H0.200 W0.800
G1 Z0.200 F3000
G1 X72.332 Y71.005 F15000
G1 E0.0000 F2400
G92 E0.0000
G1 X151.657 Y71.000 E5.5406 F6000
G1 X154.000 Y73.343 E5.7720
G1 X154.000 Y152.673 E11.3129
G1 X149.061 Y154.718 E11.6863
G1 X70.286 Y75.943 E19.4675
G1 X72.332 Y71.005 E19.8408
G92 E0.0000
G1 E-4.0000 F2400
G1 X72.866 Y71.805 F15000
G1 E0.0000 F2400
G92 E0.0000
G1 X151.325 Y71.800 E5.4801 F6000
G1 X153.200 Y73.674 E5.6652
G1 X153.200 Y152.138 E11.1456
G1 X149.249 Y153.775 E11.4443
G1 X71.230 Y75.755 E19.1509
G1 X72.866 Y71.805 E19.4496
G92 E0.0000
G1 E-4.0000 F2400
G1 X73.401 Y72.605 F15000
G1 E0.0000 F2400
G92 E0.0000
G1 X150.994 Y72.600 E5.4196 F6000
G1 X152.400 Y74.006 E5.5585
G1 X152.400 Y151.604 E10.9784
G1 X149.437 Y152.831 E11.2024
G1 X72.174 Y75.568 E18.8343
G1 X73.401 Y72.605 E19.0583
G92 E0.0000
G1 E-4.0000 F2400
; feature inner perimeter
G1 X77.901 Y76.204 F15000
G1 E0.0000 F2400
G92 E0.0000
G1 X148.800 Y76.200 E4.9520 F6000
G1 X148.800 Y147.103 E9.9043
G1 X77.901 Y76.204 E16.9075
; feature outer perimeter
G1 X75.970 Y75.405 F15000
G92 E0.0000
G1 X149.600 Y75.400 E5.1428 F6000
G1 X149.600 Y149.034 E10.2859
G1 X75.970 Y75.405 E17.5588
; feature infill
G1 X144.643 Y76.760 F15000
G92 E0.0000
G1 X148.240 Y80.358 E0.3553 F6000
G1 X148.240 Y102.985 E1.9358
G1 X122.017 Y76.762 E4.5261
G1 X99.391 Y76.763 E6.1064
G1 X148.240 Y125.613 E10.9317
; layer 2, Z = 0.450
M106 S255
G4 P500
M106 S64
; feature inner perimeter
; tool H0.250 W0.800
G1 Z0.450 F3000
G1 X148.800 Y147.103 F15000
G92 E0.0000
G1 X77.897 Y76.200 E8.7545 F6000
G1 X148.800 Y76.200 E14.9449
G1 X148.800 Y147.103 E21.1353
; feature outer perimeter
G1 X149.600 Y149.034 F15000
G92 E0.0000
G1 X75.966 Y75.400 E9.0918 F6000
G1 X149.600 Y75.400 E15.5206
G1 X149.600 Y149.034 E21.9495
; feature infill
G1 X148.240 Y144.642 F15000
G92 E0.0000
G1 X147.686 Y145.197 E0.0684 F6000
G1 X136.372 Y133.883 E1.4654
G1 X148.240 Y122.015 E2.9307
G1 X148.240 Y99.387 E4.9063
G1 X125.058 Y122.569 E7.7686
G1 X113.745 Y111.256 E9.1655
G1 X148.240 Y76.760 E13.4247
G1 X125.613 Y76.760 E15.4003
G1 X102.431 Y99.942 E18.2626
G1 X91.117 Y88.628 E19.6595
G1 X102.985 Y76.760 E21.1249
G1 X80.358 Y76.760 E23.1004
G1 X79.803 Y77.314 E23.1689
; layer 3, Z = 0.700
M106 S128
; feature inner perimeter
G1 Z0.700 F3000
G1 X77.897 Y76.200 F15000
G92 E0.0000
G1 X148.800 Y76.200 E6.1904 F6000
G1 X148.800 Y147.103 E12.3808
G1 X77.897 Y76.200 E21.1353
; feature outer perimeter
G1 X75.966 Y75.400 F15000
G92 E0.0000
G1 X149.600 Y75.400 E6.4289 F6000
G1 X149.600 Y149.034 E12.8577
G1 X75.966 Y75.400 E21.9495
; feature infill
G1 X144.642 Y76.760 F15000
G92 E0.0000
G1 X148.240 Y80.358 E0.4442 F6000
G1 X148.240 Y102.985 E2.4198
G1 X122.015 Y76.760 E5.6578
G1 X99.387 Y76.760 E7.6334
G1 X148.240 Y125.613 E13.6653
; layer 4, Z = 0.950
M106 S191
; feature inner perimeter
G1 Z0.950 F3000
G1 X148.800 Y147.103 F15000
G92 E0.0000
G1 X77.897 Y76.200 E8.7545 F6000
G1 X148.800 Y76.200 E14.9449
G1 X148.800 Y147.103 E21.1353
; feature outer perimeter
G1 X149.600 Y149.034 F15000
G92 E0.0000
G1 X75.966 Y75.400 E9.0918 F6000
G1 X149.600 Y75.400 E15.5206
G1 X149.600 Y149.034 E21.9495
; feature infill
G1 X148.240 Y144.642 F15000
G92 E0.0000
G1 X147.686 Y145.197 E0.0684 F6000
G1 X136.372 Y133.883 E1.4654
G1 X148.240 Y122.015 E2.9307
G1 X148.240 Y99.387 E4.9063
G1 X125.058 Y122.569 E7.7686
G1 X113.745 Y111.256 E9.1655
G1 X148.240 Y76.760 E13.4247
G1 X125.613 Y76.760 E15.4003
G1 X102.431 Y99.942 E18.2626
G1 X91.117 Y88.628 E19.6595
G1 X102.985 Y76.760 E21.1249
G1 X80.358 Y76.760 E23.1004
G1 X79.803 Y77.314 E23.1689
; layer 5, Z = 1.200
M106 S255
; feature inner perimeter
G1 Z1.200 F3000
G1 X77.897 Y76.200 F15000
G92 E0.0000
G1 X148.800 Y76.200 E6.1904 F6000
G1 X148.800 Y147.103 E12.3808
G1 X77.897 Y76.200 E21.1353
; feature outer perimeter
G1 X75.966 Y75.400 F15000
G92 E0.0000
G1 X149.600 Y75.400 E6.4289 F6000
G1 X149.600 Y149.034 E12.8577
G1 X75.966 Y75.400 E21.9495
; feature infill
G1 X144.642 Y76.760 F15000
G92 E0.0000
G1 X148.240 Y80.358 E0.4442 F6000
G1 X148.240 Y102.985 E2.4198
G1 X122.015 Y76.760 E5.6578
G1 X99.387 Y76.760 E7.6334
G1 X148.240 Y125.613 E13.6653
; layer 6, Z = 1.450
; feature inner perimeter
G1 Z1.450 F3000
G1 X148.800 Y147.103 F15000
G92 E0.0000
G1 X77.897 Y76.200 E8.7545 F6000
G1 X148.800 Y76.200 E14.9449
G1 X148.800 Y147.103 E21.1353
; feature outer perimeter
G1 X149.600 Y149.034 F15000
G92 E0.0000
G1 X75.966 Y75.400 E9.0918 F6000
G1 X149.600 Y75.400 E15.5206
G1 X149.600 Y149.034 E21.9495
; feature infill
G1 X148.240 Y144.642 F15000
G92 E0.0000
G1 X147.686 Y145.197 E0.0684 F6000
G1 X136.372 Y133.883 E1.4654
G1 X148.240 Y122.015 E2.9307
G1 X148.240 Y99.387 E4.9063
G1 X125.058 Y122.569 E7.7686
G1 X113.745 Y111.256 E9.1655
G1 X148.240 Y76.760 E13.4247
G1 X125.613 Y76.760 E15.4003
G1 X102.431 Y99.942 E18.2626
G1 X91.117 Y88.628 E19.6595
G1 X102.985 Y76.760 E21.1249
G1 X80.358 Y76.760 E23.1004
G1 X79.803 Y77.314 E23.1689
; layer 7, Z = 1.700
; feature inner perimeter
G1 Z1.700 F3000
G1 X77.897 Y76.200 F15000
G92 E0.0000
G1 X148.800 Y76.200 E6.1904 F6000
G1 X148.800 Y147.103 E12.3808
G1 X77.897 Y76.200 E21.1353
; feature outer perimeter
G1 X75.966 Y75.400 F15000
G92 E0.0000
G1 X149.600 Y75.400 E6.4289 F6000
G1 X149.600 Y149.034 E12.8577
G1 X75.966 Y75.400 E21.9495
; feature infill
G1 X144.642 Y76.760 F15000
G92 E0.0000
G1 X148.240 Y80.358 E0.4442 F6000
G1 X148.240 Y102.985 E2.4198
G1 X122.015 Y76.760 E5.6578
G1 X99.387 Y76.760 E7.6334
G1 X148.240 Y125.613 E13.6653
; layer 8, Z = 1.950
; feature inner perimeter
G1 Z1.950 F3000
G1 X148.800 Y147.103 F15000
G92 E0.0000
G1 X77.897 Y76.200 E8.7545 F6000
G1 X148.800 Y76.200 E14.9449
G1 X148.800 Y147.103 E21.1353
; feature outer perimeter
G1 X149.600 Y149.034 F15000
G92 E0.0000
G1 X75.966 Y75.400 E9.0918 F6000
G1 X149.600 Y75.400 E15.5206
G1 X149.600 Y149.034 E21.9495
; feature infill
G1 X148.240 Y144.642 F15000
G92 E0.0000
G1 X147.686 Y145.197 E0.0684 F6000
G1 X136.372 Y133.883 E1.4654
G1 X148.240 Y122.015 E2.9307
G1 X148.240 Y99.387 E4.9063
G1 X125.058 Y122.569 E7.7686
G1 X113.745 Y111.256 E9.1655
G1 X148.240 Y76.760 E13.4247
G1 X125.613 Y76.760 E15.4003
G1 X102.431 Y99.942 E18.2626
G1 X91.117 Y88.628 E19.6595
G1 X102.985 Y76.760 E21.1249
G1 X80.358 Y76.760 E23.1004
G1 X79.803 Y77.314 E23.1689
; layer 9, Z = 2.200
; feature inner perimeter
G1 Z2.200 F3000
G1 X77.897 Y76.200 F15000
G92 E0.0000
G1 X148.800 Y76.200 E6.1904 F6000
G1 X148.800 Y147.103 E12.3808
G1 X77.897 Y76.200 E21.1353
; feature outer perimeter
G1 X75.966 Y75.400 F15000
G92 E0.0000
G1 X149.600 Y75.400 E6.4289 F6000
G1 X149.600 Y149.034 E12.8577
G1 X75.966 Y75.400 E21.9495
; feature infill
G1 X144.642 Y76.760 F15000
G92 E0.0000
G1 X148.240 Y80.358 E0.4442 F6000
G1 X148.240 Y102.985 E2.4198
G1 X122.015 Y76.760 E5.6578
G1 X99.387 Y76.760 E7.6334
G1 X148.240 Y125.613 E13.6653
; layer 10, Z = 2.450
; feature inner perimeter
G1 Z2.450 F3000
G1 X148.800 Y147.103 F15000
G92 E0.0000
G1 X77.897 Y76.200 E8.7545 F6000
G1 X148.800 Y76.200 E14.9449
G1 X148.800 Y147.103 E21.1353
; feature outer perimeter
G1 X149.600 Y149.034 F15000
G92 E0.0000
G1 X75.966 Y75.400 E9.0918 F6000
G1 X149.600 Y75.400 E15.5206
G1 X149.600 Y149.034 E21.9495
; feature infill
G1 X148.240 Y144.642 F15000
G92 E0.0000
G1 X147.686 Y145.197 E0.0684 F6000
G1 X136.372 Y133.883 E1.4654
G1 X148.240 Y122.015 E2.9307
G1 X148.240 Y99.387 E4.9063
G1 X125.058 Y122.569 E7.7686
G1 X113.745 Y111.256 E9.1655
G1 X148.240 Y76.760 E13.4247
G1 X125.613 Y76.760 E15.4003
G1 X102.431 Y99.942 E18.2626
G1 X91.117 Y88.628 E19.6595
G1 X102.985 Y76.760 E21.1249
G1 X80.358 Y76.760 E23.1004
G1 X79.803 Y77.314 E23.1689
; layer 11, Z = 2.700
; feature inner perimeter
G1 Z2.700 F3000
G1 X77.897 Y76.200 F15000
G92 E0.0000
G1 X148.800 Y76.200 E6.1904 F6000
G1 X148.800 Y147.103 E12.3808
G1 X77.897 Y76.200 E21.1353
; feature outer perimeter
G1 X75.966 Y75.400 F15000
G92 E0.0000
G1 X149.600 Y75.400 E6.4289 F6000
G1 X149.600 Y149.034 E12.8577
G1 X75.966 Y75.400 E21.9495
; feature infill
G1 X144.642 Y76.760 F15000
G92 E0.0000
G1 X148.240 Y80.358 E0.4442 F6000
G1 X148.240 Y102.985 E2.4198
G1 X122.015 Y76.760 E5.6578
G1 X99.387 Y76.760 E7.6334
G1 X148.240 Y125.613 E13.6653
; layer 12, Z = 2.950
; feature inner perimeter
G1 Z2.950 F3000
G1 X148.800 Y147.103 F15000
G92 E0.0000
G1 X77.897 Y76.200 E8.7545 F6000
G1 X148.800 Y76.200 E14.9449
G1 X148.800 Y147.103 E21.1353
; feature outer perimeter
G1 X149.600 Y149.034 F15000
G92 E0.0000
G1 X75.966 Y75.400 E9.0918 F6000
G1 X149.600 Y75.400 E15.5206
G1 X149.600 Y149.034 E21.9495
; feature infill
G1 X148.240 Y144.642 F15000
G92 E0.0000
G1 X147.686 Y145.197 E0.0684 F6000
G1 X136.372 Y133.883 E1.4654
G1 X148.240 Y122.015 E2.9307
G1 X148.240 Y99.387 E4.9063
G1 X125.058 Y122.569 E7.7686
G1 X113.745 Y111.256 E9.1655
G1 X148.240 Y76.760 E13.4247
G1 X125.613 Y76.760 E15.4003
G1 X102.431 Y99.942 E18.2626
G1 X91.117 Y88.628 E19.6595
G1 X102.985 Y76.760 E21.1249
G1 X80.358 Y76.760 E23.1004
G1 X79.803 Y77.314 E23.1689
; layer 13, Z = 3.200
; feature inner perimeter
G1 Z3.200 F3000
G1 X77.897 Y76.200 F15000
G92 E0.0000
G1 X148.800 Y76.200 E6.1904 F6000
G1 X148.800 Y147.103 E12.3808
G1 X77.897 Y76.200 E21.1353
; feature outer perimeter
G1 X75.966 Y75.400 F15000
G92 E0.0000
G1 X149.600 Y75.400 E6.4289 F6000
G1 X149.600 Y149.034 E12.8577
G1 X75.966 Y75.400 E21.9495
; feature infill
G1 X144.642 Y76.760 F15000
G92 E0.0000
G1 X148.240 Y80.358 E0.4442 F6000
