; G-Code generated by Simplify3D(R) Version 4.1.2
; Nov 14, 2020 at 8:34:29 PM
; Settings Summary
;   processName,Process1
;   applyToModels,minimal_calibration_fish
;   profileName,PLA-1.75mm-N80 (modified)
;   profileVersion,2020-07-06 14:17:30
;   baseProfile,Ultimaker 2 (modified)
;   printMaterial,PLA
;   printQuality,Medium
;   printExtruders,
;   extruderName,Primary Extruder
;   extruderToolheadNumber,0
;   extruderDiameter,0.8
;   extruderAutoWidth,0
;   extruderWidth,0.8
;   extrusionMultiplier,1.05
;   extruderUseRetract,1
;   extruderRetractionDistance,4
;   extruderExtraRestartDistance,0
;   extruderRetractionZLift,0
;   extruderRetractionSpeed,2400
;   extruderUseCoasting,0
;   extruderCoastingDistance,0.2
;   extruderUseWipe,0
;   extruderWipeDistance,5
;   primaryExtruder,0
;   layerHeight,0.25
;   topSolidLayers,0
;   bottomSolidLayers,0
;   perimeterOutlines,2
;   printPerimetersInsideOut,1
;   startPointOption,2
;   startPointOriginX,0
;   startPointOriginY,0
;   sequentialIslands,0
;   spiralVaseMode,0
;   firstLayerHeightPercentage,80
;   firstLayerWidthPercentage,100
;   firstLayerUnderspeed,1
;   useRaft,0
;   raftExtruder,0
;   raftTopLayers,3
;   raftBaseLayers,2
;   raftOffset,3
;   raftSeparationDistance,0.14
;   raftTopInfill,100
;   aboveRaftSpeedMultiplier,0.3
;   useSkirt,1
;   skirtExtruder,0
;   skirtLayers,1
;   skirtOutlines,3
;   skirtOffset,2
;   usePrimePillar,0
;   primePillarExtruder,999
;   primePillarWidth,12
;   primePillarLocation,7
;   primePillarSpeedMultiplier,1
;   useOozeShield,0
;   oozeShieldExtruder,999
;   oozeShieldOffset,2
;   oozeShieldOutlines,1
;   oozeShieldSidewallShape,1
;   oozeShieldSidewallAngle,30
;   oozeShieldSpeedMultiplier,1
;   infillExtruder,0
;   internalInfillPattern,Rectilinear
;   externalInfillPattern,Rectilinear
;   infillPercentage,0
;   outlineOverlapPercentage,30
;   infillExtrusionWidthPercentage,100
;   minInfillLength,1
;   infillLayerInterval,1
;   internalInfillAngles,45,-45
;   overlapInternalInfillAngles,0
;   externalInfillAngles,45
;   generateSupport,0
;   supportExtruder,0
;   supportInfillPercentage,8
;   supportExtraInflation,0
;   supportBaseLayers,0
;   denseSupportExtruder,0
;   denseSupportLayers,0
;   denseSupportInfillPercentage,70
;   supportLayerInterval,1
;   supportHorizontalPartOffset,0.75
;   supportUpperSeparationLayers,1
;   supportLowerSeparationLayers,1
;   supportType,0
;   supportGridSpacing,4
;   maxOverhangAngle,60
;   supportAngles,45
;   temperatureName,Primary Extruder,Heated Build Platform
;   temperatureNumber,0,1
;   temperatureSetpointCount,1,1
;   temperatureSetpointLayers,1,1
;   temperatureSetpointTemperatures,205,60
;   temperatureStabilizeAtStartup,1,1
;   temperatureHeatedBed,0,1
;   fanLayers,1,2,3,4,5
;   fanSpeeds,0,25,50,75,100
;   blipFanToFullPower,1
;   adjustSpeedForCooling,1
;   minSpeedLayerTime,5
;   minCoolingSpeedSlowdown,25
;   increaseFanForCooling,0
;   minFanLayerTime,10
;   maxCoolingFanSpeed,30
;   increaseFanForBridging,0
;   bridgingFanSpeed,45
;   use5D,1
;   relativeEdistances,0
;   allowEaxisZeroing,1
;   independentExtruderAxes,0
;   includeM10123,0
;   stickySupport,1
;   applyToolheadOffsets,0
;   gcodeXoffset,0
;   gcodeYoffset,0
;   gcodeZoffset,0
;   overrideMachineDefinition,1
;   machineTypeOverride,0
;   strokeXoverride,225
;   strokeYoverride,225
;   strokeZoverride,212
;   originOffsetXoverride,0
;   originOffsetYoverride,0
;   originOffsetZoverride,0
;   homeXdirOverride,-1
;   homeYdirOverride,-1
;   homeZdirOverride,-1
;   flipXoverride,1
;   flipYoverride,-1
;   flipZoverride,1
;   toolheadOffsets,0,0|0,0|0,0|0,0|0,0|0,0
;   overrideFirmwareConfiguration,1
;   firmwareTypeOverride,RepRap (Marlin/Repetier/Sprinter)
;   GPXconfigOverride,r2
;   baudRateOverride,250000
;   overridePrinterModels,1
;   printerModelsOverride
;   startingGcode,M907 E1400 ; increase extruder current,G28 ; home all axes,; purging:,G1 X5 Y6 F[travel_speed]  ; move to front near the clamp,G1 Z5 F2400                 ; lower head,G92 E0                           ; reset E,G1 E50 F150                  ; extrude 50mm make a blob,G92 E0                           ; reset E,G1 Z15 F60                    ; higher (hopeing blob will stay on bed),G1 E-5 F2400                  ; retract,G1 X200 Z0 F[travel_speed]  ; move away,G1 E0 F[retract_speed]     ; unretract
;   layerChangeGcode,
;   retractionGcode,
;   toolChangeGcode,
;   endingGcode,G28 X0 ; home the X-axis,M104 S0 ; turn off heaters,M140 S0 ; turn off bed,M84 ; disable motors,M107 ; fan off
;   exportFileFormat,gcode
;   celebration,0
;   celebrationSong,Random Song
;   postProcessing,
;   defaultSpeed,9000
;   outlineUnderspeed,1
;   solidInfillUnderspeed,1
;   supportUnderspeed,1
;   rapidXYspeed,15000
;   rapidZspeed,3000
;   minBridgingArea,5
;   bridgingExtraInflation,0
;   bridgingExtrusionMultiplier,1
;   bridgingSpeedMultiplier,1
;   useFixedBridgingAngle,0
;   fixedBridgingAngle,0
;   applyBridgingToPerimeters,0
;   filamentDiameters,1.75|1.75|1.75|1.75|1.75|1.75
;   filamentPricesPerKg,25|25|25|25|25|25
;   filamentDensities,1.25|1.25|1.25|1.25|1.25|1.25
;   useMinPrintHeight,0
;   minPrintHeight,0
;   useMaxPrintHeight,0
;   maxPrintHeight,0
;   useDiaphragm,0
;   diaphragmLayerInterval,200
;   robustSlicing,1
;   mergeAllIntoSolid,0
;   onlyRetractWhenCrossingOutline,1
;   retractBetweenLayers,0
;   useRetractionMinTravel,1
;   retractionMinTravel,0.02
;   retractWhileWiping,0
;   onlyWipeOutlines,1
;   avoidCrossingOutline,0
;   maxMovementDetourFactor,3
;   toolChangeRetractionDistance,12
;   toolChangeExtraRestartDistance,-0.5
;   toolChangeRetractionSpeed,600
;   externalThinWallType,0
;   internalThinWallType,1
;   thinWallAllowedOverlapPercentage,10
;   singleExtrusionMinLength,0.5
;   singleExtrusionMinPrintingWidthPercentage,50
;   singleExtrusionMaxPrintingWidthPercentage,200
;   singleExtrusionEndpointExtension,0.2
;   horizontalSizeCompensation,0
G90
M82
M106 S0
M140 S60
M190 S60
M104 S205 T0
M109 S205 T0
M907 E1400 ; increase extruder current
G28 ; home all axes
; purging:
G1 X5 Y6 F15000  ; move to front near the clamp
G1 Z5 F2400                 ; lower head
G92 E0                           ; reset E
G1 E50 F150                  ; extrude 50mm make a blob
G92 E0                           ; reset E
G1 Z15 F60                    ; higher (hopeing blob will stay on bed)
G1 E-5 F2400                  ; retract
G1 X200 Z0 F15000  ; move away
G1 E0 F2400     ; unretract
; process Process1
; layer 1, Z = 0.200
T0
G92 E0.0000
G1 E-4.0000 F2400
; feature skirt
; tool H0.200 W0.800
G1 Z0.200 F3000
G1 X61.000 Y63.343 F15000
G1 E0.0000 F2400
G92 E0.0000
G1 X63.343 Y61.000 E0.2314 F9000
G1 X154.157 Y61.000 E6.5744
G1 X156.500 Y63.343 E6.8059
G1 X156.500 Y76.657 E7.7358
G1 X154.157 Y79.000 E7.9673
G1 X119.000 Y79.000 E10.4228
G1 X119.000 Y101.000 E11.9595
G1 X161.657 Y101.000 E14.9389
G1 X164.000 Y103.343 E15.1703
G1 X164.000 Y116.657 E16.1002
G1 X161.657 Y119.000 E16.3317
G1 X119.000 Y119.000 E19.3111
G1 X119.000 Y161.657 E22.2905
G1 X116.657 Y164.000 E22.5220
G1 X103.343 Y164.000 E23.4519
G1 X101.000 Y161.657 E23.6833
G1 X101.000 Y119.000 E26.6628
G1 X79.000 Y119.000 E28.1994
G1 X79.000 Y154.157 E30.6550
G1 X76.657 Y156.500 E30.8864
G1 X63.343 Y156.500 E31.8163
G1 X61.000 Y154.157 E32.0478
G1 X61.000 Y63.343 E38.3908
G92 E0.0000
G1 E-4.0000 F2400
G1 X61.800 Y63.675 F15000
G1 E0.0000 F2400
G92 E0.0000
G1 X63.675 Y61.800 E0.1852 F9000
G1 X153.825 Y61.800 E6.4819
G1 X155.700 Y63.675 E6.6670
G1 X155.700 Y76.325 E7.5507
G1 X153.825 Y78.200 E7.7358
G1 X118.200 Y78.200 E10.2241
G1 X118.200 Y101.800 E11.8725
G1 X161.325 Y101.800 E14.8846
G1 X163.200 Y103.675 E15.0698
G1 X163.200 Y116.325 E15.9534
G1 X161.325 Y118.200 E16.1386
G1 X118.200 Y118.200 E19.1507
G1 X118.200 Y161.325 E22.1629
G1 X116.325 Y163.200 E22.3481
G1 X103.675 Y163.200 E23.2317
G1 X101.800 Y161.325 E23.4168
G1 X101.800 Y118.200 E26.4290
G1 X78.200 Y118.200 E28.0774
G1 X78.200 Y153.825 E30.5657
G1 X76.325 Y155.700 E30.7508
G1 X63.675 Y155.700 E31.6345
G1 X61.800 Y153.825 E31.8196
G1 X61.800 Y63.675 E38.1163
G92 E0.0000
G1 E-4.0000 F2400
G1 X62.600 Y64.006 F15000
G1 E0.0000 F2400
G92 E0.0000
G1 X64.006 Y62.600 E0.1389 F9000
G1 X153.494 Y62.600 E6.3893
G1 X154.900 Y64.006 E6.5282
G1 X154.900 Y75.994 E7.3655
G1 X153.494 Y77.400 E7.5044
G1 X117.400 Y77.400 E10.0254
G1 X117.400 Y102.600 E11.7855
G1 X160.994 Y102.600 E14.8304
G1 X162.400 Y104.006 E14.9693
G1 X162.400 Y115.994 E15.8066
G1 X160.994 Y117.400 E15.9455
G1 X117.400 Y117.400 E18.9904
G1 X117.400 Y160.994 E22.0353
G1 X115.994 Y162.400 E22.1741
G1 X104.006 Y162.400 E23.0115
G1 X102.600 Y160.994 E23.1503
G1 X102.600 Y117.400 E26.1952
G1 X77.400 Y117.400 E27.9553
G1 X77.400 Y153.494 E30.4764
G1 X75.994 Y154.900 E30.6153
G1 X64.006 Y154.900 E31.4526
G1 X62.600 Y153.494 E31.5915
G1 X62.600 Y64.006 E37.8419
G92 E0.0000
G1 E-4.0000 F2400
; feature inner perimeter
G1 X66.200 Y66.200 F15000
G1 E0.0000 F2400
G92 E0.0000
G1 X151.300 Y66.200 E5.9439 F9000
G1 X151.300 Y73.800 E6.4748
G1 X113.800 Y73.800 E9.0940
G1 X113.800 Y106.200 E11.3570
G1 X158.800 Y106.200 E14.5001
G1 X158.800 Y113.800 E15.0309
G1 X113.800 Y113.800 E18.1740
G1 X113.800 Y158.800 E21.3171
G1 X106.200 Y158.800 E21.8479
G1 X106.200 Y113.800 E24.9910
G1 X73.800 Y113.800 E27.2540
G1 X73.800 Y151.300 E29.8733
G1 X66.200 Y151.300 E30.4041
G1 X66.200 Y66.200 E36.3480
; feature outer perimeter
G1 X65.400 Y65.400 F15000
G92 E0.0000
G1 X152.100 Y65.400 E6.0557 F9000
G1 X152.100 Y74.600 E6.6983
G1 X114.600 Y74.600 E9.3175
G1 X114.600 Y105.400 E11.4688
G1 X159.600 Y105.400 E14.6118
G1 X159.600 Y114.600 E15.2544
G1 X114.600 Y114.600 E18.3975
G1 X114.600 Y159.600 E21.5406
G1 X105.400 Y159.600 E22.1832
G1 X105.400 Y114.600 E25.3263
G1 X74.600 Y114.600 E27.4775
G1 X74.600 Y152.100 E30.0968
G1 X65.400 Y152.100 E30.7393
G1 X65.400 Y65.400 E36.7950
; feature inner perimeter
G1 X73.800 Y73.800 F15000
G92 E0.0000
G1 X73.800 Y106.200 E2.2630 F9000
G1 X106.200 Y106.200 E4.5260
G1 X106.200 Y73.800 E6.7891
G1 X73.800 Y73.800 E9.0521
; feature outer perimeter
G1 X74.600 Y74.600 F15000
G92 E0.0000
G1 X74.600 Y105.400 E2.1513 F9000
G1 X105.400 Y105.400 E4.3025
G1 X105.400 Y74.600 E6.4538
G1 X74.600 Y74.600 E8.6051
; layer 2, Z = 0.450
M106 S255
G4 P500
M106 S64
; feature inner perimeter
; tool H0.250 W0.800
G1 Z0.450 F3000
G1 X66.200 Y66.200 F15000
G92 E0.0000
G1 X151.300 Y66.200 E7.4299 F9000
G1 X151.300 Y73.800 E8.0934
G1 X113.800 Y73.800 E11.3675
G1 X113.800 Y106.200 E14.1963
G1 X158.800 Y106.200 E18.1251
G1 X158.800 Y113.800 E18.7887
G1 X113.800 Y113.800 E22.7175
G1 X113.800 Y158.800 E26.6464
G1 X106.200 Y158.800 E27.3099
G1 X106.200 Y113.800 E31.2388
G1 X73.800 Y113.800 E34.0675
G1 X73.800 Y151.300 E37.3416
G1 X66.200 Y151.300 E38.0051
G1 X66.200 Y66.200 E45.4350
; feature outer perimeter
G1 X65.400 Y65.400 F15000
G92 E0.0000
G1 X152.100 Y65.400 E7.5696 F9000
G1 X152.100 Y74.600 E8.3728
G1 X114.600 Y74.600 E11.6469
G1 X114.600 Y105.400 E14.3359
G1 X159.600 Y105.400 E18.2648
G1 X159.600 Y114.600 E19.0680
G1 X114.600 Y114.600 E22.9969
G1 X114.600 Y159.600 E26.9257
G1 X105.400 Y159.600 E27.7290
G1 X105.400 Y114.600 E31.6578
G1 X74.600 Y114.600 E34.3469
G1 X74.600 Y152.100 E37.6210
G1 X65.400 Y152.100 E38.4242
G1 X65.400 Y65.400 E45.9938
; feature inner perimeter
G1 X73.800 Y73.800 F15000
G92 E0.0000
G1 X73.800 Y106.200 E2.8288 F9000
G1 X106.200 Y106.200 E5.6575
G1 X106.200 Y73.800 E8.4863
G1 X73.800 Y73.800 E11.3151
; feature outer perimeter
G1 X74.600 Y74.600 F15000
G92 E0.0000
G1 X74.600 Y105.400 E2.6891 F9000
G1 X105.400 Y105.400 E5.3782
G1 X105.400 Y74.600 E8.0672
G1 X74.600 Y74.600 E10.7563
; layer 3, Z = 0.700
M106 S128
; feature inner perimeter
G1 Z0.700 F3000
G1 X66.200 Y66.200 F15000
G92 E0.0000
G1 X151.300 Y66.200 E7.4299 F9000
G1 X151.300 Y73.800 E8.0934
G1 X113.800 Y73.800 E11.3675
G1 X113.800 Y106.200 E14.1963
G1 X158.800 Y106.200 E18.1251
G1 X158.800 Y113.800 E18.7887
G1 X113.800 Y113.800 E22.7175
G1 X113.800 Y158.800 E26.6464
G1 X106.200 Y158.800 E27.3099
G1 X106.200 Y113.800 E31.2388
G1 X73.800 Y113.800 E34.0675
G1 X73.800 Y151.300 E37.3416
G1 X66.200 Y151.300 E38.0051
G1 X66.200 Y66.200 E45.4350
; feature outer perimeter
G1 X65.400 Y65.400 F15000
G92 E0.0000
G1 X152.100 Y65.400 E7.5696 F9000
G1 X152.100 Y74.600 E8.3728
G1 X114.600 Y74.600 E11.6469
G1 X114.600 Y105.400 E14.3359
G1 X159.600 Y105.400 E18.2648
G1 X159.600 Y114.600 E19.0680
G1 X114.600 Y114.600 E22.9969
G1 X114.600 Y159.600 E26.9257
G1 X105.400 Y159.600 E27.7290
G1 X105.400 Y114.600 E31.6578
G1 X74.600 Y114.600 E34.3469
G1 X74.600 Y152.100 E37.6210
G1 X65.400 Y152.100 E38.4242
G1 X65.400 Y65.400 E45.9938
; feature inner perimeter
G1 X73.800 Y73.800 F15000
G92 E0.0000
G1 X73.800 Y106.200 E2.8288 F9000
G1 X106.200 Y106.200 E5.6575
G1 X106.200 Y73.800 E8.4863
G1 X73.800 Y73.800 E11.3151
; feature outer perimeter
G1 X74.600 Y74.600 F15000
G92 E0.0000
G1 X74.600 Y105.400 E2.6891 F9000
G1 X105.400 Y105.400 E5.3782
G1 X105.400 Y74.600 E8.0672
G1 X74.600 Y74.600 E10.7563
; layer 4, Z = 0.950
M106 S191
; feature inner perimeter
G1 Z0.950 F3000
G1 X66.200 Y66.200 F15000
G92 E0.0000
G1 X151.300 Y66.200 E7.4299 F9000
G1 X151.300 Y73.800 E8.0934
G1 X113.800 Y73.800 E11.3675
G1 X113.800 Y106.200 E14.1963
G1 X158.800 Y106.200 E18.1251
G1 X158.800 Y113.800 E18.7887
G1 X113.800 Y113.800 E22.7175
G1 X113.800 Y158.800 E26.6464
G1 X106.200 Y158.800 E27.3099
G1 X106.200 Y113.800 E31.2388
G1 X73.800 Y113.800 E34.0675
G1 X73.800 Y151.300 E37.3416
G1 X66.200 Y151.300 E38.0051
G1 X66.200 Y66.200 E45.4350
; feature outer perimeter
G1 X65.400 Y65.400 F15000
G92 E0.0000
G1 X152.100 Y65.400 E7.5696 F9000
G1 X152.100 Y74.600 E8.3728
G1 X114.600 Y74.600 E11.6469
G1 X114.600 Y105.400 E14.3359
G1 X159.600 Y105.400 E18.2648
G1 X159.600 Y114.600 E19.0680
G1 X114.600 Y114.600 E22.9969
G1 X114.600 Y159.600 E26.9257
G1 X105.400 Y159.600 E27.7290
G1 X105.400 Y114.600 E31.6578
G1 X74.600 Y114.600 E34.3469
G1 X74.600 Y152.100 E37.6210
G1 X65.400 Y152.100 E38.4242
G1 X65.400 Y65.400 E45.9938
; feature inner perimeter
G1 X73.800 Y73.800 F15000
G92 E0.0000
G1 X73.800 Y106.200 E2.8288 F9000
G1 X106.200 Y106.200 E5.6575
G1 X106.200 Y73.800 E8.4863
G1 X73.800 Y73.800 E11.3151
; feature outer perimeter
G1 X74.600 Y74.600 F15000
G92 E0.0000
G1 X74.600 Y105.400 E2.6891 F9000
G1 X105.400 Y105.400 E5.3782
G1 X105.400 Y74.600 E8.0672
G1 X74.600 Y74.600 E10.7563
; layer 5, Z = 1.200
M106 S255
; feature inner perimeter
G1 Z1.200 F3000
G1 X66.200 Y66.200 F15000
G92 E0.0000
G1 X151.300 Y66.200 E7.4299 F9000
G1 X151.300 Y73.800 E8.0934
G1 X113.800 Y73.800 E11.3675
G1 X113.800 Y106.200 E14.1963
G1 X158.800 Y106.200 E18.1251
G1 X158.800 Y113.800 E18.7887
G1 X113.800 Y113.800 E22.7175
G1 X113.800 Y158.800 E26.6464
G1 X106.200 Y158.800 E27.3099
G1 X106.200 Y113.800 E31.2388
G1 X73.800 Y113.800 E34.0675
G1 X73.800 Y151.300 E37.3416
G1 X66.200 Y151.300 E38.0051
G1 X66.200 Y66.200 E45.4350
; feature outer perimeter
G1 X65.400 Y65.400 F15000
G92 E0.0000
G1 X152.100 Y65.400 E7.5696 F9000
G1 X152.100 Y74.600 E8.3728
G1 X114.600 Y74.600 E11.6469
G1 X114.600 Y105.400 E14.3359
G1 X159.600 Y105.400 E18.2648
G1 X159.600 Y114.600 E19.0680
G1 X114.600 Y114.600 E22.9969
G1 X114.600 Y159.600 E26.9257
G1 X105.400 Y159.600 E27.7290
G1 X105.400 Y114.600 E31.6578
G1 X74.600 Y114.600 E34.3469
G1 X74.600 Y152.100 E37.6210
G1 X65.400 Y152.100 E38.4242
G1 X65.400 Y65.400 E45.9938
; feature inner perimeter
G1 X73.800 Y73.800 F15000
G92 E0.0000
G1 X73.800 Y106.200 E2.8288 F9000
G1 X106.200 Y106.200 E5.6575
G1 X106.200 Y73.800 E8.4863
G1 X73.800 Y73.800 E11.3151
; feature outer perimeter
G1 X74.600 Y74.600 F15000
G92 E0.0000
G1 X74.600 Y105.400 E2.6891 F9000
G1 X105.400 Y105.400 E5.3782
G1 X105.400 Y74.600 E8.0672
G1 X74.600 Y74.600 E10.7563
; layer 6, Z = 1.450
; feature inner perimeter
G1 Z1.450 F3000
G1 X66.200 Y66.200 F15000
G92 E0.0000
G1 X151.300 Y66.200 E7.4299 F9000
G1 X151.300 Y73.800 E8.0934
G1 X113.800 Y73.800 E11.3675
