;FLAVOR:UltiGCode
;TIME:1576      
;MATERIAL:1134      
;MATERIAL2:0         

;Layer count: 150
;LAYER:0
M107
G0 F9000 X108.94 Y106.81 Z0.30
G0 X108.94 Y106.81
;TYPE:SKIRT
; mod erri: un-retract without retract G11
G1 F1200 X109.70 Y106.10 E0.12513
G1 X110.55 Y105.48 E0.25041
G1 X111.46 Y104.98 E0.37490
G1 X112.43 Y104.60 E0.50071
G1 X113.44 Y104.34 E0.62601
G1 X114.48 Y104.21 E0.75074
G1 X115.52 Y104.21 E0.87650
G1 X116.56 Y104.34 E1.00123
G1 X117.57 Y104.60 E1.12652
G1 X118.54 Y104.98 E1.25233
G1 X119.45 Y105.48 E1.37683
G1 X120.30 Y106.10 E1.50210
G1 X121.06 Y106.81 E1.62723
G1 X121.72 Y107.61 E1.75242
G1 X122.28 Y108.50 E1.87793
G1 X122.72 Y109.44 E2.00306
G1 X123.05 Y110.44 E2.12833
G1 X123.24 Y111.46 E2.25332
G1 X123.31 Y112.50 E2.37909
G1 X123.24 Y113.55 E2.50487
G1 X123.05 Y114.57 E2.62988
G1 X122.72 Y115.56 E2.75466
G1 X122.28 Y116.51 E2.88005
G1 X121.72 Y117.39 E3.00549
G1 X121.05 Y118.19 E3.13075
G1 X120.29 Y118.91 E3.25572
G1 X119.45 Y119.52 E3.38099
G1 X118.54 Y120.02 E3.50542
G1 X117.57 Y120.40 E3.63055
G1 X116.56 Y120.66 E3.75599
G1 X115.52 Y120.79 E3.88072
G1 X114.47 Y120.79 E4.00696
G1 X113.44 Y120.66 E4.13145
G1 X112.43 Y120.40 E4.25727
G1 X111.46 Y120.01 E4.38275
G1 X110.55 Y119.51 E4.50745
G1 X109.70 Y118.90 E4.63286
G1 X108.94 Y118.18 E4.75799
G1 X108.28 Y117.38 E4.88310
G1 X107.72 Y116.50 E5.00835
G1 X107.27 Y115.55 E5.13358
G1 X106.95 Y114.56 E5.25832
G1 X106.76 Y113.54 E5.38319
G1 X106.69 Y112.50 E5.50860
G1 X106.76 Y111.46 E5.63401
G1 X106.95 Y110.44 E5.75889
G1 X107.28 Y109.44 E5.88416
G1 X107.72 Y108.50 E6.00929
G1 X108.28 Y107.61 E6.13479
G1 X108.94 Y106.81 E6.25998
G0 F9000 X109.24 Y107.09
G1 F1200 X109.96 Y106.41 E6.37909
G1 X110.77 Y105.82 E6.49843
G1 X111.63 Y105.35 E6.61691
G1 X112.56 Y104.98 E6.73660
G1 X113.52 Y104.73 E6.85587
G1 X114.50 Y104.61 E6.97466
G1 X115.50 Y104.61 E7.09418
G1 X116.48 Y104.73 E7.21297
G1 X117.44 Y104.98 E7.33224
G1 X118.37 Y105.35 E7.45192
G1 X119.23 Y105.82 E7.57040
G1 X120.04 Y106.41 E7.68974
G1 X120.76 Y107.09 E7.80885
G1 X121.40 Y107.85 E7.92799
G1 X121.93 Y108.69 E8.04740
G1 X122.35 Y109.59 E8.16646
G1 X122.66 Y110.53 E8.28577
G1 X122.84 Y111.51 E8.40465
G1 X122.91 Y112.50 E8.52441
G1 X122.84 Y113.50 E8.64416
G1 X122.66 Y114.47 E8.76308
G1 X122.35 Y115.41 E8.88182
G1 X121.93 Y116.31 E9.00110
G1 X121.39 Y117.15 E9.12055
G1 X120.76 Y117.92 E9.23977
G1 X120.03 Y118.60 E9.35880
G1 X119.23 Y119.18 E9.47798
G1 X118.37 Y119.65 E9.59640
G1 X117.44 Y120.02 E9.71548
G1 X116.48 Y120.27 E9.83487
G1 X115.50 Y120.39 E9.95366
G1 X114.50 Y120.39 E10.07378
G1 X113.52 Y120.27 E10.19223
G1 X112.55 Y120.02 E10.31185
G1 X111.63 Y119.65 E10.43135
G1 X110.76 Y119.17 E10.55010
G1 X109.96 Y118.59 E10.66942
G1 X109.23 Y117.91 E10.78852
G1 X108.60 Y117.14 E10.90767
G1 X108.07 Y116.31 E11.02682
G1 X107.65 Y115.41 E11.14605
G1 X107.34 Y114.47 E11.26475
G1 X107.16 Y113.49 E11.38351
G1 X107.09 Y112.50 E11.50291
G1 X107.16 Y111.51 E11.62231
G1 X107.34 Y110.53 E11.74106
G1 X107.65 Y109.59 E11.86037
G1 X108.07 Y108.69 E11.97943
G1 X108.60 Y107.85 E12.09885
G1 X109.24 Y107.09 E12.21799
G0 F9000 X109.53 Y107.36
G1 F1200 X110.22 Y106.72 E12.33106
G1 X110.98 Y106.16 E12.44424
G1 X111.80 Y105.71 E12.55670
G1 X112.68 Y105.36 E12.67035
G1 X113.59 Y105.13 E12.78353
G1 X114.53 Y105.01 E12.89628
G1 X115.47 Y105.01 E13.00980
G1 X116.41 Y105.13 E13.12255
G1 X117.32 Y105.36 E13.23574
G1 X118.20 Y105.71 E13.34938
G1 X119.02 Y106.16 E13.46185
G1 X119.78 Y106.72 E13.57502
G1 X120.47 Y107.36 E13.68810
G1 X121.07 Y108.09 E13.80135
G1 X121.58 Y108.89 E13.91467
G1 X121.98 Y109.74 E14.02772
G1 X122.27 Y110.64 E14.14100
G1 X122.45 Y111.56 E14.25390
G1 X122.51 Y112.50 E14.36752
G1 X122.45 Y113.45 E14.48115
G1 X122.27 Y114.37 E14.59409
G1 X121.98 Y115.27 E14.70676
G1 X121.58 Y116.12 E14.82002
G1 X121.07 Y116.92 E14.93348
G1 X120.47 Y117.64 E15.04656
G1 X119.78 Y118.29 E15.15956
G1 X119.02 Y118.84 E15.27263
G1 X118.19 Y119.29 E15.38520
G1 X117.32 Y119.64 E15.49820
G1 X116.41 Y119.87 E15.61151
G1 X115.47 Y119.99 E15.72426
G1 X114.52 Y119.99 E15.83826
G1 X113.59 Y119.87 E15.95077
G1 X112.68 Y119.64 E16.06436
G1 X111.80 Y119.29 E16.17774
G1 X110.97 Y118.84 E16.29047
G1 X110.21 Y118.28 E16.40379
G1 X109.53 Y117.64 E16.51686
G1 X108.92 Y116.91 E16.62989
G1 X108.42 Y116.11 E16.74311
G1 X108.02 Y115.26 E16.85621
G1 X107.73 Y114.36 E16.96900
G1 X107.55 Y113.44 E17.08175
G1 X107.49 Y112.50 E17.19502
G1 X107.55 Y111.56 E17.30829
G1 X107.73 Y110.64 E17.42105
G1 X108.02 Y109.74 E17.53432
G1 X108.42 Y108.89 E17.64737
G1 X108.93 Y108.09 E17.76070
G1 X109.53 Y107.36 E17.87395
G0 F9000 X109.82 Y107.64
G1 F1200 X110.47 Y107.02 E17.98099
G1 X111.19 Y106.50 E18.08814
G1 X111.97 Y106.07 E18.19470
G1 X112.81 Y105.74 E18.30226
G1 X113.67 Y105.52 E18.40937
G1 X114.55 Y105.41 E18.51619
G1 X115.45 Y105.41 E18.62347
G1 X116.33 Y105.52 E18.73029
G1 X117.19 Y105.74 E18.83740
G1 X118.03 Y106.07 E18.94496
G1 X118.81 Y106.50 E19.05152
G1 X119.53 Y107.02 E19.15867
G1 X120.18 Y107.64 E19.26571
G1 X120.75 Y108.32 E19.37291
G1 X121.23 Y109.08 E19.48014
G1 X121.61 Y109.88 E19.58707
G1 X121.88 Y110.73 E19.69431
G1 X122.05 Y111.61 E19.80121
G1 X122.11 Y112.50 E19.90882
G1 X122.05 Y113.40 E20.01631
G1 X121.88 Y114.27 E20.12327
G1 X121.61 Y115.12 E20.22998
G1 X121.22 Y115.93 E20.33718
G1 X120.75 Y116.68 E20.44454
G1 X120.17 Y117.37 E20.55157
G1 X119.53 Y117.98 E20.65854
G1 X118.80 Y118.50 E20.76569
G1 X118.02 Y118.93 E20.87219
G1 X117.20 Y119.26 E20.97915
G1 X116.33 Y119.48 E21.08637
G1 X115.45 Y119.59 E21.19319
G1 X114.55 Y119.59 E21.30107
G1 X113.67 Y119.48 E21.40754
G1 X112.80 Y119.26 E21.51505
G1 X111.97 Y118.93 E21.62239
G1 X111.19 Y118.50 E21.72905
G1 X110.47 Y117.97 E21.83634
G1 X109.82 Y117.36 E21.94331
G1 X109.25 Y116.67 E22.05044
G1 X108.77 Y115.92 E22.15751
G1 X108.39 Y115.11 E22.26471
G1 X108.12 Y114.27 E22.37131
G1 X107.95 Y113.39 E22.47808
G1 X107.89 Y112.50 E22.58533
G1 X107.95 Y111.61 E22.69259
G1 X108.12 Y110.73 E22.79936
G1 X108.39 Y109.88 E22.90660
G1 X108.77 Y109.08 E23.01354
G1 X109.25 Y108.32 E23.12077
G1 X109.82 Y107.64 E23.22796
G10
G0 F9000 X112.30 Y109.97
;TYPE:WALL-OUTER
G11
G1 F1200 X112.64 Y109.65 E23.28408
G1 X113.02 Y109.38 E23.33967
G1 X113.42 Y109.16 E23.39462
G1 X113.86 Y108.98 E23.45102
G1 X114.31 Y108.87 E23.50725
G1 X114.77 Y108.81 E23.56205
G1 X115.23 Y108.81 E23.61845
G1 X115.69 Y108.87 E23.67325
G1 X116.14 Y108.98 E23.72948
G1 X116.58 Y109.16 E23.78588
G1 X116.98 Y109.38 E23.84083
G1 X117.36 Y109.65 E23.89642
G1 X117.70 Y109.97 E23.95253
G1 X117.99 Y110.33 E24.00852
G1 X118.24 Y110.72 E24.06419
G1 X118.44 Y111.14 E24.12001
G1 X118.58 Y111.58 E24.17580
G1 X118.67 Y112.03 E24.23063
G1 X118.70 Y112.50 E24.28703
G1 X118.67 Y112.97 E24.34378
G1 X118.58 Y113.42 E24.39853
G1 X118.44 Y113.86 E24.45431
G1 X118.24 Y114.28 E24.51014
G1 X117.99 Y114.67 E24.56587
G1 X117.69 Y115.03 E24.62185
G1 X117.35 Y115.35 E24.67789
G1 X116.98 Y115.62 E24.73348
G1 X116.58 Y115.85 E24.78853
G1 X116.14 Y116.02 E24.84455
G1 X115.69 Y116.13 E24.90078
G1 X115.23 Y116.19 E24.95558
G1 X114.76 Y116.19 E25.01234
G1 X114.31 Y116.13 E25.06679
G1 X113.86 Y116.02 E25.12340
G1 X113.42 Y115.84 E25.17969
G1 X113.02 Y115.62 E25.23409
G1 X112.64 Y115.35 E25.29079
G1 X112.30 Y115.03 E25.34631
G1 X112.00 Y114.67 E25.40230
G1 X111.76 Y114.28 E25.45796
G1 X111.56 Y113.86 E25.51379
G1 X111.42 Y113.42 E25.56931
G1 X111.33 Y112.97 E25.62414
G1 X111.30 Y112.50 E25.68054
G1 X111.33 Y112.03 E25.73693
G1 X111.42 Y111.58 E25.79177
G1 X111.56 Y111.14 E25.84755
G1 X111.76 Y110.72 E25.90338
G1 X112.01 Y110.33 E25.95905
G1 X112.30 Y109.97 E26.01503
G0 F9000 X112.43 Y110.12
G1 F1200 X112.11 Y110.53 E26.07772
G1 X111.84 Y110.98 E26.14062
G1 X111.66 Y111.47 E26.20302
G1 X111.54 Y111.98 E26.26578
G1 X111.50 Y112.50 E26.32848
G1 X111.54 Y113.02 E26.39117
G1 X111.66 Y113.53 E26.45393
G1 X111.85 Y114.02 E26.51671
G1 X112.11 Y114.47 E26.57951
G1 X112.43 Y114.88 E26.64227
G1 X112.82 Y115.24 E26.70519
G1 X113.25 Y115.53 E26.76799
G1 X113.72 Y115.76 E26.83073
G1 X114.22 Y115.91 E26.89344
G1 X114.74 Y115.99 E26.95628
G1 X115.26 Y115.99 E27.01892
G1 X115.78 Y115.91 E27.08176
G1 X116.28 Y115.76 E27.14446
G1 X116.75 Y115.53 E27.20721
G1 X117.18 Y115.24 E27.27001
G1 X117.57 Y114.88 E27.33293
G1 X117.89 Y114.47 E27.39569
G1 X118.15 Y114.02 E27.45849
G1 X118.34 Y113.53 E27.52126
G1 X118.46 Y113.02 E27.58403
G1 X118.50 Y112.50 E27.64672
G1 X118.46 Y111.98 E27.70942
G1 X118.34 Y111.47 E27.77256
G1 X118.15 Y110.98 E27.83522
G1 X117.89 Y110.53 E27.89808
G1 X117.56 Y110.12 E27.96084
G1 X117.18 Y109.76 E28.02368
G1 X116.75 Y109.47 E28.08648
G1 X116.28 Y109.24 E28.14895
G1 X115.78 Y109.09 E28.21166
G1 X115.26 Y109.01 E28.27450
G1 X114.74 Y109.01 E28.33750
G1 X114.22 Y109.09 E28.39999
G1 X113.72 Y109.24 E28.46295
G1 X113.25 Y109.47 E28.52570
G1 X112.82 Y109.77 E28.58857
G1 X112.43 Y110.12 E28.65149
;LAYER:1
M106 S255
G0 F9000 X112.43 Y110.12 Z0.50
;TYPE:WALL-OUTER
G1 F540 X112.11 Y110.53 E28.69328
G1 X111.84 Y110.99 E28.73517
G1 X111.66 Y111.47 E28.77652
G1 X111.54 Y111.98 E28.81836
G1 X111.50 Y112.50 E28.86015
G1 X111.54 Y113.02 E28.90195
G1 X111.66 Y113.53 E28.94379
G1 X111.85 Y114.02 E28.98564
G1 X112.11 Y114.47 E29.02751
G1 X112.43 Y114.88 E29.06935
G1 X112.82 Y115.24 E29.11129
G1 X113.25 Y115.53 E29.15317
G1 X113.72 Y115.76 E29.19499
G1 X114.22 Y115.91 E29.23679
G1 X114.74 Y115.99 E29.27869
G1 X115.26 Y115.99 E29.32045
G1 X115.78 Y115.91 E29.36235
G1 X116.28 Y115.76 E29.40415
G1 X116.75 Y115.53 E29.44597
G1 X117.18 Y115.24 E29.48784
G1 X117.57 Y114.88 E29.52979
G1 X117.89 Y114.47 E29.57163
G1 X118.15 Y114.02 E29.61350
G1 X118.34 Y113.53 E29.65535
G1 X118.46 Y113.02 E29.69719
G1 X118.50 Y112.50 E29.73898
G1 X118.46 Y111.97 E29.78127
G1 X118.34 Y111.46 E29.82320
G1 X118.15 Y110.98 E29.86496
G1 X117.89 Y110.52 E29.90683
G1 X117.56 Y110.11 E29.94867
G1 X117.18 Y109.76 E29.99057
G1 X116.74 Y109.47 E30.03239
G1 X116.28 Y109.24 E30.07372
G1 X115.78 Y109.09 E30.11559
G1 X115.26 Y109.01 E30.15749
G1 X114.73 Y109.01 E30.19973
G1 X114.22 Y109.09 E30.24165
G1 X113.72 Y109.25 E30.28347
G1 X113.25 Y109.47 E30.32530
G1 X112.81 Y109.77 E30.36709
G1 X112.43 Y110.12 E30.40908
G0 F9000 X112.30 Y109.97
G1 F540 X112.64 Y109.65 E30.44650
G1 X113.02 Y109.38 E30.48356
G1 X113.42 Y109.16 E30.52019
G1 X113.86 Y108.98 E30.55779
G1 X114.31 Y108.87 E30.59527
G1 X114.77 Y108.81 E30.63181
G1 X115.23 Y108.81 E30.66941
G1 X115.69 Y108.87 E30.70594
G1 X116.14 Y108.98 E30.74343
G1 X116.58 Y109.16 E30.78103
G1 X116.98 Y109.38 E30.81766
G1 X117.36 Y109.65 E30.85472
G1 X117.70 Y109.97 E30.89213
G1 X117.99 Y110.33 E30.92946
G1 X118.24 Y110.72 E30.96657
G1 X118.44 Y111.14 E31.00378
G1 X118.58 Y111.58 E31.04097
G1 X118.67 Y112.03 E31.07753
G1 X118.70 Y112.51 E31.11561
G1 X118.67 Y112.97 E31.15313
G1 X118.58 Y113.42 E31.18970
G1 X118.44 Y113.86 E31.22664
G1 X118.24 Y114.29 E31.26436
G1 X117.99 Y114.68 E31.30122
G1 X117.69 Y115.04 E31.33854
G1 X117.35 Y115.36 E31.37596
G1 X116.98 Y115.62 E31.41244
G1 X116.57 Y115.85 E31.45025
G1 X116.14 Y116.02 E31.48676
G1 X115.69 Y116.13 E31.52425
G1 X115.23 Y116.19 E31.56079
G1 X114.76 Y116.19 E31.59871
G1 X114.31 Y116.13 E31.63533
G1 X113.85 Y116.02 E31.67307
G1 X113.42 Y115.84 E31.71048
G1 X113.02 Y115.62 E31.74675
G1 X112.63 Y115.34 E31.78494
G1 X112.30 Y115.03 E31.82111
G1 X112.00 Y114.67 E31.85889
G1 X111.76 Y114.28 E31.89596
G1 X111.56 Y113.85 E31.93336
G1 X111.42 Y113.41 E31.97032
G1 X111.33 Y112.97 E32.00649
G1 X111.30 Y112.50 E32.04408
G1 X111.33 Y112.03 E32.08168
G1 X111.42 Y111.58 E32.11824
G1 X111.56 Y111.14 E32.15543
G1 X111.76 Y110.72 E32.19265
G1 X112.01 Y110.33 E32.22975
G1 X112.30 Y109.97 E32.26708
;LAYER:2
G0 F9000 X112.30 Y109.97 Z0.70
;TYPE:WALL-OUTER
G1 F540 X112.64 Y109.65 E32.30449
G1 X113.01 Y109.38 E32.34046
G1 X113.42 Y109.15 E32.37849
G1 X113.86 Y108.98 E32.41576
G1 X114.31 Y108.87 E32.45325
G1 X114.77 Y108.81 E32.48979
G1 X115.23 Y108.81 E32.52739
G1 X115.69 Y108.87 E32.56392
G1 X116.14 Y108.98 E32.60141
G1 X116.58 Y109.16 E32.63901
G1 X116.98 Y109.38 E32.67564
G1 X117.35 Y109.64 E32.71179
G1 X117.70 Y109.97 E32.75011
G1 X117.99 Y110.33 E32.78743
G1 X118.24 Y110.72 E32.82454
G1 X118.44 Y111.14 E32.86176
G1 X118.58 Y111.58 E32.89895
G1 X118.67 Y112.03 E32.93559
G1 X118.70 Y112.51 E32.97374
G1 X118.67 Y112.97 E33.01118
G1 X118.58 Y113.43 E33.04794
G1 X118.44 Y113.86 E33.08480
G1 X118.23 Y114.29 E33.12269
G1 X117.99 Y114.68 E33.15920
G1 X117.69 Y115.04 E33.19680
G1 X117.35 Y115.36 E33.23416
G1 X116.98 Y115.62 E33.27060
G1 X116.56 Y115.85 E33.30840
G1 X116.13 Y116.02 E33.34539
G1 X115.69 Y116.13 E33.38222
G1 X115.23 Y116.19 E33.41876
G1 X114.76 Y116.19 E33.45692
G1 X114.30 Y116.13 E33.49354
G1 X113.85 Y116.02 E33.53128
G1 X113.42 Y115.84 E33.56833
G1 X113.01 Y115.62 E33.60522
G1 X112.63 Y115.34 E33.64319
G1 X112.30 Y115.03 E33.67969
G1 X112.00 Y114.67 E33.71674
G1 X111.75 Y114.27 E33.75416
G1 X111.56 Y113.85 E33.79138
G1 X111.42 Y113.42 E33.82804
G1 X111.33 Y112.97 E33.86444
G1 X111.30 Y112.50 E33.90235
G1 X111.33 Y112.03 E33.93963
G1 X111.42 Y111.58 E33.97619
G1 X111.56 Y111.14 E34.01338
G1 X111.76 Y110.72 E34.05060
G1 X112.01 Y110.33 E34.08771
G1 X112.30 Y109.97 E34.12503
G0 F9000 X112.43 Y110.13
G1 F540 X112.10 Y110.54 E34.16685
G1 X111.84 Y110.99 E34.20867
G1 X111.65 Y111.48 E34.25049
G1 X111.54 Y111.98 E34.29160
G1 X111.50 Y112.50 E34.33340
G1 X111.54 Y113.02 E34.37519
G1 X111.66 Y113.53 E34.41703
G1 X111.85 Y114.02 E34.45888
G1 X112.11 Y114.47 E34.50075
G1 X112.43 Y114.88 E34.54259
G1 X112.82 Y115.24 E34.58454
G1 X113.25 Y115.53 E34.62641
G1 X113.72 Y115.76 E34.66823
G1 X114.22 Y115.91 E34.71003
G1 X114.74 Y115.99 E34.75193
G1 X115.26 Y115.99 E34.79369
G1 X115.78 Y115.91 E34.83559
G1 X116.28 Y115.76 E34.87739
G1 X116.75 Y115.53 E34.91921
G1 X117.18 Y115.24 E34.96108
G1 X117.57 Y114.88 E35.00303
G1 X117.89 Y114.47 E35.04487
G1 X118.15 Y114.02 E35.08674
G1 X118.34 Y113.53 E35.12859
G1 X118.46 Y113.02 E35.17043
G1 X118.50 Y112.50 E35.21222
G1 X118.46 Y111.97 E35.25475
G1 X118.34 Y111.46 E35.29669
G1 X118.15 Y110.97 E35.33852
G1 X117.89 Y110.52 E35.38040
G1 X117.56 Y110.11 E35.42218
G1 X117.17 Y109.76 E35.46407
G1 X116.74 Y109.47 E35.50590
G1 X116.28 Y109.24 E35.54701
G1 X115.78 Y109.09 E35.58881
G1 X115.26 Y109.01 E35.63071
G1 X114.73 Y109.01 E35.67319
G1 X114.21 Y109.09 E35.71511
G1 X113.71 Y109.25 E35.75696
G1 X113.24 Y109.47 E35.79878
G1 X112.81 Y109.77 E35.84057
G1 X112.43 Y110.13 E35.88257
;LAYER:3
G0 F9000 X112.42 Y110.13 Z0.90
;TYPE:WALL-OUTER
G1 F540 X112.10 Y110.54 E35.92439
G1 X111.84 Y110.99 E35.96617
G1 X111.66 Y111.47 E36.00701
G1 X111.54 Y111.99 E36.04943
G1 X111.54 Y112.02 E36.05231
G1 X111.50 Y112.50 E36.09067
G1 X111.54 Y113.02 E36.13246
G1 X111.66 Y113.53 E36.17431
G1 X111.85 Y114.02 E36.21616
G1 X112.11 Y114.47 E36.25802
G1 X112.43 Y114.88 E36.29986
G1 X112.82 Y115.24 E36.34181
G1 X113.25 Y115.53 E36.38368
G1 X113.72 Y115.76 E36.42551
G1 X114.22 Y115.91 E36.46731
G1 X114.74 Y115.99 E36.50920
G1 X115.26 Y115.99 E36.55096
G1 X115.78 Y115.91 E36.59286
G1 X116.28 Y115.76 E36.63466
G1 X116.75 Y115.53 E36.67649
G1 X117.18 Y115.24 E36.71836
G1 X117.57 Y114.88 E36.76030
G1 X117.89 Y114.47 E36.80214
G1 X118.15 Y114.02 E36.84401
G1 X118.34 Y113.53 E36.88586
G1 X118.46 Y113.02 E36.92770
G1 X118.50 Y112.51 E36.96893
G1 X118.50 Y112.48 E36.97117
G1 X118.46 Y111.97 E37.01234
G1 X118.34 Y111.46 E37.05423
G1 X118.15 Y110.97 E37.09607
G1 X117.88 Y110.52 E37.13787
G1 X117.57 Y110.12 E37.17870
G1 X117.17 Y109.76 E37.22156
G1 X116.75 Y109.47 E37.26246
G1 X116.27 Y109.24 E37.30525
G1 X115.78 Y109.09 E37.34607
G1 X115.26 Y109.01 E37.38796
G1 X114.72 Y109.01 E37.43084
G1 X114.21 Y109.09 E37.47270
G1 X113.71 Y109.25 E37.51447
G1 X113.24 Y109.48 E37.55619
G1 X112.82 Y109.76 E37.59708
G1 X112.42 Y110.13 E37.64010
G0 F9000 X112.30 Y109.97
G1 F540 X112.64 Y109.65 E37.67751
G1 X113.02 Y109.38 E37.71457
G1 X113.42 Y109.16 E37.75120
G1 X113.86 Y108.98 E37.78880
G1 X114.31 Y108.87 E37.82629
G1 X114.77 Y108.81 E37.86282
G1 X115.23 Y108.81 E37.90042
G1 X115.69 Y108.87 E37.93696
G1 X116.14 Y108.98 E37.97444
G1 X116.58 Y109.16 E38.01204
