;FLAVOR:UltiGCode
;TIME:2088      
;MATERIAL:7330      
;MATERIAL2:0         

;Layer count: 250
;LAYER:0
M107
G0 F12000 X66.42 Y89.99 Z0.30
G0 X66.42 Y89.99
;TYPE:SKIRT
; mod erri: un-retract without retract G11
G1 F1200 X76.82 Y89.99 E1.24800
G1 X76.82 Y103.99 E2.92800
G1 X80.97 Y103.99 E3.42600
G1 X80.97 Y125.49 E6.00600
G1 X91.12 Y125.49 E7.22400
G1 X91.12 Y133.52 E8.18700
G1 X85.62 Y139.02 E9.12038
G1 X85.62 Y143.06 E9.60566
G1 X86.12 Y144.01 E9.73413
G1 X86.44 Y145.08 E9.86829
G1 X86.56 Y146.19 E10.00300
G1 X86.44 Y147.31 E10.13771
G1 X86.12 Y148.38 E10.27187
G1 X85.59 Y149.37 E10.40662
G1 X84.88 Y150.24 E10.54099
G1 X84.02 Y150.94 E10.67528
G1 X83.03 Y151.47 E10.80971
G1 X81.96 Y151.80 E10.94386
G1 X80.84 Y151.91 E11.07858
G1 X79.72 Y151.80 E11.21329
G1 X78.65 Y151.47 E11.34744
G1 X77.66 Y150.94 E11.48220
G1 X76.80 Y150.23 E11.61656
G1 X76.09 Y149.37 E11.75085
G1 X75.56 Y148.38 E11.88528
G1 X75.24 Y147.31 E12.01932
G1 X75.12 Y146.19 E12.15403
G1 X75.24 Y145.08 E12.28875
G1 X75.56 Y144.01 E12.42290
G1 X76.07 Y143.06 E12.55164
G1 X76.07 Y139.00 E13.03896
G1 X70.42 Y133.55 E13.98065
G1 X70.42 Y112.52 E16.50473
G1 X66.42 Y108.52 E17.18364
G1 X66.42 Y89.99 E19.40664
G10
G0 F12000 X70.22 Y93.79
;TYPE:WALL-INNER
G11
G1 F1200 X73.02 Y93.79 E19.74264
G1 X73.02 Y107.79 E21.42264
G1 X77.17 Y107.79 E21.92064
G1 X77.17 Y132.79 E24.92064
G1 X84.52 Y132.79 E25.80264
G1 X84.52 Y129.29 E26.22264
G1 X87.32 Y129.29 E26.55864
G1 X87.32 Y131.94 E26.87688
G1 X83.67 Y135.59 E27.49596
G1 X81.82 Y135.59 E27.71820
G1 X81.82 Y144.55 E28.79304
G1 X82.18 Y144.85 E28.84940
G1 X82.42 Y145.14 E28.89485
G1 X82.59 Y145.47 E28.93919
G1 X82.70 Y145.82 E28.98372
G1 X82.74 Y146.19 E29.02846
G1 X82.70 Y146.56 E29.07308
G1 X82.59 Y146.92 E29.11750
G1 X82.42 Y147.25 E29.16211
G1 X82.18 Y147.54 E29.20747
G1 X81.89 Y147.77 E29.25138
G1 X81.57 Y147.94 E29.29615
G1 X81.21 Y148.05 E29.34068
G1 X80.84 Y148.09 E29.38542
G1 X80.47 Y148.05 E29.43004
G1 X80.12 Y147.94 E29.47446
G1 X79.79 Y147.77 E29.51907
G1 X79.50 Y147.53 E29.56442
G1 X79.26 Y147.25 E29.60834
G1 X79.09 Y146.92 E29.65311
G1 X78.98 Y146.56 E29.69764
G1 X78.94 Y146.19 E29.74226
G1 X78.98 Y145.82 E29.78700
G1 X79.09 Y145.47 E29.83153
G1 X79.26 Y145.14 E29.87587
G1 X79.50 Y144.85 E29.92115
G1 X79.87 Y144.55 E29.97770
G1 X79.87 Y135.59 E31.05266
G1 X78.01 Y135.59 E31.27562
G1 X74.22 Y131.94 E31.90762
G1 X74.22 Y110.94 E34.42690
G1 X70.22 Y106.94 E35.10564
G1 X70.22 Y93.79 E36.68388
G0 F12000 X69.82 Y93.39
;TYPE:WALL-OUTER
G1 F1200 X73.42 Y93.39 E37.11588
G1 X73.42 Y107.39 E38.79588
G1 X77.57 Y107.39 E39.29388
G1 X77.57 Y132.39 E42.29388
G1 X84.12 Y132.39 E43.07988
G1 X84.12 Y128.89 E43.49988
G1 X87.72 Y128.89 E43.93188
G1 X87.72 Y132.11 E44.31804
G1 X83.83 Y135.99 E44.97684
G1 X82.22 Y135.99 E45.17100
G1 X82.22 Y144.36 E46.17516
G1 X82.46 Y144.56 E46.21352
G1 X82.75 Y144.92 E46.26861
G1 X82.97 Y145.31 E46.32213
G1 X83.09 Y145.74 E46.37604
G1 X83.14 Y146.19 E46.43043
G1 X83.09 Y146.64 E46.48470
G1 X82.97 Y147.07 E46.53861
G1 X82.75 Y147.47 E46.59230
G1 X82.47 Y147.82 E46.64687
G1 X82.11 Y148.11 E46.70128
G1 X81.72 Y148.32 E46.75481
G1 X81.29 Y148.45 E46.80871
G1 X80.84 Y148.49 E46.86310
G1 X80.39 Y148.45 E46.91737
G1 X79.96 Y148.32 E46.97128
G1 X79.57 Y148.10 E47.02497
G1 X79.21 Y147.82 E47.07955
G1 X78.93 Y147.47 E47.13395
G1 X78.72 Y147.07 E47.18748
G1 X78.59 Y146.64 E47.24139
G1 X78.54 Y146.19 E47.29566
G1 X78.59 Y145.74 E47.35004
G1 X78.72 Y145.31 E47.40395
G1 X78.93 Y144.92 E47.45748
G1 X79.22 Y144.57 E47.51206
G1 X79.47 Y144.36 E47.55094
G1 X79.47 Y135.99 E48.55522
G1 X77.85 Y135.99 E48.74950
G1 X73.82 Y132.11 E49.42131
G1 X73.82 Y111.11 E51.94107
G1 X69.82 Y107.11 E52.61981
G1 X69.82 Y93.39 E54.26597
G0 F12000 X70.44 Y93.91
;TYPE:FILL
G1 F1200 X72.90 Y96.37 E54.68345
G0 F12000 X72.90 Y96.94
G1 F1200 X70.33 Y94.38 E55.11798
G0 F12000 X70.33 Y94.94
G1 F1200 X72.90 Y97.50 E55.55251
G0 F12000 X72.90 Y98.07
G1 F1200 X70.33 Y95.51 E55.98713
G0 F12000 X70.33 Y96.07
G1 F1200 X72.90 Y98.64 E56.42174
G0 F12000 X72.90 Y99.20
G1 F1200 X70.33 Y96.64 E56.85627
G0 F12000 X70.33 Y97.20
G1 F1200 X72.90 Y99.77 E57.29089
G0 F12000 X72.90 Y100.33
G1 F1200 X70.33 Y97.77 E57.72551
G0 F12000 X70.33 Y98.34
G1 F1200 X72.90 Y100.90 E58.16004
G0 F12000 X72.90 Y101.46
G1 F1200 X70.33 Y98.90 E58.59457
G0 F12000 X70.33 Y99.47
G1 F1200 X72.90 Y102.03 E59.02918
G0 F12000 X72.90 Y102.59
G1 F1200 X70.33 Y100.03 E59.46372
G0 F12000 X70.33 Y100.60
G1 F1200 X72.90 Y103.16 E59.89825
G0 F12000 X72.90 Y103.73
G1 F1200 X70.33 Y101.17 E60.33286
G0 F12000 X70.33 Y101.73
G1 F1200 X72.90 Y104.29 E60.76739
G0 F12000 X72.90 Y104.86
G1 F1200 X70.33 Y102.30 E61.20193
G0 F12000 X70.33 Y102.86
G1 F1200 X72.90 Y105.42 E61.63654
G0 F12000 X72.90 Y105.99
G1 F1200 X70.33 Y103.43 E62.07107
G0 F12000 X70.33 Y103.99
G1 F1200 X72.90 Y106.55 E62.50560
G0 F12000 X72.90 Y107.12
G1 F1200 X70.33 Y104.56 E62.94022
G0 F12000 X70.33 Y105.12
G1 F1200 X72.90 Y107.69 E63.37475
G0 F12000 X73.12 Y107.91
G1 F1200 X77.05 Y111.84 E64.04068
G0 F12000 X77.05 Y112.40
G1 F1200 X70.33 Y105.69 E65.17949
G0 F12000 X70.33 Y106.26
G1 F1200 X77.05 Y112.97 E66.31838
G0 F12000 X77.05 Y113.53
G1 F1200 X70.33 Y106.82 E67.45727
G0 F12000 X73.69 Y107.91
G1 F1200 X77.05 Y111.27 E68.02715
G0 F12000 X77.05 Y110.70
G1 F1200 X74.25 Y107.91 E68.50105
G0 F12000 X74.82 Y107.91
G1 F1200 X77.05 Y110.14 E68.87890
G0 F12000 X77.05 Y109.57
G1 F1200 X75.39 Y107.91 E69.16078
G0 F12000 X75.95 Y107.91
G1 F1200 X77.05 Y109.01 E69.34661
G0 F12000 X77.05 Y108.44
G1 F1200 X76.52 Y107.91 E69.43647
G0 F12000 X74.34 Y111.39
G1 F1200 X77.05 Y114.10 E69.89637
G0 F12000 X77.05 Y114.66
G1 F1200 X74.34 Y111.95 E70.35627
G0 F12000 X74.34 Y112.52
G1 F1200 X77.05 Y115.23 E70.81626
G0 F12000 X77.05 Y115.80
G1 F1200 X74.34 Y113.08 E71.27616
G0 F12000 X74.34 Y113.65
G1 F1200 X77.05 Y116.36 E71.73606
G0 F12000 X77.05 Y116.93
G1 F1200 X74.34 Y114.22 E72.19605
G0 F12000 X74.34 Y114.78
G1 F1200 X77.05 Y117.49 E72.65595
G0 F12000 X77.05 Y118.06
G1 F1200 X74.34 Y115.35 E73.11585
G0 F12000 X74.34 Y115.91
G1 F1200 X77.05 Y118.62 E73.57584
G0 F12000 X77.05 Y119.19
G1 F1200 X74.34 Y116.48 E74.03574
G0 F12000 X74.34 Y117.05
G1 F1200 X77.05 Y119.75 E74.49565
G0 F12000 X77.05 Y120.32
G1 F1200 X74.34 Y117.61 E74.95563
G0 F12000 X74.34 Y118.18
G1 F1200 X77.05 Y120.89 E75.41554
G0 F12000 X77.05 Y121.45
G1 F1200 X74.34 Y118.74 E75.87544
G0 F12000 X74.34 Y119.31
G1 F1200 X77.05 Y122.02 E76.33534
G0 F12000 X77.05 Y122.58
G1 F1200 X74.34 Y119.87 E76.79533
G0 F12000 X74.34 Y120.44
G1 F1200 X77.05 Y123.15 E77.25523
G0 F12000 X77.05 Y123.72
G1 F1200 X74.34 Y121.00 E77.71513
G0 F12000 X74.34 Y121.57
G1 F1200 X77.05 Y124.28 E78.17512
G0 F12000 X77.05 Y124.85
G1 F1200 X74.34 Y122.14 E78.63502
G0 F12000 X74.34 Y122.70
G1 F1200 X77.05 Y125.41 E79.09492
G0 F12000 X77.05 Y125.98
G1 F1200 X74.34 Y123.27 E79.55491
G0 F12000 X74.34 Y123.83
G1 F1200 X77.05 Y126.54 E80.01481
G0 F12000 X77.05 Y127.11
G1 F1200 X74.34 Y124.40 E80.47471
G0 F12000 X74.34 Y124.96
G1 F1200 X77.05 Y127.67 E80.93470
G0 F12000 X77.05 Y128.24
G1 F1200 X74.34 Y125.53 E81.39460
G0 F12000 X74.34 Y126.10
G1 F1200 X77.05 Y128.81 E81.85451
G0 F12000 X77.05 Y129.37
G1 F1200 X74.34 Y126.66 E82.31449
G0 F12000 X74.34 Y127.23
G1 F1200 X77.05 Y129.94 E82.77440
G0 F12000 X77.05 Y130.50
G1 F1200 X74.34 Y127.79 E83.23430
G0 F12000 X74.34 Y128.36
G1 F1200 X77.05 Y131.07 E83.69428
G0 F12000 X77.05 Y131.63
G1 F1200 X74.34 Y128.92 E84.15419
G0 F12000 X74.34 Y129.49
G1 F1200 X77.05 Y132.20 E84.61409
G0 F12000 X77.05 Y132.77
G1 F1200 X74.34 Y130.06 E85.07399
G0 F12000 X74.34 Y130.62
G1 F1200 X79.19 Y135.47 E85.89715
G0 F12000 X78.62 Y135.47
G1 F1200 X74.34 Y131.19 E86.62434
G0 F12000 X74.34 Y131.75
G1 F1200 X78.02 Y135.43 E87.24902
G0 F12000 X79.75 Y135.47
G1 F1200 X77.19 Y132.91 E87.68347
G0 F12000 X77.76 Y132.91
G1 F1200 X81.70 Y136.85 E88.35186
G0 F12000 X81.70 Y137.42
G1 F1200 X79.98 Y135.71 E88.64222
G0 F12000 X79.98 Y136.27
G1 F1200 X81.70 Y137.98 E88.93250
G0 F12000 X81.70 Y138.55
G1 F1200 X79.98 Y136.84 E89.22279
G0 F12000 X79.98 Y137.40
G1 F1200 X81.70 Y139.11 E89.51315
G0 F12000 X81.70 Y139.68
G1 F1200 X79.98 Y137.97 E89.80352
G0 F12000 X79.98 Y138.53
G1 F1200 X81.70 Y140.24 E90.09380
G0 F12000 X81.70 Y140.81
G1 F1200 X79.98 Y139.10 E90.38417
G0 F12000 X79.98 Y139.66
G1 F1200 X81.70 Y141.38 E90.67453
G0 F12000 X81.70 Y141.94
G1 F1200 X79.98 Y140.23 E90.96481
G0 F12000 X79.98 Y140.80
G1 F1200 X81.70 Y142.51 E91.25518
G0 F12000 X81.70 Y143.07
G1 F1200 X79.98 Y141.36 E91.54555
G0 F12000 X79.98 Y141.93
G1 F1200 X81.70 Y143.64 E91.83583
G0 F12000 X81.70 Y144.20
G1 F1200 X79.98 Y142.49 E92.12611
G0 F12000 X79.98 Y143.06
G1 F1200 X82.50 Y145.58 E92.55326
G0 F12000 X82.61 Y146.25
G1 F1200 X79.98 Y143.62 E92.99882
G0 F12000 X79.98 Y144.19
G1 F1200 X82.53 Y146.73 E93.42979
G0 F12000 X82.35 Y147.12
G1 F1200 X79.90 Y144.67 E93.84489
G0 F12000 X79.59 Y144.93
G1 F1200 X82.10 Y147.44 E94.27102
G0 F12000 X81.79 Y147.69
G1 F1200 X79.34 Y145.24 E94.68612
G0 F12000 X79.16 Y145.63
G1 F1200 X81.40 Y147.87 E95.06609
G0 F12000 X80.92 Y147.96
G1 F1200 X79.07 Y146.10 E95.38064
G0 F12000 X79.17 Y146.76
G1 F1200 X80.27 Y147.87 E95.56723
G0 F12000 X81.70 Y136.28
G1 F1200 X78.32 Y132.91 E96.13956
G0 F12000 X78.89 Y132.91
G1 F1200 X81.70 Y135.72 E96.61593
G0 F12000 X82.02 Y135.47
G1 F1200 X79.45 Y132.91 E97.05046
G0 F12000 X80.02 Y132.91
G1 F1200 X82.58 Y135.47 E97.48490
G0 F12000 X83.15 Y135.47
G1 F1200 X80.59 Y132.91 E97.91935
G0 F12000 X81.15 Y132.91
G1 F1200 X83.67 Y135.43 E98.34591
G0 F12000 X83.95 Y135.14
G1 F1200 X81.72 Y132.91 E98.72443
G0 F12000 X82.28 Y132.91
G1 F1200 X84.23 Y134.86 E99.05502
G0 F12000 X84.51 Y134.58
G1 F1200 X82.85 Y132.91 E99.33767
G0 F12000 X83.41 Y132.91
G1 F1200 X84.80 Y134.29 E99.57220
G0 F12000 X85.08 Y134.01
G1 F1200 X83.98 Y132.91 E99.75870
G0 F12000 X84.55 Y132.91
G1 F1200 X85.36 Y133.73 E99.89727
G0 F12000 X85.64 Y133.44
G1 F1200 X84.64 Y132.44 E100.06859
G0 F12000 X84.64 Y131.87
G1 F1200 X85.93 Y133.16 E100.28802
G0 F12000 X86.21 Y132.88
G1 F1200 X84.64 Y131.30 E100.55547
G0 F12000 X84.64 Y130.74
G1 F1200 X86.49 Y132.60 E100.87087
G0 F12000 X86.78 Y132.31
G1 F1200 X84.64 Y130.17 E101.23421
G0 F12000 X84.64 Y129.61
G1 F1200 X87.06 Y132.03 E101.64558
G0 F12000 X87.20 Y131.60
G1 F1200 X85.01 Y129.41 E102.01723
G0 F12000 X85.57 Y129.41
G1 F1200 X87.20 Y131.04 E102.29292
G0 F12000 X87.20 Y130.47
G1 F1200 X86.14 Y129.41 E102.47264
G0 F12000 X86.70 Y129.41
G1 F1200 X87.20 Y129.91 E102.55630
G0 F12000 X84.46 Y132.73
G0 X77.22 Y132.73
G0 X77.22 Y107.73
G0 X73.08 Y107.73
G0 X72.90 Y95.81
G1 F1200 X71.00 Y93.91 E102.87772
G0 F12000 X71.57 Y93.91
G1 F1200 X72.90 Y95.24 E103.10318
G0 F12000 X72.90 Y94.67
G1 F1200 X72.13 Y93.91 E103.23266
G0 F12000 X72.70 Y93.91
G1 F1200 X72.90 Y94.11 E103.26610
;LAYER:1
M106 S255
G0 F12000 X73.02 Y93.79 Z0.50
;TYPE:WALL-INNER
G1 F1980 X73.02 Y107.79 E104.38610
G1 X77.17 Y107.79 E104.71810
G1 X77.17 Y132.79 E106.71810
G1 X84.52 Y132.79 E107.30610
G1 X84.52 Y129.29 E107.58610
G1 X87.32 Y129.29 E107.81010
G1 X87.32 Y131.94 E108.02226
G1 X83.67 Y135.59 E108.43498
G1 X81.82 Y135.59 E108.58314
G1 X81.82 Y144.55 E109.29970
G1 X82.18 Y144.85 E109.33727
G1 X82.42 Y145.14 E109.36706
G1 X82.59 Y145.47 E109.39737
G1 X82.70 Y145.82 E109.42681
G1 X82.74 Y146.19 E109.45655
G1 X82.70 Y146.57 E109.48663
G1 X82.59 Y146.92 E109.51606
G1 X82.42 Y147.25 E109.54602
G1 X82.18 Y147.53 E109.57580
G1 X81.89 Y147.77 E109.60570
G1 X81.56 Y147.95 E109.63519
G1 X81.21 Y148.05 E109.66477
G1 X80.84 Y148.09 E109.69452
G1 X80.47 Y148.05 E109.72459
G1 X80.11 Y147.94 E109.75403
G1 X79.78 Y147.77 E109.78398
G1 X79.50 Y147.53 E109.81376
G1 X79.26 Y147.24 E109.84366
G1 X79.09 Y146.92 E109.87315
G1 X78.98 Y146.56 E109.90274
G1 X78.94 Y146.19 E109.93249
G1 X78.98 Y145.82 E109.96231
G1 X79.09 Y145.47 E109.99200
G1 X79.26 Y145.14 E110.02156
G1 X79.50 Y144.85 E110.05157
G1 X79.87 Y144.55 E110.08953
G1 X79.87 Y135.59 E110.80601
G1 X78.01 Y135.59 E110.95465
G1 X74.22 Y131.94 E111.37599
G1 X74.22 Y110.94 E113.05551
G1 X70.22 Y106.94 E113.50800
G1 X70.22 Y93.79 E114.56016
G1 X73.02 Y93.79 E114.78416
G0 F12000 X73.42 Y93.39
;TYPE:WALL-OUTER
G1 F1980 X73.42 Y107.39 E115.90416
G1 X77.57 Y107.39 E116.23616
G1 X77.57 Y132.39 E118.23616
G1 X84.12 Y132.39 E118.76016
G1 X84.12 Y128.89 E119.04016
G1 X87.72 Y128.89 E119.32816
G1 X87.72 Y132.11 E119.58560
G1 X83.83 Y135.99 E120.02480
G1 X82.22 Y135.99 E120.15424
G1 X82.22 Y144.36 E120.82368
G1 X82.46 Y144.56 E120.84926
G1 X82.75 Y144.91 E120.88547
G1 X82.97 Y145.31 E120.92187
G1 X83.09 Y145.74 E120.95758
G1 X83.14 Y146.19 E120.99384
G1 X83.09 Y146.65 E121.03026
G1 X82.96 Y147.07 E121.06597
G1 X82.75 Y147.47 E121.10237
G1 X82.47 Y147.82 E121.13794
G1 X82.11 Y148.11 E121.17438
G1 X81.72 Y148.32 E121.21031
G1 X81.29 Y148.45 E121.24600
G1 X80.84 Y148.49 E121.28226
G1 X80.39 Y148.45 E121.31868
G1 X79.96 Y148.32 E121.35439
G1 X79.56 Y148.10 E121.39079
G1 X79.22 Y147.82 E121.42637
G1 X78.93 Y147.47 E121.46280
G1 X78.72 Y147.07 E121.49874
G1 X78.59 Y146.64 E121.53442
G1 X78.54 Y146.19 E121.57060
G1 X78.59 Y145.74 E121.60686
G1 X78.72 Y145.31 E121.64280
G1 X78.93 Y144.92 E121.67848
G1 X79.22 Y144.57 E121.71480
G1 X79.47 Y144.36 E121.74083
G1 X79.47 Y135.99 E122.41027
G1 X77.85 Y135.99 E122.53979
G1 X73.82 Y132.11 E122.98767
G1 X73.82 Y111.11 E124.66751
G1 X69.82 Y107.11 E125.12000
G1 X69.82 Y93.39 E126.21744
G1 X73.42 Y93.39 E126.50544
G0 F12000 X72.68 Y93.91
;TYPE:FILL
G1 F2400 X70.33 Y96.26 E126.77091
G0 F12000 X70.33 Y96.82
G1 F2400 X72.89 Y94.26 E127.06054
G0 F12000 X72.89 Y94.83
G1 F2400 X70.33 Y97.39 E127.35012
G0 F12000 X70.33 Y97.95
G1 F2400 X72.89 Y95.39 E127.63975
G0 F12000 X72.89 Y95.96
G1 F2400 X70.33 Y98.52 E127.92938
G0 F12000 X70.33 Y99.09
G1 F2400 X72.89 Y96.53 E128.21895
G0 F12000 X72.89 Y97.09
G1 F2400 X70.33 Y99.65 E128.50859
G0 F12000 X70.33 Y100.22
G1 F2400 X72.89 Y97.66 E128.79822
G0 F12000 X72.89 Y98.22
G1 F2400 X70.33 Y100.78 E129.08779
G0 F12000 X70.33 Y101.35
G1 F2400 X72.89 Y98.79 E129.37742
G0 F12000 X72.89 Y99.36
G1 F2400 X70.33 Y101.92 E129.66705
G0 F12000 X70.33 Y102.48
G1 F2400 X72.89 Y99.92 E129.95663
G0 F12000 X72.89 Y100.49
G1 F2400 X70.33 Y103.05 E130.24626
G0 F12000 X70.33 Y103.61
G1 F2400 X72.89 Y101.05 E130.53589
G0 F12000 X72.89 Y101.62
G1 F2400 X70.33 Y104.18 E130.82552
G0 F12000 X70.33 Y104.74
G1 F2400 X72.89 Y102.18 E131.11509
G0 F12000 X72.89 Y102.75
G1 F2400 X70.33 Y105.31 E131.40473
G0 F12000 X70.33 Y105.88
G1 F2400 X72.89 Y103.31 E131.69436
G0 F12000 X72.89 Y103.88
G1 F2400 X70.33 Y106.44 E131.98393
G0 F12000 X70.39 Y106.95
G1 F2400 X72.89 Y104.45 E132.26723
G0 F12000 X72.89 Y105.01
G1 F2400 X70.67 Y107.23 E132.51850
G0 F12000 X70.96 Y107.52
G1 F2400 X72.89 Y105.58 E132.73776
G0 F12000 X72.89 Y106.14
G1 F2400 X71.24 Y107.80 E132.92506
G0 F12000 X71.52 Y108.08
G1 F2400 X72.89 Y106.71 E133.08029
G0 F12000 X72.89 Y107.28
G1 F2400 X71.81 Y108.36 E133.20355
G0 F12000 X72.09 Y108.65
G1 F2400 X72.89 Y107.84 E133.29485
G0 F12000 X73.39 Y107.91
G1 F2400 X72.37 Y108.93 E133.41002
G0 F12000 X72.65 Y109.21
G1 F2400 X73.95 Y107.91 E133.55721
G0 F12000 X74.52 Y107.91
G1 F2400 X72.94 Y109.50 E133.73642
G0 F12000 X73.22 Y109.78
G1 F2400 X75.09 Y107.91 E133.94759
G0 F12000 X75.65 Y107.91
G1 F2400 X73.50 Y110.06 E134.19073
G0 F12000 X73.78 Y110.34
G1 F2400 X76.22 Y107.91 E134.46593
G0 F12000 X76.78 Y107.91
G1 F2400 X74.07 Y110.63 E134.77316
G0 F12000 X74.34 Y110.92
G1 F2400 X77.05 Y108.22 E135.07964
G0 F12000 X77.05 Y108.78
G1 F2400 X74.34 Y111.49 E135.38613
G0 F12000 X74.34 Y112.06
G1 F2400 X77.05 Y109.35 E135.69268
G0 F12000 X77.05 Y109.91
G1 F2400 X74.34 Y112.62 E135.99922
G0 F12000 X74.34 Y113.19
G1 F2400 X77.05 Y110.48 E136.30571
G0 F12000 X77.05 Y111.04
G1 F2400 X74.34 Y113.75 E136.61226
G0 F12000 X74.34 Y114.32
G1 F2400 X77.05 Y111.61 E136.91880
G0 F12000 X77.05 Y112.18
G1 F2400 X74.34 Y114.89 E137.22529
G0 F12000 X74.34 Y115.45
G1 F2400 X77.05 Y112.74 E137.53183
G0 F12000 X77.05 Y113.31
G1 F2400 X74.34 Y116.02 E137.83838
G0 F12000 X74.34 Y116.58
G1 F2400 X77.05 Y113.87 E138.14487
G0 F12000 X77.05 Y114.44
