;FLAVOR:UltiGCode
;TIME:2660      
;MATERIAL:9465      
;MATERIAL2:0         

;Layer count: 400
;LAYER:0
M107
G0 F9000 X133.45 Y81.42 Z0.30
G0 X133.45 Y81.42
;TYPE:SKIRT
; mod erri: un-retract without retract G11
G1 F1200 X133.45 Y89.02 E0.91200
G1 X142.05 Y89.02 E1.94400
G1 X142.05 Y81.42 E2.85600
G1 X137.05 Y81.42 E3.45600
G1 X137.05 Y80.69 E3.54276
G1 X135.81 Y81.42 E3.71490
G1 X133.45 Y81.42 E3.99822
G0 F9000 X133.05 Y81.02
G1 F1200 X133.05 Y89.42 E5.00622
G1 X142.45 Y89.42 E6.13422
G1 X142.45 Y81.02 E7.14222
G1 X137.45 Y81.02 E7.74222
G1 X137.45 Y80.00 E7.86450
G1 X135.70 Y81.02 E8.10720
G1 X133.05 Y81.02 E8.42556
G0 F9000 X124.15 Y72.12
G1 F1200 X151.35 Y72.12 E11.68956
G1 X151.35 Y98.32 E14.83356
G1 X124.15 Y98.32 E18.09756
G1 X124.15 Y72.12 E21.24156
G0 F9000 X123.75 Y71.72
G1 F1200 X151.75 Y71.72 E24.60156
G1 X151.75 Y98.72 E27.84156
G1 X123.75 Y98.72 E31.20156
G1 X123.75 Y71.72 E34.44156
G10
G0 F9000 X127.95 Y75.92
;TYPE:WALL-INNER
G11
G1 F1200 X134.25 Y75.92 E35.19756
G1 X134.25 Y77.22 E35.35356
G1 X129.25 Y77.22 E35.95356
G1 X129.25 Y93.22 E37.87356
G1 X146.25 Y93.22 E39.91356
G1 X146.25 Y77.22 E41.83356
G1 X141.25 Y77.22 E42.43356
G1 X141.25 Y75.92 E42.58956
G1 X147.55 Y75.92 E43.34556
G1 X147.55 Y94.52 E45.57756
G1 X127.95 Y94.52 E47.92956
G1 X127.95 Y75.92 E50.16156
G0 F9000 X127.55 Y75.52
;TYPE:WALL-OUTER
G1 F1200 X134.65 Y75.52 E51.01356
G1 X134.65 Y77.62 E51.26556
G1 X129.65 Y77.62 E51.86556
G1 X129.65 Y92.82 E53.68956
G1 X145.85 Y92.82 E55.63356
G1 X145.85 Y77.62 E57.45756
G1 X140.85 Y77.62 E58.05756
G1 X140.85 Y75.52 E58.30956
G1 X147.95 Y75.52 E59.16156
G1 X147.95 Y94.92 E61.48956
G1 X127.55 Y94.92 E63.93756
G1 X127.55 Y75.52 E66.26556
G0 F9000 X128.07 Y76.31
;TYPE:FILL
G1 F1200 X129.13 Y77.37 E66.44553
G0 F9000 X129.42 Y77.10
G1 F1200 X128.36 Y76.04 E66.62533
G0 F9000 X128.93 Y76.04
G1 F1200 X129.99 Y77.10 E66.80514
G0 F9000 X130.56 Y77.10
G1 F1200 X129.50 Y76.04 E66.98494
G0 F9000 X130.06 Y76.04
G1 F1200 X131.12 Y77.10 E67.16474
G0 F9000 X131.69 Y77.10
G1 F1200 X130.63 Y76.04 E67.34455
G0 F9000 X131.19 Y76.04
G1 F1200 X132.25 Y77.10 E67.52435
G0 F9000 X132.82 Y77.10
G1 F1200 X131.76 Y76.04 E67.70407
G0 F9000 X132.32 Y76.04
G1 F1200 X133.38 Y77.10 E67.88387
G0 F9000 X133.95 Y77.10
G1 F1200 X132.89 Y76.04 E68.06367
G0 F9000 X133.46 Y76.04
G1 F1200 X134.13 Y76.71 E68.17806
G0 F9000 X134.13 Y76.15
G1 F1200 X134.02 Y76.04 E68.19647
G0 F9000 X129.31 Y77.28
G0 X129.13 Y77.94
G1 F1200 X128.07 Y76.87 E68.37644
G0 F9000 X128.07 Y77.44
G1 F1200 X129.13 Y78.50 E68.55633
G0 F9000 X129.13 Y79.07
G1 F1200 X128.07 Y78.00 E68.73630
G0 F9000 X128.07 Y78.57
G1 F1200 X129.13 Y79.63 E68.91628
G0 F9000 X129.13 Y80.20
G1 F1200 X128.07 Y79.14 E69.09616
G0 F9000 X128.07 Y79.70
G1 F1200 X129.13 Y80.76 E69.27614
G0 F9000 X129.13 Y81.33
G1 F1200 X128.07 Y80.27 E69.45611
G0 F9000 X128.07 Y80.83
G1 F1200 X129.13 Y81.89 E69.63600
G0 F9000 X129.13 Y82.46
G1 F1200 X128.07 Y81.40 E69.81589
G0 F9000 X128.07 Y81.97
G1 F1200 X129.13 Y83.03 E69.99586
G0 F9000 X129.13 Y83.59
G1 F1200 X128.07 Y82.53 E70.17583
G0 F9000 X128.07 Y83.10
G1 F1200 X129.13 Y84.16 E70.35572
G0 F9000 X129.13 Y84.72
G1 F1200 X128.07 Y83.66 E70.53569
G0 F9000 X128.07 Y84.23
G1 F1200 X129.13 Y85.29 E70.71566
G0 F9000 X129.13 Y85.85
G1 F1200 X128.07 Y84.79 E70.89555
G0 F9000 X128.07 Y85.36
G1 F1200 X129.13 Y86.42 E71.07553
G0 F9000 X129.13 Y86.99
G1 F1200 X128.07 Y85.92 E71.25550
G0 F9000 X128.07 Y86.49
G1 F1200 X129.13 Y87.55 E71.43539
G0 F9000 X129.13 Y88.12
G1 F1200 X128.07 Y87.06 E71.61536
G0 F9000 X128.07 Y87.62
G1 F1200 X129.13 Y88.68 E71.79533
G0 F9000 X129.13 Y89.25
G1 F1200 X128.07 Y88.19 E71.97522
G0 F9000 X128.07 Y88.75
G1 F1200 X129.13 Y89.81 E72.15519
G0 F9000 X129.13 Y90.38
G1 F1200 X128.07 Y89.32 E72.33517
G0 F9000 X128.07 Y89.89
G1 F1200 X129.13 Y90.94 E72.51505
G0 F9000 X129.13 Y91.51
G1 F1200 X128.07 Y90.45 E72.69503
G0 F9000 X128.07 Y91.02
G1 F1200 X129.13 Y92.08 E72.87500
G0 F9000 X129.13 Y92.64
G1 F1200 X128.07 Y91.58 E73.05497
G0 F9000 X128.07 Y92.15
G1 F1200 X129.13 Y93.21 E73.23486
G0 F9000 X129.26 Y93.34
G1 F1200 X130.32 Y94.40 E73.41475
G0 F9000 X130.88 Y94.40
G1 F1200 X129.82 Y93.34 E73.59464
G0 F9000 X130.39 Y93.34
G1 F1200 X131.45 Y94.40 E73.77452
G0 F9000 X132.02 Y94.40
G1 F1200 X130.96 Y93.34 E73.95441
G0 F9000 X131.52 Y93.34
G1 F1200 X132.58 Y94.40 E74.13430
G0 F9000 X133.15 Y94.40
G1 F1200 X132.09 Y93.34 E74.31419
G0 F9000 X132.65 Y93.34
G1 F1200 X133.71 Y94.40 E74.49408
G0 F9000 X134.28 Y94.40
G1 F1200 X133.22 Y93.34 E74.67396
G0 F9000 X133.78 Y93.34
G1 F1200 X134.84 Y94.40 E74.85385
G0 F9000 X135.41 Y94.40
G1 F1200 X134.35 Y93.34 E75.03374
G0 F9000 X134.91 Y93.34
G1 F1200 X135.97 Y94.40 E75.21363
G0 F9000 X136.54 Y94.40
G1 F1200 X135.48 Y93.34 E75.39352
G0 F9000 X136.05 Y93.34
G1 F1200 X137.11 Y94.40 E75.57340
G0 F9000 X137.67 Y94.40
G1 F1200 X136.61 Y93.34 E75.75321
G0 F9000 X137.18 Y93.34
G1 F1200 X138.24 Y94.40 E75.93309
G0 F9000 X138.80 Y94.40
G1 F1200 X137.74 Y93.34 E76.11298
G0 F9000 X138.31 Y93.34
G1 F1200 X139.37 Y94.40 E76.29287
G0 F9000 X139.94 Y94.40
G1 F1200 X138.88 Y93.34 E76.47276
G0 F9000 X139.44 Y93.34
G1 F1200 X140.50 Y94.40 E76.65265
G0 F9000 X141.07 Y94.40
G1 F1200 X140.01 Y93.34 E76.83253
G0 F9000 X140.57 Y93.34
G1 F1200 X141.63 Y94.40 E77.01242
G0 F9000 X142.20 Y94.40
G1 F1200 X141.14 Y93.34 E77.19231
G0 F9000 X141.70 Y93.34
G1 F1200 X142.76 Y94.40 E77.37220
G0 F9000 X143.33 Y94.40
G1 F1200 X142.27 Y93.34 E77.55209
G0 F9000 X142.84 Y93.34
G1 F1200 X143.90 Y94.40 E77.73197
G0 F9000 X144.46 Y94.40
G1 F1200 X143.40 Y93.34 E77.91186
G0 F9000 X143.97 Y93.34
G1 F1200 X145.03 Y94.40 E78.09175
G0 F9000 X145.59 Y94.40
G1 F1200 X144.53 Y93.34 E78.27164
G0 F9000 X145.10 Y93.34
G1 F1200 X146.16 Y94.40 E78.45153
G0 F9000 X146.72 Y94.40
G1 F1200 X145.66 Y93.34 E78.63141
G0 F9000 X146.23 Y93.34
G1 F1200 X147.29 Y94.40 E78.81130
G0 F9000 X147.43 Y93.97
G1 F1200 X146.37 Y92.91 E78.99136
G0 F9000 X146.37 Y92.35
G1 F1200 X147.43 Y93.41 E79.17133
G0 F9000 X147.43 Y92.84
G1 F1200 X146.37 Y91.78 E79.35131
G0 F9000 X146.37 Y91.21
G1 F1200 X147.43 Y92.28 E79.53136
G0 F9000 X147.43 Y91.71
G1 F1200 X146.37 Y90.65 E79.71142
G0 F9000 X146.37 Y90.08
G1 F1200 X147.43 Y91.14 E79.89139
G0 F9000 X147.43 Y90.58
G1 F1200 X146.37 Y89.52 E80.07145
G0 F9000 X146.37 Y88.95
G1 F1200 X147.43 Y90.01 E80.25151
G0 F9000 X147.43 Y89.45
G1 F1200 X146.37 Y88.39 E80.43148
G0 F9000 X146.37 Y87.82
G1 F1200 X147.43 Y88.88 E80.61154
G0 F9000 X147.43 Y88.31
G1 F1200 X146.37 Y87.25 E80.79160
G0 F9000 X146.37 Y86.69
G1 F1200 X147.43 Y87.75 E80.97157
G0 F9000 X147.43 Y87.18
G1 F1200 X146.37 Y86.12 E81.15163
G0 F9000 X146.37 Y85.56
G1 F1200 X147.43 Y86.62 E81.33169
G0 F9000 X147.43 Y86.05
G1 F1200 X146.37 Y84.99 E81.51166
G0 F9000 X146.37 Y84.43
G1 F1200 X147.43 Y85.49 E81.69172
G0 F9000 X147.43 Y84.92
G1 F1200 X146.37 Y83.86 E81.87177
G0 F9000 X146.37 Y83.30
G1 F1200 X147.43 Y84.36 E82.05175
G0 F9000 X147.43 Y83.79
G1 F1200 X146.37 Y82.73 E82.23180
G0 F9000 X146.37 Y82.16
G1 F1200 X147.43 Y83.22 E82.41186
G0 F9000 X147.43 Y82.66
G1 F1200 X146.37 Y81.60 E82.59183
G0 F9000 X146.37 Y81.03
G1 F1200 X147.43 Y82.09 E82.77181
G0 F9000 X147.43 Y81.53
G1 F1200 X146.37 Y80.47 E82.95187
G0 F9000 X146.37 Y79.90
G1 F1200 X147.43 Y80.96 E83.13192
G0 F9000 X147.43 Y80.39
G1 F1200 X146.37 Y79.33 E83.31190
G0 F9000 X146.37 Y78.77
G1 F1200 X147.43 Y79.83 E83.49195
G0 F9000 X147.43 Y79.26
G1 F1200 X146.37 Y78.20 E83.67201
G0 F9000 X146.37 Y77.64
G1 F1200 X147.43 Y78.70 E83.85198
G0 F9000 X147.43 Y78.13
G1 F1200 X145.33 Y76.04 E84.20752
G0 F9000 X144.77 Y76.04
G1 F1200 X145.83 Y77.10 E84.38732
G0 F9000 X145.26 Y77.10
G1 F1200 X144.20 Y76.04 E84.56712
G0 F9000 X143.64 Y76.04
G1 F1200 X144.70 Y77.10 E84.74693
G0 F9000 X144.13 Y77.10
G1 F1200 X143.07 Y76.04 E84.92673
G0 F9000 X142.51 Y76.04
G1 F1200 X143.57 Y77.10 E85.10653
G0 F9000 X143.00 Y77.10
G1 F1200 X141.94 Y76.04 E85.28634
G0 F9000 X141.37 Y76.04
G1 F1200 X142.43 Y77.10 E85.46614
G0 F9000 X141.87 Y77.10
G1 F1200 X141.37 Y76.60 E85.55082
G0 F9000 X145.90 Y76.04
G1 F1200 X147.43 Y77.57 E85.81030
G0 F9000 X147.43 Y77.00
G1 F1200 X146.47 Y76.04 E85.97381
G0 F9000 X147.03 Y76.04
G1 F1200 X147.43 Y76.44 E86.04136
G0 F9000 X146.19 Y93.16
G0 X129.75 Y94.40
G1 F1200 X128.07 Y92.71 E86.32723
G0 F9000 X128.07 Y93.28
G1 F1200 X129.19 Y94.40 E86.51704
G0 F9000 X128.62 Y94.40
G1 F1200 X128.07 Y93.84 E86.61089
;LAYER:1
M106 S255
G0 F9000 X127.95 Y94.52 Z0.50
;TYPE:WALL-INNER
G1 F1980 X127.95 Y75.92 E88.09889
G1 X134.25 Y75.92 E88.60289
G1 X134.25 Y77.22 E88.70689
G1 X129.25 Y77.22 E89.10689
G1 X129.25 Y93.22 E90.38689
G1 X146.25 Y93.22 E91.74689
G1 X146.25 Y77.22 E93.02689
G1 X141.25 Y77.22 E93.42689
G1 X141.25 Y75.92 E93.53089
G1 X147.55 Y75.92 E94.03489
G1 X147.55 Y94.52 E95.52289
G1 X127.95 Y94.52 E97.09089
G0 F9000 X127.55 Y94.92
;TYPE:WALL-OUTER
G1 F1980 X127.55 Y75.52 E98.64289
G1 X134.65 Y75.52 E99.21089
G1 X134.65 Y77.62 E99.37889
G1 X129.65 Y77.62 E99.77889
G1 X129.65 Y92.82 E100.99489
G1 X145.85 Y92.82 E102.29089
G1 X145.85 Y77.62 E103.50689
G1 X140.85 Y77.62 E103.90689
G1 X140.85 Y75.52 E104.07489
G1 X147.95 Y75.52 E104.64289
G1 X147.95 Y94.92 E106.19489
G1 X127.55 Y94.92 E107.82689
G0 F9000 X128.20 Y94.40
;TYPE:FILL
G1 F1980 X129.26 Y93.34 E107.94681
G0 F9000 X129.13 Y92.90
G1 F1980 X128.07 Y93.96 E108.06668
G0 F9000 X128.07 Y93.40
G1 F1980 X129.13 Y92.34 E108.18661
G0 F9000 X129.13 Y91.77
G1 F1980 X128.07 Y92.83 E108.30648
G0 F9000 X128.07 Y92.26
G1 F1980 X129.13 Y91.20 E108.42635
G0 F9000 X129.13 Y90.64
G1 F1980 X128.07 Y91.70 E108.54627
G0 F9000 X128.07 Y91.13
G1 F1980 X129.13 Y90.07 E108.66614
G0 F9000 X129.13 Y89.51
G1 F1980 X128.07 Y90.57 E108.78601
G0 F9000 X128.07 Y90.00
G1 F1980 X129.13 Y88.94 E108.90588
G0 F9000 X129.13 Y88.38
G1 F1980 X128.07 Y89.44 E109.02575
G0 F9000 X128.07 Y88.87
G1 F1980 X129.13 Y87.81 E109.14561
G0 F9000 X129.13 Y87.25
G1 F1980 X128.07 Y88.30 E109.26548
G0 F9000 X128.07 Y87.74
G1 F1980 X129.13 Y86.68 E109.38541
G0 F9000 X129.13 Y86.11
G1 F1980 X128.07 Y87.17 E109.50528
G0 F9000 X128.07 Y86.61
G1 F1980 X129.13 Y85.55 E109.62515
G0 F9000 X129.13 Y84.98
G1 F1980 X128.07 Y86.04 E109.74507
G0 F9000 X128.07 Y85.48
G1 F1980 X129.13 Y84.42 E109.86494
G0 F9000 X129.13 Y83.85
G1 F1980 X128.07 Y84.91 E109.98481
G0 F9000 X128.07 Y84.34
G1 F1980 X129.13 Y83.28 E110.10473
G0 F9000 X129.13 Y82.72
G1 F1980 X128.07 Y83.78 E110.22460
G0 F9000 X128.07 Y83.21
G1 F1980 X129.13 Y82.15 E110.34447
G0 F9000 X129.13 Y81.59
G1 F1980 X128.07 Y82.65 E110.46440
G0 F9000 X128.07 Y82.08
G1 F1980 X129.13 Y81.02 E110.58427
G0 F9000 X129.13 Y80.46
G1 F1980 X128.07 Y81.52 E110.70413
G0 F9000 X128.07 Y80.95
G1 F1980 X129.13 Y79.89 E110.82400
G0 F9000 X129.13 Y79.33
G1 F1980 X128.07 Y80.39 E110.94387
G0 F9000 X128.07 Y79.82
G1 F1980 X129.13 Y78.76 E111.06374
G0 F9000 X129.13 Y78.19
G1 F1980 X128.07 Y79.25 E111.18361
G0 F9000 X128.07 Y78.69
G1 F1980 X129.13 Y77.63 E111.30348
G0 F9000 X129.66 Y77.10
G1 F1980 X130.72 Y76.04 E111.42335
G0 F9000 X131.28 Y76.04
G1 F1980 X130.22 Y77.10 E111.54322
G0 F9000 X130.79 Y77.10
G1 F1980 X131.85 Y76.04 E111.66308
G0 F9000 X132.42 Y76.04
G1 F1980 X131.36 Y77.10 E111.78295
G0 F9000 X131.92 Y77.10
G1 F1980 X132.98 Y76.04 E111.90282
G0 F9000 X133.55 Y76.04
G1 F1980 X132.49 Y77.10 E112.02269
G0 F9000 X133.05 Y77.10
G1 F1980 X134.11 Y76.04 E112.14256
G0 F9000 X134.13 Y76.59
G1 F1980 X133.62 Y77.10 E112.20015
G0 F9000 X130.15 Y76.04
G1 F1980 X128.07 Y78.12 E112.43598
G0 F9000 X128.07 Y77.56
G1 F1980 X129.59 Y76.04 E112.60778
G0 F9000 X129.02 Y76.04
G1 F1980 X128.07 Y76.99 E112.71560
G0 F9000 X128.07 Y76.42
G1 F1980 X128.46 Y76.04 E112.75944
G0 F9000 X127.89 Y94.58
G0 X147.61 Y94.58
G0 X147.61 Y75.86
G0 X141.37 Y76.14
G1 F1980 X141.47 Y76.04 E112.77058
G0 F9000 X142.03 Y76.04
G1 F1980 X141.37 Y76.70 E112.84565
G0 F9000 X141.54 Y77.10
G1 F1980 X142.60 Y76.04 E112.96552
G0 F9000 X143.16 Y76.04
G1 F1980 X142.10 Y77.10 E113.08539
G0 F9000 X142.67 Y77.10
G1 F1980 X143.73 Y76.04 E113.20526
G0 F9000 X144.30 Y76.04
G1 F1980 X143.24 Y77.10 E113.32513
G0 F9000 X143.80 Y77.10
G1 F1980 X144.86 Y76.04 E113.44499
G0 F9000 X145.43 Y76.04
G1 F1980 X144.37 Y77.10 E113.56486
G0 F9000 X144.93 Y77.10
G1 F1980 X145.99 Y76.04 E113.68473
G0 F9000 X146.56 Y76.04
G1 F1980 X145.50 Y77.10 E113.80460
G0 F9000 X146.06 Y77.10
G1 F1980 X147.12 Y76.04 E113.92447
G0 F9000 X147.43 Y76.30
G1 F1980 X146.37 Y77.36 E114.04428
G0 F9000 X146.37 Y77.92
G1 F1980 X147.43 Y76.86 E114.16409
G0 F9000 X147.43 Y77.43
G1 F1980 X146.37 Y78.49 E114.28391
G0 F9000 X146.37 Y79.06
G1 F1980 X147.43 Y78.00 E114.40372
G0 F9000 X147.43 Y78.56
G1 F1980 X146.37 Y79.62 E114.52353
G0 F9000 X146.37 Y80.19
G1 F1980 X147.43 Y79.13 E114.64334
G0 F9000 X147.43 Y79.69
G1 F1980 X146.37 Y80.75 E114.76321
G0 F9000 X146.37 Y81.32
G1 F1980 X147.43 Y80.26 E114.88302
G0 F9000 X147.43 Y80.83
G1 F1980 X146.37 Y81.88 E115.00284
G0 F9000 X146.37 Y82.45
G1 F1980 X147.43 Y81.39 E115.12270
G0 F9000 X147.43 Y81.96
G1 F1980 X146.37 Y83.02 E115.24252
G0 F9000 X146.37 Y83.58
G1 F1980 X147.43 Y82.52 E115.36233
G0 F9000 X147.43 Y83.09
G1 F1980 X146.37 Y84.15 E115.48220
G0 F9000 X146.37 Y84.71
G1 F1980 X147.43 Y83.65 E115.60201
G0 F9000 X147.43 Y84.22
G1 F1980 X146.37 Y85.28 E115.72182
G0 F9000 X146.37 Y85.84
G1 F1980 X147.43 Y84.78 E115.84169
G0 F9000 X147.43 Y85.35
G1 F1980 X146.37 Y86.41 E115.96150
G0 F9000 X146.37 Y86.97
G1 F1980 X147.43 Y85.92 E116.08131
G0 F9000 X147.43 Y86.48
G1 F1980 X146.37 Y87.54 E116.20118
G0 F9000 X146.37 Y88.11
G1 F1980 X147.43 Y87.05 E116.32100
G0 F9000 X147.43 Y87.61
G1 F1980 X146.37 Y88.67 E116.44081
G0 F9000 X146.37 Y89.24
G1 F1980 X147.43 Y88.18 E116.56062
G0 F9000 X147.43 Y88.74
G1 F1980 X146.37 Y89.80 E116.68043
G0 F9000 X146.37 Y90.37
G1 F1980 X147.43 Y89.31 E116.80024
G0 F9000 X147.43 Y89.88
G1 F1980 X146.37 Y90.94 E116.92006
G0 F9000 X146.37 Y91.50
G1 F1980 X147.43 Y90.44 E117.03992
G0 F9000 X147.43 Y91.01
G1 F1980 X146.37 Y92.07 E117.15974
G0 F9000 X146.37 Y92.63
G1 F1980 X147.43 Y91.57 E117.27955
G0 F9000 X147.43 Y92.14
G1 F1980 X146.37 Y93.20 E117.39942
G0 F9000 X146.23 Y93.34
G1 F1980 X145.17 Y94.40 E117.51934
G0 F9000 X144.60 Y94.40
G1 F1980 X145.66 Y93.34 E117.63921
G0 F9000 X145.10 Y93.34
G1 F1980 X144.04 Y94.40 E117.75914
G0 F9000 X143.47 Y94.40
G1 F1980 X144.53 Y93.34 E117.87906
G0 F9000 X143.97 Y93.34
G1 F1980 X142.91 Y94.40 E117.99899
G0 F9000 X142.34 Y94.40
G1 F1980 X143.40 Y93.34 E118.11891
G0 F9000 X142.84 Y93.34
G1 F1980 X141.78 Y94.40 E118.23884
G0 F9000 X141.21 Y94.40
G1 F1980 X142.27 Y93.34 E118.35876
G0 F9000 X141.70 Y93.34
G1 F1980 X140.64 Y94.40 E118.47869
G0 F9000 X140.08 Y94.40
G1 F1980 X141.14 Y93.34 E118.59861
G0 F9000 X140.57 Y93.34
G1 F1980 X139.51 Y94.40 E118.71854
G0 F9000 X138.95 Y94.40
G1 F1980 X140.01 Y93.34 E118.83847
G0 F9000 X139.44 Y93.34
G1 F1980 X138.38 Y94.40 E118.95839
G0 F9000 X137.81 Y94.40
G1 F1980 X138.88 Y93.34 E119.07832
G0 F9000 X138.31 Y93.34
G1 F1980 X137.25 Y94.40 E119.19824
G0 F9000 X136.68 Y94.40
G1 F1980 X137.74 Y93.34 E119.31817
G0 F9000 X137.18 Y93.34
G1 F1980 X136.12 Y94.40 E119.43809
G0 F9000 X135.55 Y94.40
G1 F1980 X136.61 Y93.34 E119.55802
G0 F9000 X136.05 Y93.34
G1 F1980 X134.99 Y94.40 E119.67794
G0 F9000 X134.42 Y94.40
G1 F1980 X135.48 Y93.34 E119.79787
G0 F9000 X134.91 Y93.34
G1 F1980 X133.86 Y94.40 E119.91774
G0 F9000 X133.29 Y94.40
G1 F1980 X134.35 Y93.34 E120.03766
G0 F9000 X133.78 Y93.34
G1 F1980 X132.72 Y94.40 E120.15759
G0 F9000 X132.16 Y94.40
G1 F1980 X133.22 Y93.34 E120.27751
G0 F9000 X132.65 Y93.34
G1 F1980 X131.59 Y94.40 E120.39744
G0 F9000 X131.03 Y94.40
G1 F1980 X132.09 Y93.34 E120.51736
G0 F9000 X131.52 Y93.34
G1 F1980 X130.46 Y94.40 E120.63729
G0 F9000 X129.90 Y94.40
G1 F1980 X130.96 Y93.34 E120.75721
G0 F9000 X130.39 Y93.34
G1 F1980 X129.33 Y94.40 E120.87714
G0 F9000 X128.76 Y94.40
G1 F1980 X129.82 Y93.34 E120.99706
G0 F9000 X145.74 Y94.40
G1 F1980 X147.43 Y92.70 E121.18866
G0 F9000 X147.43 Y93.27
G1 F1980 X146.30 Y94.40 E121.31622
G0 F9000 X146.87 Y94.40
G1 F1980 X147.43 Y93.83 E121.37986
;LAYER:2
G0 F9000 X147.55 Y94.52 Z0.70
;TYPE:WALL-INNER
