;Generated with Cura_SteamEngine 13.12
;FLAVOR:UltiGCode
;TIME:1041      
;MATERIAL:6167      
;MATERIAL2:0         

;Layer count: 320
;LAYER:0
M107
G0 F4500 X89.56 Y87.02 Z0.25
;TYPE:SKIRT
; mod erri: un-retract without retract G11
G1 F1800 X91.88 Y84.90 E0.31448
G1 X94.36 Y83.00 E0.62680
G1 X97.01 Y81.31 E0.94125
G1 X99.79 Y79.87 E1.25425
G1 X102.72 Y78.66 E1.57148
G1 X105.67 Y77.72 E1.88123
G1 X105.90 Y77.68 E1.90426
G1 X105.95 Y77.66 E1.90952
G1 X108.61 Y77.07 E2.18232
G1 X108.75 Y77.05 E2.19611
G1 X108.84 Y77.03 E2.20529
G1 X111.77 Y76.64 E2.50092
G1 X112.01 Y76.63 E2.52558
G1 X112.11 Y76.62 E2.53579
G1 X114.73 Y76.50 E2.79795
G1 X114.91 Y76.50 E2.81556
G1 X115.18 Y76.50 E2.84276
G1 X117.76 Y76.61 E3.10092
G1 X117.94 Y76.61 E3.11912
G1 X118.38 Y76.66 E3.16307
G1 X121.11 Y77.02 E3.43893
G1 X121.49 Y77.09 E3.47711
G1 X124.30 Y77.72 E3.76486
G1 X127.06 Y78.59 E4.05428
G1 X127.33 Y78.68 E4.08274
G1 X130.24 Y79.88 E4.39709
G1 X133.03 Y81.33 E4.71202
G1 X135.66 Y83.01 E5.02444
G1 X138.16 Y84.93 E5.33896
G1 X140.48 Y87.06 E5.65377
G1 X142.60 Y89.38 E5.96825
G1 X144.50 Y91.86 E6.28057
G1 X146.19 Y94.51 E6.59502
G1 X147.63 Y97.29 E6.90802
G1 X148.84 Y100.21 E7.22448
G1 X149.78 Y103.21 E7.53886
G1 X150.46 Y106.26 E7.85114
G1 X150.87 Y109.36 E8.16383
G1 X151.00 Y112.37 E8.46512
G1 X151.00 Y112.65 E8.49352
G1 X150.87 Y115.66 E8.79492
G1 X150.46 Y118.76 E9.10750
G1 X149.77 Y121.83 E9.42220
G1 X148.83 Y124.83 E9.73663
G1 X147.62 Y127.74 E10.05122
G1 X146.17 Y130.53 E10.36579
G1 X144.49 Y133.16 E10.67821
G1 X142.57 Y135.66 E10.99273
G1 X140.44 Y137.98 E11.30754
G1 X138.12 Y140.10 E11.62202
G1 X135.64 Y142.00 E11.93434
G1 X132.99 Y143.69 E12.24879
G1 X130.21 Y145.13 E12.56179
G1 X127.29 Y146.34 E12.87826
G1 X124.29 Y147.28 E13.19263
G1 X121.24 Y147.96 E13.50492
G1 X118.14 Y148.37 E13.81760
G1 X115.13 Y148.50 E14.11889
G1 X114.85 Y148.50 E14.14729
G1 X111.84 Y148.37 E14.44869
G1 X108.74 Y147.96 E14.76127
G1 X105.67 Y147.27 E15.07597
G1 X102.67 Y146.33 E15.39040
G1 X99.76 Y145.12 E15.70499
G1 X96.97 Y143.67 E16.01956
G1 X94.34 Y141.99 E16.33198
G1 X91.84 Y140.07 E16.64650
G1 X89.52 Y137.94 E16.96131
G1 X87.40 Y135.62 E17.27580
G1 X85.50 Y133.14 E17.58811
G1 X83.81 Y130.49 E17.90256
G1 X82.37 Y127.71 E18.21557
G1 X81.16 Y124.79 E18.53203
G1 X80.22 Y121.79 E18.84641
G1 X79.54 Y118.74 E19.15869
G1 X79.13 Y115.64 E19.47137
G1 X79.00 Y112.63 E19.77266
G1 X79.00 Y112.35 E19.80106
G1 X79.14 Y109.34 E20.10247
G1 X79.54 Y106.24 E20.41504
G1 X80.23 Y103.17 E20.72974
G1 X81.17 Y100.17 E21.04417
G1 X82.38 Y97.26 E21.35877
G1 X83.83 Y94.47 E21.67334
G1 X85.51 Y91.84 E21.98575
G1 X87.43 Y89.34 E22.30027
G1 X89.56 Y87.02 E22.61509
G0 F4500 X89.84 Y87.31
G1 F1800 X92.14 Y85.21 E22.92603
G1 X94.58 Y83.33 E23.23485
G1 X97.21 Y81.66 E23.54588
G1 X99.95 Y80.23 E23.85535
G1 X102.85 Y79.03 E24.16912
G1 X105.77 Y78.11 E24.47533
G1 X106.02 Y78.06 E24.50052
G1 X106.04 Y78.05 E24.50227
G1 X108.69 Y77.46 E24.77364
G1 X108.82 Y77.44 E24.78753
G1 X108.90 Y77.42 E24.79559
G1 X111.81 Y77.04 E25.08850
G1 X112.04 Y77.03 E25.11165
G1 X112.14 Y77.02 E25.12146
G1 X114.75 Y76.90 E25.38293
G1 X114.91 Y76.90 E25.39963
G1 X115.17 Y76.90 E25.42553
G1 X117.76 Y77.01 E25.68449
G1 X117.92 Y77.01 E25.70059
G1 X118.33 Y77.06 E25.74193
G1 X121.05 Y77.42 E26.01628
G1 X121.41 Y77.49 E26.05260
G1 X124.20 Y78.11 E26.33811
G1 X126.94 Y78.97 E26.62532
G1 X127.19 Y79.05 E26.65211
G1 X130.07 Y80.24 E26.96332
G1 X132.83 Y81.68 E27.27476
G1 X135.43 Y83.34 E27.58365
G1 X137.90 Y85.24 E27.89467
G1 X140.19 Y87.34 E28.20602
G1 X142.29 Y89.64 E28.51696
G1 X144.17 Y92.08 E28.82578
G1 X145.84 Y94.71 E29.13681
G1 X147.27 Y97.45 E29.44628
G1 X148.46 Y100.35 E29.75929
G1 X149.40 Y103.31 E30.07009
G1 X150.07 Y106.33 E30.37900
G1 X150.47 Y109.39 E30.68815
G1 X150.60 Y112.38 E30.98684
G1 X150.60 Y112.64 E31.01344
G1 X150.47 Y115.63 E31.31224
G1 X150.06 Y118.69 E31.62129
G1 X149.39 Y121.73 E31.93262
G1 X148.45 Y124.69 E32.24348
G1 X147.26 Y127.57 E32.55448
G1 X145.82 Y130.33 E32.86570
G1 X144.16 Y132.93 E33.17460
G1 X142.26 Y135.40 E33.48562
G1 X140.16 Y137.69 E33.79696
G1 X137.87 Y139.79 E34.10790
G1 X135.41 Y141.67 E34.41672
G1 X132.79 Y143.34 E34.72776
G1 X130.05 Y144.77 E35.03723
G1 X127.15 Y145.96 E35.35024
G1 X124.19 Y146.90 E35.66104
G1 X121.17 Y147.57 E35.96995
G1 X118.11 Y147.97 E36.27910
G1 X115.12 Y148.10 E36.57779
G1 X114.86 Y148.10 E36.60439
G1 X111.87 Y147.97 E36.90318
G1 X108.81 Y147.56 E37.21223
G1 X105.77 Y146.89 E37.52356
G1 X102.81 Y145.95 E37.83442
G1 X99.93 Y144.76 E38.14543
G1 X97.17 Y143.32 E38.45665
G1 X94.57 Y141.66 E38.76554
G1 X92.10 Y139.76 E39.07656
G1 X89.81 Y137.66 E39.38790
G1 X87.71 Y135.37 E39.69885
G1 X85.83 Y132.91 E40.00767
G1 X84.16 Y130.29 E40.31870
G1 X82.73 Y127.55 E40.62817
G1 X81.54 Y124.65 E40.94118
G1 X80.60 Y121.69 E41.25198
G1 X79.93 Y118.67 E41.56089
G1 X79.53 Y115.61 E41.87004
G1 X79.40 Y112.62 E42.16873
G1 X79.40 Y112.36 E42.19533
G1 X79.53 Y109.37 E42.49413
G1 X79.94 Y106.31 E42.80318
G1 X80.61 Y103.27 E43.11451
G1 X81.55 Y100.31 E43.42536
G1 X82.74 Y97.43 E43.73637
G1 X84.18 Y94.67 E44.04759
G1 X85.84 Y92.07 E44.35649
G1 X87.74 Y89.60 E44.66751
G1 X89.84 Y87.31 E44.97885
G0 F4500 X90.12 Y87.59
G1 F1800 X92.39 Y85.52 E45.28640
G1 X94.82 Y83.66 E45.59179
G1 X97.41 Y82.01 E45.89928
G1 X100.12 Y80.59 E46.20526
G1 X102.99 Y79.41 E46.51558
G1 X105.88 Y78.50 E46.81821
G1 X106.10 Y78.45 E46.84143
G1 X106.13 Y78.44 E46.84381
G1 X108.76 Y77.86 E47.11375
G1 X108.89 Y77.83 E47.12713
G1 X108.97 Y77.82 E47.13458
G1 X111.85 Y77.44 E47.42497
G1 X112.06 Y77.43 E47.44652
G1 X112.15 Y77.42 E47.45593
G1 X114.76 Y77.30 E47.71679
G1 X114.92 Y77.30 E47.73260
G1 X115.16 Y77.30 E47.75710
G1 X117.74 Y77.42 E48.01485
G1 X117.90 Y77.42 E48.03095
G1 X118.28 Y77.46 E48.06958
G1 X120.99 Y77.81 E48.34232
G1 X121.33 Y77.88 E48.37701
G1 X124.09 Y78.49 E48.66005
G1 X126.81 Y79.35 E48.94530
G1 X127.05 Y79.43 E48.97028
G1 X129.90 Y80.60 E49.27835
G1 X132.63 Y82.03 E49.58617
G1 X135.20 Y83.67 E49.89165
G1 X137.64 Y85.54 E50.19917
G1 X139.91 Y87.62 E50.50691
G1 X141.98 Y89.89 E50.81446
G1 X143.84 Y92.32 E51.11985
G1 X145.49 Y94.91 E51.42734
G1 X146.91 Y97.62 E51.73332
G1 X148.09 Y100.48 E52.04287
G1 X149.01 Y103.42 E52.35020
G1 X149.67 Y106.40 E52.65554
G1 X150.07 Y109.43 E52.96115
G1 X150.20 Y112.39 E53.25734
G1 X150.20 Y112.63 E53.28214
G1 X150.07 Y115.59 E53.57823
G1 X149.67 Y118.62 E53.88395
G1 X149.00 Y121.63 E54.19169
G1 X148.07 Y124.56 E54.49910
G1 X146.90 Y127.40 E54.80665
G1 X145.47 Y130.13 E55.11425
G1 X143.83 Y132.70 E55.41973
G1 X141.96 Y135.14 E55.72725
G1 X139.88 Y137.41 E56.03498
G1 X137.61 Y139.48 E56.34253
G1 X135.18 Y141.34 E56.64793
G1 X132.59 Y142.99 E56.95541
G1 X129.88 Y144.41 E57.26139
G1 X127.02 Y145.59 E57.57095
G1 X124.08 Y146.51 E57.87827
G1 X121.10 Y147.17 E58.18361
G1 X118.07 Y147.57 E58.48923
G1 X115.11 Y147.70 E58.78542
G1 X114.87 Y147.70 E58.81022
G1 X111.91 Y147.57 E59.10631
G1 X108.88 Y147.17 E59.41203
G1 X105.87 Y146.50 E59.71976
G1 X102.94 Y145.57 E60.02717
G1 X100.10 Y144.40 E60.33473
G1 X97.37 Y142.97 E60.64232
G1 X94.80 Y141.33 E60.94780
G1 X92.36 Y139.46 E61.25532
G1 X90.09 Y137.38 E61.56306
G1 X88.02 Y135.11 E61.87061
G1 X86.16 Y132.68 E62.17601
G1 X84.51 Y130.09 E62.48349
G1 X83.09 Y127.38 E62.78947
G1 X81.91 Y124.52 E63.09903
G1 X80.99 Y121.58 E63.40635
G1 X80.33 Y118.60 E63.71169
G1 X79.93 Y115.57 E64.01731
G1 X79.80 Y112.61 E64.31349
G1 X79.80 Y112.37 E64.33829
G1 X79.93 Y109.41 E64.63439
G1 X80.33 Y106.38 E64.94010
G1 X81.00 Y103.37 E65.24784
G1 X81.93 Y100.44 E65.55525
G1 X83.10 Y97.60 E65.86280
G1 X84.53 Y94.87 E66.17040
G1 X86.17 Y92.30 E66.47588
G1 X88.04 Y89.86 E66.78340
G1 X90.12 Y87.59 E67.09114
G0 F4500 X93.93 Y91.42
;TYPE:WALL-OUTER
G1 F1800 X95.86 Y89.66 E67.35239
G1 X97.92 Y88.08 E67.61131
G1 X100.12 Y86.68 E67.87213
G1 X102.40 Y85.50 E68.12940
G1 X104.83 Y84.49 E68.39286
G1 X107.34 Y83.70 E68.65566
G1 X109.79 Y83.16 E68.90657
G1 X112.39 Y82.82 E69.16832
G1 X114.99 Y82.70 E69.42848
G1 X115.04 Y82.70 E69.43378
G1 X117.60 Y82.82 E69.68963
G1 X120.24 Y83.17 E69.95616
G1 X122.69 Y83.71 E70.20724
G1 X125.16 Y84.49 E70.46678
G1 X127.61 Y85.50 E70.73171
G1 X129.91 Y86.70 E70.99122
G1 X132.10 Y88.10 E71.25071
G1 X134.17 Y89.69 E71.51180
G1 X136.08 Y91.43 E71.77042
G1 X137.84 Y93.36 E72.03168
G1 X139.42 Y95.42 E72.29101
G1 X140.82 Y97.62 E72.55142
G1 X142.00 Y99.90 E72.80838
G1 X143.01 Y102.32 E73.07108
G1 X143.79 Y104.82 E73.33261
G1 X144.35 Y107.34 E73.59030
G1 X144.68 Y109.89 E73.84801
G1 X144.80 Y112.50 E74.10916
G1 X144.68 Y115.12 E74.37182
G1 X144.35 Y117.68 E74.62984
G1 X143.78 Y120.22 E74.88941
G1 X143.00 Y122.70 E75.15036
G1 X142.00 Y125.12 E75.41147
G1 X140.80 Y127.41 E75.67054
G1 X139.40 Y129.60 E75.93002
G1 X137.81 Y131.67 E76.19112
G1 X136.07 Y133.58 E76.44974
G1 X134.14 Y135.34 E76.71099
G1 X132.08 Y136.92 E76.96991
G1 X129.88 Y138.32 E77.23051
G1 X127.60 Y139.51 E77.48800
G1 X125.18 Y140.51 E77.75039
G1 X122.68 Y141.29 E78.01160
G1 X120.16 Y141.85 E78.26960
G1 X117.61 Y142.18 E78.52762
G1 X114.99 Y142.30 E78.78937
G1 X112.38 Y142.18 E79.05113
G1 X109.82 Y141.85 E79.30914
G1 X107.28 Y141.28 E79.56894
G1 X104.80 Y140.50 E79.82967
G1 X102.38 Y139.50 E80.09077
G1 X100.08 Y138.30 E80.35006
G1 X97.90 Y136.90 E80.60933
G1 X95.83 Y135.31 E80.87042
G1 X93.92 Y133.57 E81.12904
G1 X92.16 Y131.64 E81.39029
G1 X90.58 Y129.58 E81.64963
G1 X89.18 Y127.38 E81.91004
G1 X88.00 Y125.10 E82.16731
G1 X86.99 Y122.68 E82.42969
G1 X86.21 Y120.18 E82.69122
G1 X85.65 Y117.66 E82.94891
G1 X85.32 Y115.11 E83.20692
G1 X85.20 Y112.50 E83.46778
G1 X85.32 Y109.87 E83.73074
G1 X85.65 Y107.32 E83.98845
G1 X86.22 Y104.78 E84.24803
G1 X87.00 Y102.30 E84.50898
G1 X88.00 Y99.88 E84.77040
G1 X89.20 Y97.59 E85.02916
G1 X90.60 Y95.40 E85.28864
G1 X92.19 Y93.33 E85.54974
G1 X93.93 Y91.42 E85.80836
;LAYER:1
M106 S12
G0 F15000 X93.88 Y91.48 Z0.50
;TYPE:WALL-OUTER
G1 F1800 X95.90 Y89.63 E86.08178
G1 X97.93 Y88.07 E86.33777
G1 X100.13 Y86.68 E86.59824
G1 X102.46 Y85.47 E86.86030
G1 X104.89 Y84.47 E87.12401
G1 X107.46 Y83.67 E87.39300
G1 X109.87 Y83.14 E87.63944
G1 X112.33 Y82.82 E87.88697
G1 X115.00 Y82.70 E88.15415
G1 X115.14 Y82.70 E88.16815
G1 X117.76 Y82.83 E88.43067
G1 X120.04 Y83.13 E88.66054
G1 X120.39 Y83.20 E88.69615
G1 X122.65 Y83.70 E88.92807
G1 X125.23 Y84.51 E89.19843
G1 X127.65 Y85.52 E89.46106
G1 X129.96 Y86.73 E89.72098
G1 X132.12 Y88.11 E89.97753
G1 X134.19 Y89.71 E90.23945
G1 X136.02 Y91.38 E90.48752
G1 X137.87 Y93.40 E90.76095
G1 X139.43 Y95.43 E91.01744
G1 X140.82 Y97.63 E91.27741
G1 X142.03 Y99.96 E91.53991
G1 X143.02 Y102.36 E91.79995
G1 X143.77 Y104.76 E92.05097
G1 X144.35 Y107.36 E92.31701
G1 X144.69 Y109.94 E92.57738
G1 X144.80 Y112.51 E92.83473
G1 X144.68 Y115.17 E93.10111
G1 X144.34 Y117.70 E93.35591
G1 X143.77 Y120.25 E93.61706
G1 X142.98 Y122.74 E93.87832
G1 X141.98 Y125.15 E94.14025
G1 X140.77 Y127.46 E94.40017
G1 X139.39 Y129.62 E94.65672
G1 X137.79 Y131.69 E94.91864
G1 X136.12 Y133.52 E95.16671
G1 X134.10 Y135.37 E95.44014
G1 X132.07 Y136.93 E95.69613
G1 X129.87 Y138.32 E95.95660
G1 X127.54 Y139.53 E96.21865
G1 X125.14 Y140.52 E96.47914
G1 X122.74 Y141.27 E96.72994
G1 X120.14 Y141.85 E96.99619
G1 X117.56 Y142.19 E97.25677
G1 X115.00 Y142.30 E97.51351
G1 X112.33 Y142.18 E97.78029
G1 X109.80 Y141.84 E98.03509
G1 X107.25 Y141.27 E98.29624
G1 X104.76 Y140.48 E98.55751
G1 X102.35 Y139.48 E98.81944
G1 X100.04 Y138.27 E99.07949
G1 X97.88 Y136.89 E99.33590
G1 X95.81 Y135.29 E99.59782
G1 X93.98 Y133.62 E99.84596
G1 X92.13 Y131.60 E100.11931
G1 X90.57 Y129.57 E100.37580
G1 X89.18 Y127.37 E100.63577
G1 X87.97 Y125.04 E100.89827
G1 X86.98 Y122.64 E101.15831
G1 X86.22 Y120.24 E101.40934
G1 X85.65 Y117.64 E101.67537
G1 X85.31 Y115.06 E101.93594
G1 X85.20 Y112.49 E102.19309
G1 X85.32 Y109.83 E102.45977
G1 X85.66 Y107.30 E102.71427
G1 X86.22 Y104.75 E102.97543
G1 X87.02 Y102.26 E103.23669
G1 X88.02 Y99.84 E103.49903
G1 X89.23 Y97.54 E103.75854
G1 X90.61 Y95.38 E104.01509
G1 X92.21 Y93.31 E104.27701
G1 X93.88 Y91.48 E104.52508
;LAYER:2
M106 S25
G0 F15000 X93.92 Y91.43 Z0.75
;TYPE:WALL-OUTER
G1 F1800 X95.86 Y89.66 E104.78796
G1 X97.94 Y88.07 E105.05003
G1 X100.15 Y86.67 E105.31161
G1 X102.49 Y85.46 E105.57451
G1 X104.96 Y84.45 E105.84162
G1 X107.60 Y83.64 E106.11779
G1 X109.91 Y83.14 E106.35410
G1 X112.54 Y82.80 E106.61962
G1 X114.99 Y82.70 E106.86474
G1 X115.23 Y82.70 E106.88865
G1 X117.84 Y82.84 E107.15031
G1 X119.96 Y83.12 E107.36333
G1 X122.63 Y83.69 E107.63667
G1 X125.08 Y84.46 E107.89393
G1 X127.69 Y85.54 E108.17567
G1 X129.93 Y86.71 E108.42825
G1 X132.06 Y88.07 E108.68095
G1 X132.13 Y88.12 E108.69035
G1 X134.21 Y89.72 E108.95245
G1 X136.07 Y91.42 E109.20420
G1 X137.84 Y93.36 E109.46708
G1 X139.43 Y95.44 E109.72915
G1 X140.83 Y97.65 E109.99073
G1 X142.04 Y99.99 E110.25408
G1 X143.04 Y102.41 E110.51540
G1 X143.81 Y104.92 E110.77811
G1 X144.35 Y107.38 E111.02989
G1 X144.69 Y109.97 E111.29125
G1 X144.80 Y112.50 E111.54469
G1 X144.67 Y115.22 E111.81659
G1 X144.34 Y117.71 E112.06847
G1 X143.77 Y120.26 E112.32991
G1 X143.01 Y122.68 E112.58330
G1 X141.96 Y125.19 E112.85531
G1 X140.79 Y127.43 E113.10745
G1 X139.43 Y129.56 E113.36014
G1 X139.38 Y129.63 E113.36954
G1 X137.78 Y131.71 E113.63165
G1 X136.08 Y133.57 E113.88340
G1 X134.14 Y135.34 E114.14627
G1 X132.06 Y136.93 E114.40763
G1 X129.85 Y138.33 E114.66993
G1 X127.51 Y139.54 E114.93283
G1 X125.09 Y140.54 E115.19459
G1 X122.59 Y141.31 E115.45677
G1 X120.12 Y141.85 E115.70908
G1 X117.53 Y142.19 E115.97064
G1 X115.00 Y142.30 E116.22388
G1 X112.28 Y142.17 E116.49578
G1 X109.79 Y141.84 E116.74766
G1 X107.23 Y141.27 E117.00951
G1 X104.82 Y140.51 E117.26249
G1 X102.31 Y139.46 E117.53450
G1 X100.07 Y138.29 E117.78664
G1 X97.94 Y136.93 E118.03933
G1 X97.87 Y136.88 E118.04873
G1 X95.79 Y135.28 E118.31084
G1 X93.93 Y133.58 E118.56259
G1 X92.16 Y131.64 E118.82546
G1 X90.57 Y129.56 E119.08753
G1 X89.17 Y127.35 E119.34912
G1 X87.96 Y125.01 E119.61246
G1 X86.96 Y122.59 E119.87378
G1 X86.19 Y120.08 E120.13649
G1 X85.64 Y117.62 E120.38828
G1 X85.31 Y115.03 E120.64983
G1 X85.20 Y112.50 E120.90307
G1 X85.33 Y109.78 E121.17527
G1 X85.66 Y107.29 E121.42686
G1 X86.23 Y104.74 E121.68829
G1 X87.00 Y102.32 E121.94168
G1 X88.04 Y99.81 E122.21401
G1 X89.21 Y97.57 E122.46583
G1 X90.57 Y95.44 E122.71853
G1 X90.62 Y95.37 E122.72793
G1 X92.22 Y93.29 E122.99003
G1 X93.92 Y91.43 E123.24178
;LAYER:3
M106 S38
G0 F15000 X94.03 Y91.33 Z1.00
;TYPE:WALL-OUTER
G1 F1800 X95.96 Y89.58 E123.50302
G1 X97.96 Y88.06 E123.75357
G1 X100.18 Y86.65 E124.01724
G1 X102.39 Y85.50 E124.26543
G1 X105.04 Y84.42 E124.55215
G1 X107.40 Y83.69 E124.79941
G1 X109.94 Y83.13 E125.05965
G1 X112.21 Y82.83 E125.28864
G1 X114.98 Y82.70 E125.56565
G1 X117.94 Y82.85 E125.86204
G1 X119.94 Y83.12 E126.06407
G1 X122.58 Y83.68 E126.33351
G1 X125.03 Y84.44 E126.59053
G1 X127.72 Y85.56 E126.88178
G1 X129.94 Y86.71 E127.13132
G1 X132.04 Y88.06 E127.38108
G1 X132.15 Y88.13 E127.39428
G1 X134.22 Y89.73 E127.65621
G1 X136.17 Y91.53 E127.92087
G1 X137.92 Y93.46 E128.18211
G1 X139.44 Y95.46 E128.43266
G1 X140.85 Y97.68 E128.69633
G1 X142.00 Y99.89 E128.94443
G1 X143.05 Y102.44 E129.22109
G1 X143.76 Y104.71 E129.45867
G1 X144.36 Y107.40 E129.73402
G1 X144.69 Y110.00 E129.99596
G1 X144.80 Y112.50 E130.24639
G1 X144.67 Y115.26 E130.52301
G1 X144.34 Y117.73 E130.77190
G1 X143.76 Y120.29 E131.03410
G1 X142.96 Y122.81 E131.29874
G1 X141.95 Y125.22 E131.55987
G1 X140.79 Y127.44 E131.81044
G1 X139.44 Y129.54 E132.06019
G1 X139.37 Y129.65 E132.07340
G1 X137.77 Y131.72 E132.33533
G1 X135.97 Y133.67 E132.59985
G1 X134.04 Y135.42 E132.86123
G1 X132.05 Y136.94 E133.11106
G1 X129.82 Y138.35 E133.37523
G1 X127.61 Y139.50 E133.62387
G1 X125.06 Y140.55 E133.90021
G1 X122.79 Y141.26 E134.13757
G1 X120.10 Y141.86 E134.41314
G1 X117.50 Y142.19 E134.67508
G1 X115.00 Y142.30 E134.92551
G1 X112.24 Y142.17 E135.20213
G1 X109.77 Y141.84 E135.45101
G1 X107.21 Y141.26 E135.71343
G1 X104.69 Y140.46 E135.97785
G1 X102.28 Y139.45 E136.23929
G1 X100.06 Y138.29 E136.48955
G1 X97.96 Y136.94 E136.73931
G1 X97.85 Y136.87 E136.75251
G1 X95.78 Y135.27 E137.01458
G1 X93.83 Y133.47 E137.27910
