;FLAVOR:UltiGCode
;TIME:1576      
;MATERIAL:1134      
;MATERIAL2:0         

;Layer count: 150
;LAYER:0
M107
G0 F9000 X108.94 Y106.81 Z0.30
G0 X108.94 Y106.81
;TYPE:SKIRT
G11
G0 F9000 X112.30 Y109.97
G92 E30
G1 F540 X112.64 Y109.65 E30.44650
G1 X113.02 Y109.38 E30.48356
G1 X113.42 Y109.16 E30.52019
G1 X113.86 Y108.98 E30.55779
G1 X114.31 Y108.87 E30.59527
G1 X114.77 Y108.81 E30.63181
G1 X115.23 Y108.81 E30.66941
G1 X115.69 Y108.87 E30.70594
G1 X116.14 Y108.98 E30.74343
G1 X116.58 Y109.16 E30.78103
G1 X116.98 Y109.38 E30.81766
G1 X117.36 Y109.65 E30.85472
G1 X117.70 Y109.97 E30.89213
G1 X117.99 Y110.33 E30.92946
G1 X118.24 Y110.72 E30.96657
G1 X118.44 Y111.14 E31.00378
G1 X118.58 Y111.58 E31.04097
G1 X118.67 Y112.03 E31.07753
G1 X118.70 Y112.51 E31.11561
G1 X118.67 Y112.97 E31.15313
G1 X118.58 Y113.42 E31.18970
G1 X118.44 Y113.86 E31.22664
G1 X118.24 Y114.29 E31.26436
G1 X117.99 Y114.68 E31.30122
G1 X117.69 Y115.04 E31.33854
G1 X117.35 Y115.36 E31.37596
G1 X116.98 Y115.62 E31.41244
G1 X116.57 Y115.85 E31.45025
G1 X116.14 Y116.02 E31.48676
G1 X115.69 Y116.13 E31.52425
G1 X115.23 Y116.19 E31.56079
G1 X114.76 Y116.19 E31.59871
G1 X114.31 Y116.13 E31.63533
G1 X113.85 Y116.02 E31.67307
G1 X113.42 Y115.84 E31.71048
G1 X113.02 Y115.62 E31.74675
G1 X112.63 Y115.34 E31.78494
G1 X112.30 Y115.03 E31.82111
G1 X112.00 Y114.67 E31.85889
G1 X111.76 Y114.28 E31.89596
G1 X111.56 Y113.85 E31.93336
G1 X111.42 Y113.41 E31.97032
G1 X111.33 Y112.97 E32.00649
G1 X111.30 Y112.50 E32.04408
G1 X111.33 Y112.03 E32.08168
G1 X111.42 Y111.58 E32.11824
G1 X111.56 Y111.14 E32.15543
G1 X111.76 Y110.72 E32.19265
G1 X112.01 Y110.33 E32.22975
G1 X112.30 Y109.97 E32.26708
;LAYER:2
G0 F9000 X112.30 Y109.97 Z0.70
;TYPE:WALL-OUTER
G1 F540 X112.64 Y109.65 E32.30449
G1 X113.01 Y109.38 E32.34046
G1 X113.42 Y109.15 E32.37849
G1 X113.86 Y108.98 E32.41576
G1 X114.31 Y108.87 E32.45325
G1 X114.77 Y108.81 E32.48979
G1 X115.23 Y108.81 E32.52739
G1 X115.69 Y108.87 E32.56392
G1 X116.14 Y108.98 E32.60141
G1 X116.58 Y109.16 E32.63901
G1 X116.98 Y109.38 E32.67564
G1 X117.35 Y109.64 E32.71179
G1 X117.70 Y109.97 E32.75011
G1 X117.99 Y110.33 E32.78743
G1 X118.24 Y110.72 E32.82454
G1 X118.44 Y111.14 E32.86176
G1 X118.58 Y111.58 E32.89895
G1 X118.67 Y112.03 E32.93559
G1 X118.70 Y112.51 E32.97374
G1 X118.67 Y112.97 E33.01118
G1 X118.58 Y113.43 E33.04794
G1 X118.44 Y113.86 E33.08480
G1 X118.23 Y114.29 E33.12269
G1 X117.99 Y114.68 E33.15920
G1 X117.69 Y115.04 E33.19680
G1 X117.35 Y115.36 E33.23416
G1 X116.98 Y115.62 E33.27060
G1 X116.56 Y115.85 E33.30840
G1 X116.13 Y116.02 E33.34539
G1 X115.69 Y116.13 E33.38222
G1 X115.23 Y116.19 E33.41876
G1 X114.76 Y116.19 E33.45692
G1 X114.30 Y116.13 E33.49354
G1 X113.85 Y116.02 E33.53128
G1 X113.42 Y115.84 E33.56833
G1 X113.01 Y115.62 E33.60522
G1 X112.63 Y115.34 E33.64319
G1 X112.30 Y115.03 E33.67969
G1 X112.00 Y114.67 E33.71674
G1 X111.75 Y114.27 E33.75416
G1 X111.56 Y113.85 E33.79138
G1 X111.42 Y113.42 E33.82804
G1 X111.33 Y112.97 E33.86444
G1 X111.30 Y112.50 E33.90235
G1 X111.33 Y112.03 E33.93963
G1 X111.42 Y111.58 E33.97619
G1 X111.56 Y111.14 E34.01338
G1 X111.76 Y110.72 E34.05060
G1 X112.01 Y110.33 E34.08771
G1 X112.30 Y109.97 E34.12503
M107
G10
G0 F9000 X112.30 Y135.15 Z35.00
M25 ;Stop reading from this point on.
;CURA_PROFILE_STRING:eNrtWFFv2zYQfjWC/Yh73LDGk2Q7aWvopV2Sl3UokAxL8yLQEm1zkUSBpGI7gf/7PpKSLCfO1q4BtgH1QxId74533313JydnG66SJReLpYmDYTRYsTxPzFKktyXXGqLxQHGjWGqELBNeslnO4ytV84GWuciS3DnYGQxPBnMBFxkvtTCbOAyCQSnv73OeaHHPncNKidIkuuI8i08nzaPhRcUVM7XicRQFT6VRfEA4OiQcd8IZz/YcnwYDXVeVVCb+VZZ8UOXMzKUqEpYtuUaGXtzoJFnN8oSvjard2TtploOVqHhi5Iqr+JzlmvcEyZ3M64LH4WQg5T0SXgqeZ40aUGEFR0yZwG8D82j4evJUbNN8IhwdEo77wnkuVxbsYdCvl8d4/EjKClmXJh4PJ32pS7Y5Ck/2zwpRJni443kc7p+kspiJcuEpsW8hij30EETU11jKysoGM2mMLPY4NxrI2R88BUdEeeuU5B1XOatckBAAYR9Ok2E46XnylPQHIJIoHSH9s1UTpeYmeCxY9wSplLnLuWG3QFFRKtY2QNZ0wK0ASXJRcsDgYGtEC1bFI/jxTy0UOS8XZtnEap3Na8TV9Z6/oMknCHZPScHWTtKFNYcUjAbTGuGSM7SimJuGbL43DRDutaqHx0scJA2oFqSW8WZT8fhCiayTsHKBjj/ZqThTf/ukE643oKU2rEy5S6WV3/fFgKcSiuV2Dvg4Z0oUfQBHA8XmQIyphSjjiaWtfXYaumKpZdqolc6Y5o9os5Nbk5XILN6tPgYCV3OW7htFp49Pd6Zu+tlDJpStKbQjL9B1o2sJouMIgK7BaKUE6JHUpWszO0mBZ8JazJ9XmXVToq+DPGTFy2QmjD6kgOayY/YO4Bhh0qWFx6tVeQ0EgSrIv4jbdkq5TTJZx8fhI9EGou9QKGWGi1RmPJ5e5iLlGTHzlh4yttnan4bjl+2G7dH0HdMiJTSOwa36Lf1ikSDPZpjkvcWypd+RKHQe9rfLls7BJYj7GwOuP9rZTfYenDXT3V963ow7AjSZN/Tjz8+tbdETrfzdi55VKrXpW9lneP0Qvgno8uHgytjS9LcSQ87ZG0ksy2gja0VyVRJ0qadLljnWXfCmc/e5rp64uYhCaj5TjHsFsO9YXnN9dIFo2xM2Q2/XhlMlAR4ohWIcfXgddQooELkZnKE69tLWoECVjxDqaadpq08rYZZklpwwfkjO54jjNV0H9CmwcWBi0PVPn6wjzCHiZaYxZLRTugmaYK3SzVOVkG5CdDSdP/RH97YxsFe225gyi0g4KQrkGtFZl+7uM73nSjqjJrmM/Hi195xHQUBno0cWjSKNigKJkZ2hhNDS2y+/hNiCidJdtZ8MuFsbcpVHIagAydmCkyzpl/c/k04V5yVAD0/pY6MzHA4HwKjturMyo4v3TWnGdHkgql4utt/QlMoV6kM4Dp41cHqZI+zOhL4Xc8tAWiIFEuYHIBHSZ3ymiqNUmDt7tAMcZ8eAZBQEf2Ps3gE8y9rWZIQhh/hQf9sAc4ef1fAvj68sn3Arx2wnLQtuS+g4o4Axmsbx60esHsQwoevjCJS1Pw6z7YbqqrmSAfE2oi4afsdLdIh1u6P/Xyb1XGu8QrQuULuiSWiSIEgT+4pt0Kvj551qwytMBe0b8c3zMRyeA1PMIImc7HoA3Rbbgevx6NuIf4ERP/76Ee83xVV4yFP0j1wF/+7e+a9vk6tnptv0cmVfn+wt1jLCSGgn7NdsoDA4vIHC4EVXkLvr+OHwV7nt0VXwWUnPhdLm/5T2C23e6JnVexV84fa1NuG3jf1tY7/sxm6+SPe/m3XC3Yuj/zfAnpKT9DQUx0RM+TDVd/Dgev+sIWX3QuAnwoybFdrFZZzWSjl8W/5a9F2VIemkr2i1hEHXfm7uF3VuRJV3Paz0sGl4T7zRCZ1PgiBohVcPreLWKlw/4Gt4st7SJ/cHXk9u3B/32ye9b9098vYn9wDLbw==

