; G-Code generated by Simplify3D(R) Version 3.1.0
; Sep. 19, 2016 at 11:21:16 NACHM.
; Settings Summary
;   processName,Process1
;   applyToModels,circle_50
;   profileName,PLA-1.75mm-N80-advance (modified)
;   profileVersion,2016-08-18 13:01:26
;   baseProfile,PLA-1.75mm-N80
;   printMaterial,
;   printQuality,
;   printExtruders,
;   extruderName,Primary Extruder
;   extruderToolheadNumber,0
;   extruderDiameter,0.8
;   extruderAutoWidth,0
;   extruderWidth,0.8
;   extrusionMultiplier,1
;   extruderUseRetract,0
;   extruderRetractionDistance,4.5
;   extruderExtraRestartDistance,0
;   extruderRetractionZLift,0
;   extruderRetractionSpeed,2400
;   extruderUseCoasting,0
;   extruderCoastingDistance,1
;   extruderUseWipe,0
;   extruderWipeDistance,2
;   primaryExtruder,0
;   layerHeight,0.3
;   topSolidLayers,4
;   bottomSolidLayers,2
;   perimeterOutlines,2
;   printPerimetersInsideOut,1
;   startPointOption,3
;   startPointOriginX,0
;   startPointOriginY,0
;   startPointOriginZ,200
;   sequentialIslands,0
;   spiralVaseMode,0
;   firstLayerHeightPercentage,75
;   firstLayerWidthPercentage,100
;   firstLayerUnderspeed,0.3
;   useRaft,0
;   raftExtruder,0
;   raftLayers,1
;   raftOffset,3
;   raftSeparationDistance,0.14
;   raftInfill,50
;   disableRaftBaseLayers,1
;   useSkirt,1
;   skirtExtruder,0
;   skirtLayers,1
;   skirtOutlines,2
;   skirtOffset,3
;   usePrimePillar,0
;   primePillarExtruder,999
;   primePillarWidth,12
;   primePillarLocation,7
;   primePillarSpeedMultiplier,1
;   useOozeShield,0
;   oozeShieldExtruder,999
;   oozeShieldOffset,2
;   oozeShieldOutlines,1
;   oozeShieldSidewallShape,1
;   oozeShieldSidewallAngle,30
;   oozeShieldSpeedMultiplier,1
;   infillExtruder,0
;   internalInfillPattern,Rectilinear
;   externalInfillPattern,Rectilinear
;   infillPercentage,25
;   outlineOverlapPercentage,35
;   infillExtrusionWidthPercentage,100
;   minInfillLength,3
;   infillLayerInterval,2
;   infillAngles,45,-45
;   overlapInfillAngles,0
;   generateSupport,0
;   supportExtruder,0
;   supportInfillPercentage,30
;   supportExtraInflation,0
;   denseSupportLayers,0
;   denseSupportInfillPercentage,80
;   supportLayerInterval,1
;   supportHorizontalPartOffset,0.4
;   supportUpperSeparationLayers,1
;   supportLowerSeparationLayers,1
;   supportType,0
;   supportGridSpacing,2.5
;   maxOverhangAngle,45
;   supportAngles,45
;   temperatureName,Primary Extruder,Heated Build Platform
;   temperatureNumber,0,1
;   temperatureSetpointCount,1,1
;   temperatureSetpointLayers,1,1
;   temperatureSetpointTemperatures,205,60
;   temperatureStabilizeAtStartup,1,1
;   temperatureHeatedBed,0,1
;   temperatureRelayBetweenLayers,0,0
;   temperatureRelayBetweenLoops,0,0
;   fanLayers,1,2,3,4,5
;   fanSpeeds,0,25,50,75,100
;   blipFanToFullPower,1
;   adjustSpeedForCooling,1
;   minSpeedLayerTime,5
;   minCoolingSpeedSlowdown,10
;   increaseFanForCooling,0
;   minFanLayerTime,10
;   maxCoolingFanSpeed,30
;   increaseFanForBridging,0
;   bridgingFanSpeed,45
;   use5D,1
;   relativeEdistances,0
;   allowEaxisZeroing,1
;   independentExtruderAxes,0
;   includeM10123,0
;   stickySupport,1
;   applyToolheadOffsets,0
;   gcodeXoffset,0
;   gcodeYoffset,0
;   gcodeZoffset,0
;   overrideMachineDefinition,1
;   machineTypeOverride,0
;   strokeXoverride,225
;   strokeYoverride,225
;   strokeZoverride,212
;   originOffsetXoverride,0
;   originOffsetYoverride,0
;   originOffsetZoverride,0
;   homeXdirOverride,-1
;   homeYdirOverride,-1
;   homeZdirOverride,-1
;   flipXoverride,1
;   flipYoverride,-1
;   flipZoverride,1
;   toolheadOffsets,0,0|0,0|0,0|0,0|0,0|0,0
;   overrideFirmwareConfiguration,1
;   firmwareTypeOverride,RepRap (Marlin/Repetier/Sprinter)
;   GPXconfigOverride,r2
;   baudRateOverride,250000
;   overridePrinterModels,0
;   printerModelsOverride
;   startingGcode,M907 E1400 ; increase extruder current,G28 ; home all axes,;G1 X20 Y10 F3000 ; bring extruder to front,;G92 E0 ; zero the extruded length,;G1 Z10 ; lower,;G1 E19 F200 ; purge nozzle quickly,;G1 E26 F60 ; purge nozzle slowly,;G92 E0 ; zero the extruded length again,;G1 E-5.5 F400 ; retract,;G1 X190 Z0 F9000 ; pull away filament,;G1 X210 F9000 ; wipe,;G1 Y20 F9000 ; wipe,;G1 E0 ; feed filament back
;   layerChangeGcode,
;   retractionGcode,
;   toolChangeGcode,
;   endingGcode,G28 X0 ; home the X-axis,M104 S0 ; turn off heaters,M140 S0 ; turn off bed,M84 ; disable motors,M107 ; fan off
;   exportFileFormat,gcode
;   celebration,0
;   celebrationSong,Random Song
;   postProcessing,
;   defaultSpeed,4500
;   outlineUnderspeed,1
;   solidInfillUnderspeed,1
;   supportUnderspeed,1
;   rapidXYspeed,15000
;   rapidZspeed,1998
;   minBridgingArea,5
;   bridgingExtraInflation,0
;   bridgingExtrusionMultiplier,1
;   bridgingSpeedMultiplier,0.5
;   filamentDiameter,1.75
;   filamentPricePerKg,25
;   filamentDensity,1.25
;   useMinPrintHeight,0
;   minPrintHeight,0
;   useMaxPrintHeight,0
;   maxPrintHeight,0
;   useDiaphragm,0
;   diaphragmLayerInterval,20
;   robustSlicing,1
;   mergeAllIntoSolid,0
;   onlyRetractWhenCrossingOutline,1
;   retractBetweenLayers,0
;   useRetractionMinTravel,1
;   retractionMinTravel,0.02
;   retractWhileWiping,0
;   onlyWipeOutlines,1
;   avoidCrossingOutline,0
;   maxMovementDetourFactor,3
;   toolChangeRetractionDistance,12
;   toolChangeExtraRestartDistance,-0.5
;   toolChangeRetractionSpeed,600
;   allowThinWallGapFill,1
;   thinWallAllowedOverlapPercentage,10
;   horizontalSizeCompensation,0
G90
M82
M106 S0
M140 S60
M190 S60
M104 S205 T0
M109 S205 T0
M907 E1400 ; increase extruder current
G28 ; home all axes
;G1 X20 Y10 F3000 ; bring extruder to front
;G92 E0 ; zero the extruded length
;G1 Z10 ; lower
;G1 E19 F200 ; purge nozzle quickly
;G1 E26 F60 ; purge nozzle slowly
;G92 E0 ; zero the extruded length again
;G1 E-5.5 F400 ; retract
;G1 X190 Z0 F9000 ; pull away filament
;G1 X210 F9000 ; wipe
;G1 Y20 F9000 ; wipe
;G1 E0 ; feed filament back
G92 E0
G1 E-4.5000 F2400
G1 Z0.225 F1998
; layer 1, Z = 0.225
T0
; tool H0.300 W0.800
; skirt
G1 X40.720 Y120.631 F15000
G1 E0.0000 F720
G92 E0
G1 X40.833 Y120.596 E0.0118 F1350
G1 X40.852 Y120.591 E0.0138
G1 X42.890 Y120.033 E0.2246
G1 X42.909 Y120.028 E0.2266
G1 X43.024 Y120.000 E0.2384
G1 X43.043 Y119.996 E0.2403
G1 X44.617 Y119.674 E0.4006
G1 X44.633 Y119.671 E0.4023
G1 X44.733 Y119.654 E0.4124
G1 X44.750 Y119.651 E0.4141
G1 X46.331 Y119.420 E0.5735
G1 X46.348 Y119.417 E0.5752
G1 X46.448 Y119.406 E0.5853
G1 X46.465 Y119.404 E0.5870
G1 X48.048 Y119.262 E0.7456
G1 X48.062 Y119.261 E0.7470
G1 X48.146 Y119.256 E0.7554
G1 X48.160 Y119.255 E0.7568
G1 X49.241 Y119.209 E0.8648
G1 X49.255 Y119.209 E0.8662
G1 X49.340 Y119.207 E0.8746
G1 X49.354 Y119.207 E0.8760
G1 X50.943 Y119.215 E1.0346
G1 X50.960 Y119.215 E1.0363
G1 X51.061 Y119.218 E1.0464
G1 X51.078 Y119.219 E1.0481
G1 X52.665 Y119.316 E1.2067
G1 X52.679 Y119.317 E1.2081
G1 X52.763 Y119.324 E1.2165
G1 X52.777 Y119.325 E1.2179
G1 X53.853 Y119.442 E1.3259
G1 X53.867 Y119.444 E1.3273
G1 X53.950 Y119.455 E1.3357
G1 X53.964 Y119.457 E1.3371
G1 X55.526 Y119.700 E1.4948
G1 X55.540 Y119.703 E1.4963
G1 X55.623 Y119.717 E1.5047
G1 X55.637 Y119.720 E1.5061
G1 X56.697 Y119.937 E1.6141
G1 X56.711 Y119.940 E1.6155
G1 X56.793 Y119.959 E1.6239
G1 X56.807 Y119.962 E1.6253
G1 X58.347 Y120.353 E1.7839
G1 X58.364 Y120.357 E1.7856
G1 X58.461 Y120.385 E1.7957
G1 X58.477 Y120.390 E1.7974
G1 X59.994 Y120.867 E1.9559
G1 X60.007 Y120.871 E1.9573
G1 X60.087 Y120.898 E1.9658
G1 X60.100 Y120.903 E1.9672
G1 X61.116 Y121.276 E2.0751
G1 X61.129 Y121.281 E2.0766
G1 X61.208 Y121.312 E2.0850
G1 X61.221 Y121.317 E2.0864
G1 X62.685 Y121.934 E2.2450
G1 X62.701 Y121.941 E2.2466
G1 X62.793 Y121.982 E2.2567
G1 X62.808 Y121.990 E2.2584
G1 X64.236 Y122.688 E2.4170
G1 X64.249 Y122.694 E2.4184
G1 X64.324 Y122.733 E2.4269
G1 X64.336 Y122.740 E2.4283
G1 X65.278 Y123.256 E2.5354
G1 X65.287 Y123.262 E2.5365
G1 X65.346 Y123.295 E2.5432
G1 X65.355 Y123.301 E2.5444
G1 X66.277 Y123.852 E2.6515
G1 X66.289 Y123.859 E2.6529
G1 X66.360 Y123.904 E2.6613
G1 X66.372 Y123.912 E2.6627
G1 X67.689 Y124.787 E2.8205
G1 X67.701 Y124.795 E2.8219
G1 X67.770 Y124.843 E2.8303
G1 X67.781 Y124.851 E2.8317
G1 X68.654 Y125.491 E2.9397
G1 X68.665 Y125.500 E2.9411
G1 X68.732 Y125.551 E2.9495
G1 X68.743 Y125.560 E2.9509
G1 X69.979 Y126.559 E3.1095
G1 X69.992 Y126.570 E3.1112
G1 X70.069 Y126.636 E3.1213
G1 X70.082 Y126.647 E3.1230
G1 X71.266 Y127.720 E3.2824
G1 X71.278 Y127.731 E3.2841
G1 X71.351 Y127.801 E3.2942
G1 X71.363 Y127.813 E3.2958
G1 X72.478 Y128.944 E3.4543
G1 X72.490 Y128.956 E3.4560
G1 X72.558 Y129.030 E3.4660
G1 X72.570 Y129.042 E3.4677
G1 X73.621 Y130.234 E3.6263
G1 X73.630 Y130.245 E3.6277
G1 X73.684 Y130.310 E3.6361
G1 X73.693 Y130.321 E3.6375
G1 X74.370 Y131.165 E3.7455
G1 X74.378 Y131.176 E3.7469
G1 X74.430 Y131.243 E3.7553
G1 X74.438 Y131.254 E3.7567
G1 X75.373 Y132.540 E3.9153
G1 X75.382 Y132.554 E3.9170
G1 X75.439 Y132.637 E3.9271
G1 X75.449 Y132.651 E3.9288
G1 X76.314 Y133.994 E4.0882
G1 X76.323 Y134.009 E4.0899
G1 X76.376 Y134.095 E4.1000
G1 X76.384 Y134.110 E4.1017
G1 X77.169 Y135.492 E4.2603
G1 X77.175 Y135.504 E4.2617
G1 X77.215 Y135.579 E4.2701
G1 X77.222 Y135.591 E4.2715
G1 X77.707 Y136.549 E4.3786
G1 X77.712 Y136.559 E4.3798
G1 X77.742 Y136.620 E4.3865
G1 X77.747 Y136.630 E4.3876
G1 X78.196 Y137.605 E4.4947
G1 X78.202 Y137.618 E4.4962
G1 X78.235 Y137.696 E4.5046
G1 X78.241 Y137.709 E4.5060
G1 X78.834 Y139.174 E4.6637
G1 X78.839 Y139.187 E4.6651
G1 X78.869 Y139.266 E4.6736
G1 X78.874 Y139.279 E4.6750
G1 X79.233 Y140.300 E4.7829
G1 X79.237 Y140.314 E4.7844
G1 X79.263 Y140.394 E4.7928
G1 X79.268 Y140.407 E4.7942
G1 X79.724 Y141.930 E4.9528
G1 X79.728 Y141.946 E4.9544
G1 X79.754 Y142.044 E4.9645
G1 X79.759 Y142.060 E4.9662
G1 X80.128 Y143.606 E5.1248
G1 X80.132 Y143.619 E5.1262
G1 X80.149 Y143.702 E5.1346
G1 X80.152 Y143.716 E5.1361
G1 X80.353 Y144.771 E5.2432
G1 X80.355 Y144.782 E5.2443
G1 X80.366 Y144.848 E5.2510
G1 X80.368 Y144.859 E5.2522
G1 X80.529 Y145.921 E5.3593
G1 X80.531 Y145.935 E5.3607
G1 X80.541 Y146.019 E5.3691
G1 X80.543 Y146.032 E5.3705
G1 X80.707 Y147.613 E5.5291
G1 X80.709 Y147.630 E5.5308
G1 X80.716 Y147.731 E5.5409
G1 X80.717 Y147.748 E5.5426
G1 X80.793 Y149.344 E5.7020
G1 X80.793 Y149.361 E5.7037
G1 X80.795 Y149.462 E5.7138
G1 X80.795 Y149.479 E5.7155
G1 X80.781 Y151.068 E5.8741
G1 X80.781 Y151.082 E5.8755
G1 X80.778 Y151.167 E5.8839
G1 X80.777 Y151.181 E5.8853
G1 X80.717 Y152.261 E5.9933
G1 X80.716 Y152.275 E5.9947
G1 X80.709 Y152.359 E6.0031
G1 X80.708 Y152.373 E6.0045
G1 X80.545 Y153.954 E6.1631
G1 X80.543 Y153.971 E6.1648
G1 X80.530 Y154.072 E6.1749
G1 X80.527 Y154.088 E6.1766
G1 X80.275 Y155.658 E6.3352
G1 X80.273 Y155.671 E6.3366
G1 X80.258 Y155.754 E6.3450
G1 X80.255 Y155.768 E6.3464
G1 X80.034 Y156.828 E6.4544
G1 X80.031 Y156.841 E6.4558
G1 X80.011 Y156.924 E6.4642
G1 X80.008 Y156.937 E6.4656
G1 X79.611 Y158.476 E6.6242
G1 X79.606 Y158.492 E6.6259
G1 X79.578 Y158.589 E6.6360
G1 X79.573 Y158.606 E6.6376
G1 X79.090 Y160.120 E6.7962
G1 X79.085 Y160.133 E6.7976
G1 X79.058 Y160.213 E6.8061
G1 X79.053 Y160.226 E6.8075
G1 X78.676 Y161.240 E6.9155
G1 X78.671 Y161.254 E6.9169
G1 X78.639 Y161.332 E6.9253
G1 X78.634 Y161.345 E6.9267
G1 X78.011 Y162.807 E7.0853
G1 X78.004 Y162.823 E7.0870
G1 X77.962 Y162.915 E7.0971
G1 X77.954 Y162.930 E7.0987
G1 X77.250 Y164.354 E7.2573
G1 X77.244 Y164.367 E7.2587
G1 X77.205 Y164.442 E7.2671
G1 X77.198 Y164.454 E7.2685
G1 X76.677 Y165.393 E7.3757
G1 X76.672 Y165.403 E7.3768
G1 X76.638 Y165.461 E7.3836
G1 X76.632 Y165.471 E7.3847
G1 X76.077 Y166.390 E7.4918
G1 X76.069 Y166.402 E7.4932
G1 X76.024 Y166.473 E7.5017
G1 X76.016 Y166.485 E7.5031
G1 X75.136 Y167.798 E7.6608
G1 X75.128 Y167.810 E7.6622
G1 X75.080 Y167.879 E7.6706
G1 X75.072 Y167.890 E7.6720
G1 X74.428 Y168.760 E7.7800
G1 X74.419 Y168.771 E7.7814
G1 X74.367 Y168.838 E7.7898
G1 X74.358 Y168.849 E7.7912
G1 X73.354 Y170.080 E7.9498
G1 X73.343 Y170.093 E7.9515
G1 X73.277 Y170.170 E7.9616
G1 X73.266 Y170.183 E7.9633
G1 X72.193 Y171.356 E8.1219
G1 X72.184 Y171.366 E8.1233
G1 X72.125 Y171.427 E8.1317
G1 X72.115 Y171.437 E8.1331
G1 X71.342 Y172.208 E8.2421
G1 X71.331 Y172.218 E8.2435
G1 X71.270 Y172.276 E8.2520
G1 X71.259 Y172.286 E8.2534
G1 X70.088 Y173.347 E8.4111
G1 X70.077 Y173.357 E8.4125
G1 X70.014 Y173.412 E8.4209
G1 X70.003 Y173.421 E8.4224
G1 X69.168 Y174.109 E8.5303
G1 X69.157 Y174.118 E8.5317
G1 X69.090 Y174.170 E8.5402
G1 X69.079 Y174.179 E8.5416
G1 X67.813 Y175.126 E8.6993
G1 X67.802 Y175.134 E8.7007
G1 X67.733 Y175.183 E8.7092
G1 X67.721 Y175.191 E8.7106
G1 X66.833 Y175.793 E8.8177
G1 X66.823 Y175.800 E8.8188
G1 X66.767 Y175.836 E8.8256
G1 X66.757 Y175.842 E8.8267
G1 X65.846 Y176.411 E8.9338
G1 X65.834 Y176.418 E8.9352
G1 X65.762 Y176.461 E8.9436
G1 X65.750 Y176.468 E8.9450
G1 X64.363 Y177.246 E9.1036
G1 X64.349 Y177.254 E9.1053
G1 X64.259 Y177.301 E9.1154
G1 X64.244 Y177.308 E9.1171
G1 X62.808 Y178.010 E9.2765
G1 X62.793 Y178.017 E9.2782
G1 X62.701 Y178.059 E9.2883
G1 X62.685 Y178.066 E9.2900
G1 X61.221 Y178.683 E9.4486
G1 X61.208 Y178.688 E9.4500
G1 X61.129 Y178.719 E9.4584
G1 X61.116 Y178.724 E9.4598
G1 X60.100 Y179.097 E9.5678
G1 X60.087 Y179.102 E9.5692
G1 X60.007 Y179.129 E9.5776
G1 X59.994 Y179.133 E9.5790
G1 X58.477 Y179.610 E9.7376
G1 X58.461 Y179.615 E9.7393
G1 X58.364 Y179.643 E9.7494
G1 X58.347 Y179.647 E9.7511
G1 X56.807 Y180.038 E9.9097
G1 X56.793 Y180.041 E9.9111
G1 X56.711 Y180.060 E9.9195
G1 X56.697 Y180.063 E9.9209
G1 X55.645 Y180.278 E10.0280
G1 X55.634 Y180.280 E10.0292
G1 X55.568 Y180.293 E10.0359
G1 X55.557 Y180.295 E10.0370
G1 X54.497 Y180.470 E10.1442
G1 X54.483 Y180.472 E10.1456
G1 X54.400 Y180.484 E10.1540
G1 X54.386 Y180.486 E10.1554
G1 X52.808 Y180.672 E10.3140
G1 X52.791 Y180.673 E10.3156
G1 X52.690 Y180.682 E10.3257
G1 X52.673 Y180.684 E10.3274
G1 X51.078 Y180.781 E10.4869
G1 X51.061 Y180.782 E10.4885
G1 X50.960 Y180.785 E10.4987
G1 X50.943 Y180.785 E10.5003
G1 X49.354 Y180.793 E10.6589
G1 X49.340 Y180.793 E10.6603
G1 X49.255 Y180.791 E10.6688
G1 X49.241 Y180.791 E10.6702
G1 X48.160 Y180.745 E10.7781
G1 X48.146 Y180.744 E10.7795
G1 X48.062 Y180.739 E10.7880
G1 X48.048 Y180.738 E10.7894
G1 X46.465 Y180.596 E10.9480
G1 X46.448 Y180.594 E10.9496
G1 X46.348 Y180.583 E10.9597
G1 X46.331 Y180.580 E10.9614
G1 X44.758 Y180.350 E11.1200
G1 X44.744 Y180.348 E11.1214
G1 X44.661 Y180.334 E11.1298
G1 X44.647 Y180.331 E11.1313
G1 X43.585 Y180.125 E11.2392
G1 X43.571 Y180.122 E11.2406
G1 X43.489 Y180.104 E11.2490
G1 X43.475 Y180.100 E11.2504
G1 X41.939 Y179.726 E11.4082
G1 X41.926 Y179.723 E11.4096
G1 X41.844 Y179.701 E11.4180
G1 X41.831 Y179.697 E11.4194
G1 X40.792 Y179.392 E11.5274
G1 X40.779 Y179.387 E11.5288
G1 X40.698 Y179.362 E11.5372
G1 X40.685 Y179.357 E11.5386
G1 X39.183 Y178.838 E11.6972
G1 X39.167 Y178.832 E11.6989
G1 X39.072 Y178.796 E11.7090
G1 X39.057 Y178.790 E11.7107
G1 X37.586 Y178.187 E11.8693
G1 X37.573 Y178.182 E11.8707
G1 X37.496 Y178.148 E11.8791
G1 X37.483 Y178.142 E11.8805
G1 X36.502 Y177.685 E11.9885
G1 X36.490 Y177.679 E11.9899
G1 X36.414 Y177.641 E11.9983
G1 X36.401 Y177.635 E11.9997
G1 X34.994 Y176.897 E12.1583
G1 X34.979 Y176.889 E12.1600
G1 X34.891 Y176.839 E12.1701
G1 X34.876 Y176.831 E12.1718
G1 X33.512 Y176.015 E12.3304
G1 X33.500 Y176.007 E12.3318
G1 X33.429 Y175.962 E12.3402
G1 X33.417 Y175.955 E12.3416
G1 X32.515 Y175.356 E12.4496
G1 X32.504 Y175.348 E12.4510
G1 X32.434 Y175.300 E12.4594
G1 X32.423 Y175.292 E12.4608
G1 X31.148 Y174.357 E12.6185
G1 X31.137 Y174.348 E12.6199
G1 X31.070 Y174.297 E12.6284
G1 X31.059 Y174.288 E12.6298
G1 X30.218 Y173.607 E12.7378
G1 X30.207 Y173.599 E12.7391
G1 X30.143 Y173.544 E12.7476
G1 X30.132 Y173.535 E12.7490
G1 X28.951 Y172.484 E12.9067
G1 X28.940 Y172.475 E12.9081
G1 X28.878 Y172.417 E12.9165
G1 X28.868 Y172.408 E12.9179
G1 X28.094 Y171.651 E13.0259
G1 X28.084 Y171.641 E13.0273
G1 X28.025 Y171.581 E13.0357
G1 X28.016 Y171.571 E13.0371
G1 X26.938 Y170.415 E13.1948
G1 X26.927 Y170.403 E13.1964
G1 X26.861 Y170.327 E13.2065
G1 X26.850 Y170.315 E13.2082
G1 X25.833 Y169.093 E13.3667
