;FLAVOR:UltiGCode
;TIME:1642      
;MATERIAL:1862      
;MATERIAL2:0         

;Layer count: 252
;LAYER:0
M107
;TYPE:WALL-INNER
G1 F2640 X148.14 Y82.46 E1343.60038
G0 F9000 X148.61 Y83.25


;TYPE:WALL-OUTER
G1 F2640 X147.89 Y82.78 E1346.16272
G1 X147.32 Y82.31 E1346.19232
G1 X146.86 Y81.87 E1346.21773
G1 X146.20 Y81.14 E1346.25712
G1 X145.51 Y80.18 E1346.30443
G1 X145.26 Y79.72 E1346.32521
G1 X145.05 Y79.32 E1346.34330
G1 X144.80 Y78.72 E1346.36952
G1 X144.59 Y78.17 E1346.39283
G1 X143.74 Y78.17 E1346.42695
G1 X143.58 Y78.17 E1346.43315
G1 X143.58 Y72.58 E1346.65671
G1 X144.02 Y72.57 E1346.67435
G1 X144.59 Y72.57 E1346.69696
G1 X144.92 Y71.73 E1346.73323
G1 X145.18 Y71.18 E1346.75739
G1 X145.18 Y74.39 E1346.88571
G1 X145.54 Y74.43 E1346.90022
G1 X145.68 Y73.75 E1346.92782
G1 X145.92 Y72.85 E1346.96520
G1 X146.21 Y72.12 E1346.99675
G1 X146.31 Y71.90 E1347.00626
G1 X146.77 Y71.09 E1347.04337
G1 X147.07 Y70.66 E1347.06444
G1 X147.26 Y70.41 E1347.07709
G1 X148.03 Y69.60 E1347.12180
G1 X148.42 Y69.26 E1347.14250
G1 X149.05 Y68.80 E1347.17372
G1 X149.58 Y68.48 E1347.19858
G1 X149.71 Y68.40 E1347.20466
G1 X150.28 Y68.13 E1347.22962
G1 X150.44 Y68.06 E1347.23688
G1 X151.14 Y67.82 E1347.26638
G1 X151.87 Y67.64 E1347.29651
G1 X152.62 Y67.53 E1347.32694
G1 X153.27 Y67.51 E1347.35276
G1 X153.39 Y67.49 E1347.35746
G1 X154.14 Y67.53 E1347.38766
G1 X154.89 Y67.64 E1347.41809
G1 X155.63 Y67.82 E1347.44823
G1 X156.35 Y68.07 E1347.47881
G1 X156.96 Y68.36 E1347.50581
G1 X157.71 Y68.79 E1347.54055
G1 X158.36 Y69.26 E1347.57253
G1 X158.74 Y69.60 E1347.59313
G1 X158.95 Y69.80 E1347.60445
G1 X159.49 Y70.40 E1347.63688
G1 X159.87 Y70.91 E1347.66241
G1 X160.00 Y71.09 E1347.67142
G1 X160.33 Y71.67 E1347.69784
G1 X160.56 Y72.12 E1347.71792
G1 X160.78 Y72.67 E1347.74202
G1 X160.93 Y73.13 E1347.76129
G1 X161.10 Y73.81 E1347.78925
G1 X161.22 Y74.43 E1347.81440
G1 X161.58 Y74.39 E1347.82891
G1 X161.58 Y71.18 E1347.95723
G1 X161.82 Y71.67 E1347.97899
G1 X162.07 Y72.30 E1348.00600
G1 X162.17 Y72.57 E1348.01761
G1 X163.18 Y72.58 E1348.05802
G1 X163.18 Y78.16 E1348.28150
G1 X162.44 Y78.17 E1348.31130
G1 X162.18 Y78.18 E1348.32182
G1 X161.88 Y78.92 E1348.35370
G1 X161.70 Y79.35 E1348.37266
G1 X161.27 Y80.14 E1348.40849
G1 X160.74 Y80.94 E1348.44681
G1 X160.16 Y81.62 E1348.48272
G1 X159.53 Y82.24 E1348.51796
G1 X158.86 Y82.78 E1348.55229
G1 X158.16 Y83.25 E1348.58589
G1 X157.41 Y83.66 E1348.62015
G1 X156.64 Y83.99 E1348.65371
G1 X155.95 Y84.22 E1348.68303
G1 X155.06 Y84.44 E1348.71948
G1 X154.53 Y84.51 E1348.74093
G1 X154.21 Y84.56 E1348.75404
G1 X153.38 Y84.59 E1348.78699
G1 X152.55 Y84.56 E1348.82038
G1 X151.76 Y84.45 E1348.85235
G1 X151.00 Y84.27 E1348.88341
G1 X150.27 Y84.04 E1348.91405
G1 X149.35 Y83.66 E1348.95384
G1 X148.61 Y83.25 E1348.98774
