; Testcode from https://github.com/MarlinFirmware/Marlin/issues/2525
; -- START GCOD
;M190 S60
;M109 S205
G21                       	; metric values
G90                       	; absolute positioning
M107                     	; start with the fan off
G28							; X/Y/Z homing
G29							; auto-level process
G1 X0 Y0 F6000				; move to X0 Y0 at 60mm/s
G1 Z15.0 F1200    			; move the platform down 15mm
G92 
G1 F200 
G92 
M117 Printing...			; put printing message on LCD screen
; -- end of START GCOD

G92 
; G1 
G1 Z0.2 F1002
; layer 1, Z = 0.2
; T0
; tool H0.2 W0.48
G1 X90.713 Y88.601 F6000
; G1 
G92 
G1 X91.307 Y88.015 
G1 X91.325 Y87.998 
G1 X91.356 Y87.969 
G1 X91.375 Y87.951 
G1 X91.99 Y87.389 
G1 X92.014 Y87.368 
G1 X92.054 Y87.334 
G1 X92.079 Y87.313 
G1 X93.031 Y86.525 
G1 X93.062 Y86.501 
G1 X93.111 Y86.462 
G1 X93.142 Y86.439 
G1 X94.14 Y85.709 
G1 X94.166 Y85.691 
G1 X94.209 Y85.661 
G1 X94.236 Y85.642 
G1 X94.931 Y85.185 
G1 X94.953 Y85.171 
G1 X94.988 Y85.148 
G1 X95.011 Y85.134 
G1 X95.723 Y84.704 
G1 X95.751 Y84.688 
G1 X95.797 Y84.662 
G1 X95.825 Y84.646 
G1 X96.913 Y84.06 
G1 X96.948 Y84.042 
G1 X97.004 Y84.013 
G1 X97.039 Y83.997 
G1 X98.16 Y83.476 
G1 X98.189 Y83.462 
G1 X98.237 Y83.441 
G1 X98.267 Y83.429 
G1 X99.038 Y83.115 
G1 X99.063 Y83.106 
G1 X99.102 Y83.091 
G1 X99.126 Y83.082 
G1 X99.909 Y82.798 
G1 X99.94 Y82.788 
G1 X99.99 Y82.771 
G1 X100.021 Y82.761 
G1 X101.202 Y82.399 
G1 X101.239 Y82.388 
G1 X101.3 Y82.371 
G1 X101.338 Y82.361 
G1 X102.538 Y82.069 
G1 X102.569 Y82.062 
G1 X102.62 Y82.051 
G1 X102.652 Y82.044 
G1 X103.47 Y81.887 
G1 X103.496 Y81.882 
G1 X103.537 Y81.875 
G1 X103.563 Y81.871 
G1 X104.381 Y81.747 
G1 X104.405 Y81.744 
G1 X104.447 Y81.738 
G1 X104.474 Y81.735 
G1 X105.31 Y81.641 
G1 X105.353 Y81.637 
G1 X105.423 Y81.632 
G1 X105.466 Y81.629 
G1 X107.37 Y81.542 
G1 X107.417 Y81.541 
G1 X107.494 Y81.54 
G1 X107.542 Y81.54 
G1 X108.655 Y81.569 
G1 X108.69 Y81.571 
G1 X108.746 Y81.574 
G1 X108.78 Y81.576 
G1 X109.879 Y81.662 
G1 X109.914 Y81.666 
G1 X109.969 Y81.671 
G1 X110.004 Y81.675 
G1 X111.097 Y81.819 
G1 X111.131 Y81.824 
G1 X111.186 Y81.833 
G1 X111.221 Y81.839 
G1 X112.306 Y82.04 
G1 X112.339 Y82.047 
G1 X112.394 Y82.058 
G1 X112.428 Y82.066 
G1 X113.501 Y82.324 
G1 X113.535 Y82.332 
G1 X113.589 Y82.347 
G1 X113.622 Y82.356 
G1 X114.679 Y82.669 
G1 X114.712 Y82.679 
G1 X114.765 Y82.697 
G1 X114.798 Y82.708 
G1 X115.838 Y83.076 
G1 X115.87 Y83.088 
G1 X115.923 Y83.108 
G1 X115.955 Y83.121 
G1 X116.974 Y83.543 
G1 X117.006 Y83.557 
G1 X117.057 Y83.58 
G1 X117.088 Y83.594 
G1 X118.084 Y84.069 
G1 X118.116 Y84.085 
G1 X118.166 Y84.11 
G1 X118.196 Y84.126 
G1 X119.165 Y84.652 
G1 X119.195 Y84.669 
G1 X119.244 Y84.697 
G1 X119.273 Y84.715 
G1 X120.214 Y85.291 
G1 X120.244 Y85.31 
G1 X120.29 Y85.34 
G1 X120.319 Y85.359 
G1 X121.228 Y85.984 
G1 X121.256 Y86.004 
G1 X121.301 Y86.036 
G1 X121.329 Y86.057 
G1 X122.205 Y86.729 
G1 X122.232 Y86.751 
G1 X122.275 Y86.786 
G1 X122.302 Y86.808 
G1 X123.141 Y87.524 
G1 X123.166 Y87.547 
G1 X123.208 Y87.585 
G1 X123.233 Y87.608 
G1 X124.034 Y88.367 
G1 X124.058 Y88.391 
G1 X124.098 Y88.431 
G1 X124.122 Y88.456 
G1 X124.875 Y89.249 
G1 X124.898 Y89.274 
G1 X124.935 Y89.315 
G1 X124.958 Y89.341 
G1 X125.674 Y90.179 
G1 X125.697 Y90.206 
G1 X125.732 Y90.249 
G1 X125.753 Y90.277 
G1 X126.425 Y91.151 
G1 X126.446 Y91.179 
G1 X126.479 Y91.224 
G1 X126.499 Y91.252 
G1 X127.124 Y92.161 
G1 X127.143 Y92.19 
G1 X127.174 Y92.237 
G1 X127.192 Y92.266 
G1 X127.769 Y93.207 
G1 X127.787 Y93.237 
G1 X127.815 Y93.285 
G1 X127.832 Y93.315 
G1 X128.358 Y94.284 
G1 X128.375 Y94.315 
G1 X128.4 Y94.365 
G1 X128.415 Y94.396 
G1 X128.891 Y95.391 
G1 X128.905 Y95.422 
G1 X128.928 Y95.474 
G1 X128.942 Y95.505 
G1 X129.364 Y96.524 
G1 X129.377 Y96.556 
G1 X129.397 Y96.608 
G1 X129.409 Y96.641 
G1 X129.778 Y97.68 
G1 X129.789 Y97.713 
G1 X129.806 Y97.766 
G1 X129.816 Y97.799 
G1 X130.13 Y98.857 
G1 X130.14 Y98.89 
G1 X130.154 Y98.944 
G1 X130.163 Y98.978 
G1 X130.421 Y100.05 
G1 X130.428 Y100.084 
G1 X130.44 Y100.138 
G1 X130.447 Y100.173 
G1 X130.648 Y101.258 
G1 X130.654 Y101.292 
G1 X130.663 Y101.347 
G1 X130.668 Y101.381 
G1 X130.813 Y102.475 
G1 X130.817 Y102.509 
G1 X130.823 Y102.565 
G1 X130.826 Y102.599 
G1 X130.913 Y103.699 
G1 X130.915 Y103.734 
G1 X130.918 Y103.79 
G1 X130.919 Y103.824 
G1 X130.949 Y104.94 
G1 X130.95 Y104.992 
G1 X130.948 Y105.076 
G1 X130.947 Y105.128 
G1 X130.833 Y107.313 
G1 X130.829 Y107.364 
G1 X130.822 Y107.448 
G1 X130.816 Y107.5 
G1 X130.671 Y108.603 
G1 X130.666 Y108.638 
G1 X130.657 Y108.693 
G1 X130.651 Y108.726 
G1 X130.45 Y109.811 
G1 X130.444 Y109.845 
G1 X130.432 Y109.9 
G1 X130.424 Y109.933 
G1 X130.167 Y111.006 
G1 X130.159 Y111.04 
G1 X130.144 Y111.094 
G1 X130.135 Y111.127 
G1 X129.822 Y112.185 
G1 X129.812 Y112.218 
G1 X129.794 Y112.271 
G1 X129.783 Y112.304 
G1 X129.415 Y113.343 
G1 X129.403 Y113.376 
G1 X129.383 Y113.428 
G1 X129.37 Y113.46 
G1 X128.949 Y114.48 
G1 X128.935 Y114.511 
G1 X128.912 Y114.563 
G1 X128.898 Y114.594 
G1 X128.423 Y115.59 
G1 X128.408 Y115.621 
G1 X128.382 Y115.67 
G1 X128.366 Y115.701 
G1 X127.84 Y116.671 
G1 X127.823 Y116.701 
G1 X127.795 Y116.749 
G1 X127.778 Y116.779 
G1 X127.201 Y117.72 
G1 X127.183 Y117.749 
G1 X127.152 Y117.796 
G1 X127.133 Y117.825 
G1 X126.509 Y118.734 
G1 X126.488 Y118.763 
G1 X126.456 Y118.808 
G1 X126.435 Y118.835 
G1 X125.764 Y119.711 
G1 X125.742 Y119.738 
G1 X125.707 Y119.781 
G1 X125.685 Y119.808 
G1 X124.969 Y120.647 
G1 X124.946 Y120.673 
G1 X124.908 Y120.715 
G1 X124.885 Y120.74 
G1 X124.131 Y121.535 
G1 X124.113 Y121.553 
G1 X124.084 Y121.583 
G1 X124.065 Y121.602 
G1 X123.657 Y122 
G1 X123.638 Y122.018 
G1 X123.607 Y122.047 
G1 X123.588 Y122.065 
G1 X122.773 Y122.798 
G1 X122.747 Y122.821 
G1 X122.704 Y122.857 
G1 X122.678 Y122.879 
G1 X121.82 Y123.574 
G1 X121.793 Y123.595 
G1 X121.749 Y123.629 
G1 X121.721 Y123.65 
G1 X120.829 Y124.298 
G1 X120.801 Y124.318 
G1 X120.754 Y124.35 
G1 X120.726 Y124.369 
G1 X119.8 Y124.97 
G1 X119.771 Y124.988 
G1 X119.723 Y125.018 
G1 X119.694 Y125.035 
G1 X118.738 Y125.587 
G1 X118.708 Y125.604 
G1 X118.659 Y125.63 
G1 X118.628 Y125.646 
G1 X117.645 Y126.147 
G1 X117.614 Y126.163 
G1 X117.564 Y126.187 
G1 X117.533 Y126.201 
G1 X116.531 Y126.647 
G1 X116.507 Y126.657 
G1 X116.469 Y126.674 
G1 X116.445 Y126.684 
G1 X115.92 Y126.893 
G1 X115.895 Y126.902 
G1 X115.856 Y126.917 
G1 X115.832 Y126.926 
G1 X114.798 Y127.292 
G1 X114.765 Y127.303 
G1 X114.712 Y127.321 
G1 X114.679 Y127.331 
G1 X113.622 Y127.644 
G1 X113.589 Y127.653 
G1 X113.535 Y127.668 
G1 X113.501 Y127.676 
G1 X112.428 Y127.934 
G1 X112.394 Y127.942 
G1 X112.339 Y127.953 
G1 X112.306 Y127.96 
G1 X111.221 Y128.161 
G1 X111.186 Y128.167 
G1 X111.131 Y128.176 
G1 X111.097 Y128.181 
G1 X110.004 Y128.325 
G1 X109.969 Y128.329 
G1 X109.914 Y128.334 
G1 X109.879 Y128.338 
G1 X108.78 Y128.424 
G1 X108.746 Y128.426 
G1 X108.69 Y128.429 
G1 X108.655 Y128.431 
G1 X107.517 Y128.46 
G1 X107.439 Y128.46 
G1 X107.313 Y128.456 
G1 X107.236 Y128.451 
G1 X103.469 Y128.105 
G1 X103.396 Y128.096 
G1 X103.278 Y128.079 
G1 X103.206 Y128.066 
G1 X102.358 Y127.892 
G1 X102.332 Y127.886 
G1 X102.291 Y127.877 
G1 X102.266 Y127.871 
G1 X101.46 Y127.672 
G1 X101.43 Y127.664 
G1 X101.383 Y127.651 
G1 X101.354 Y127.643 
G1 X100.3 Y127.331 
G1 X100.267 Y127.321 
G1 X100.214 Y127.303 
G1 X100.181 Y127.292 
G1 X99.141 Y126.924 
G1 X99.109 Y126.912 
G1 X99.056 Y126.892 
G1 X99.024 Y126.879 
G1 X98.008 Y126.458 
G1 X97.98 Y126.446 
G1 X97.935 Y126.426 
G1 X97.908 Y126.414 
G1 X97.153 Y126.06 
G1 X97.125 Y126.047 
G1 X97.082 Y126.025 
G1 X97.054 Y126.011 
G1 X96.081 Y125.499 
G1 X96.051 Y125.483 
G1 X96.002 Y125.455 
G1 X95.972 Y125.438 
G1 X95.024 Y124.874 
G1 X94.995 Y124.856 
G1 X94.947 Y124.826 
G1 X94.918 Y124.807 
G1 X94.004 Y124.196 
G1 X93.979 Y124.179 
G1 X93.939 Y124.151 
G1 X93.914 Y124.133 
G1 X93.243 Y123.638 
G1 X93.219 Y123.621 
G1 X93.18 Y123.591 
G1 X93.156 Y123.572 
G1 X92.301 Y122.879 
G1 X92.275 Y122.857 
G1 X92.232 Y122.821 
G1 X92.206 Y122.798 
G1 X91.387 Y122.06 
G1 X91.361 Y122.037 
G1 X91.321 Y121.998 
G1 X91.296 Y121.974 
G1 X90.517 Y121.196 
G1 X90.493 Y121.171 
G1 X90.455 Y121.13 
G1 X90.431 Y121.105 
G1 X89.693 Y120.286 
G1 X89.671 Y120.26 
G1 X89.634 Y120.217 
G1 X89.612 Y120.19 
G1 X88.92 Y119.336 
G1 X88.9 Y119.311 
G1 X88.871 Y119.273 
G1 X88.853 Y119.249 
G1 X88.358 Y118.578 
G1 X88.34 Y118.553 
G1 X88.312 Y118.513 
G1 X88.295 Y118.488 
G1 X87.684 Y117.573 
G1 X87.665 Y117.544 
G1 X87.635 Y117.497 
G1 X87.617 Y117.468 
G1 X87.055 Y116.523 
G1 X87.04 Y116.497 
G1 X87.016 Y116.454 
G1 X87.001 Y116.427 
G1 X86.608 Y115.691 
G1 X86.593 Y115.664 
G1 X86.571 Y115.62 
G1 X86.558 Y115.594 
G1 X86.085 Y114.602 
G1 X86.07 Y114.57 
G1 X86.048 Y114.519 
G1 X86.034 Y114.487 
G1 X85.612 Y113.468 
G1 X85.599 Y113.436 
G1 X85.579 Y113.384 
G1 X85.567 Y113.351 
G1 X85.2 Y112.315 
G1 X85.19 Y112.287 
G1 X85.175 Y112.24 
G1 X85.165 Y112.211 
G1 X84.923 Y111.412 
G1 X84.915 Y111.383 
G1 X84.901 Y111.336 
G1 X84.894 Y111.307 
G1 X84.622 Y110.238 
G1 X84.613 Y110.2 
G1 X84.599 Y110.139 
G1 X84.591 Y110.1 
G1 X84.325 Y108.714 
G1 X84.311 Y108.626 
G1 X84.293 Y108.484 
G1 X84.285 Y108.395 
G1 X84.052 Y104.207 
G1 X84.05 Y104.12 
G1 X84.051 Y103.98 
G1 X84.055 Y103.894 
G1 X84.151 Y102.624 
G1 X84.154 Y102.592 
G1 X84.159 Y102.54 
G1 X84.162 Y102.508 
G1 X84.266 Y101.681 
G1 X84.269 Y101.656 
G1 X84.275 Y101.614 
G1 X84.279 Y101.589 
G1 X84.414 Y100.772 
G1 X84.418 Y100.746 
G1 X84.426 Y100.705 
G1 X84.431 Y100.68 
G1 X84.599 Y99.865 
G1 X84.605 Y99.834 
G1 X84.617 Y99.782 
G1 X84.625 Y99.75 
G1 X84.932 Y98.558 
G1 X84.94 Y98.527 
G1 X84.955 Y98.476 
G1 X84.964 Y98.445 
G1 X85.211 Y97.651 
G1 X85.219 Y97.626 
G1 X85.232 Y97.586 
G1 X85.24 Y97.562 
G1 X85.518 Y96.776 
G1 X85.53 Y96.745 
G1 X85.548 Y96.696 
G1 X85.56 Y96.667 
G1 X86.029 Y95.524 
G1 X86.044 Y95.488 
G1 X86.07 Y95.43 
G1 X86.086 Y95.395 
G1 X86.622 Y94.282 
G1 X86.636 Y94.253 
G1 X86.66 Y94.206 
G1 X86.675 Y94.177 
G1 X87.073 Y93.445 
G1 X87.085 Y93.423 
G1 X87.106 Y93.386 
G1 X87.119 Y93.364 
G1 X87.545 Y92.648 
G1 X87.562 Y92.62 
G1 X87.59 Y92.575 
G1 X87.607 Y92.549 
G1 X88.287 Y91.523 
G1 X88.306 Y91.497 
G1 X88.336 Y91.454 
G1 X88.355 Y91.427 
G1 X88.851 Y90.753 
G1 X88.87 Y90.728 
G1 X88.903 Y90.686 
G1 X88.923 Y90.66 
G1 X89.704 Y89.702 
G1 X89.729 Y89.672 
G1 X89.771 Y89.624 
G1 X89.796 Y89.596 
G1 X90.632 Y88.685 
G1 X90.654 Y88.662 
G1 X90.691 Y88.624 
G1 X90.713 Y88.601 
G1 X91.053 Y88.941 F6000
G92 
G1 X91.642 Y88.359 
G1 X91.657 Y88.344 
G1 X91.684 Y88.318 
G1 X91.7 Y88.304 
G1 X92.311 Y87.746 
G1 X92.331 Y87.728 
G1 X92.366 Y87.698 
G1 X92.387 Y87.681 
G1 X93.334 Y86.898 
G1 X93.359 Y86.878 
G1 X93.403 Y86.843 
G1 X93.429 Y86.824 
G1 X94.421 Y86.099 
G1 X94.442 Y86.083 
G1 X94.481 Y86.057 
G1 X94.503 Y86.042 
G1 X95.193 Y85.587 
G1 X95.211 Y85.575 
G1 X95.243 Y85.555 
G1 X95.261 Y85.544 
G1 X95.969 Y85.116 
G1 X95.992 Y85.103 
G1 X96.032 Y85.08 
G1 X96.056 Y85.067 
G1 X97.138 Y84.484 
G1 X97.166 Y84.469 
G1 X97.216 Y84.444 
G1 X97.245 Y84.43 
G1 X98.359 Y83.912 
G1 X98.383 Y83.901 
G1 X98.426 Y83.883 
G1 X98.451 Y83.872 
G1 X99.217 Y83.561 
G1 X99.237 Y83.553 
G1 X99.272 Y83.54 
G1 X99.291 Y83.532 
G1 X100.07 Y83.251 
G1 X100.095 Y83.242 
G1 X100.139 Y83.227 
G1 X100.164 Y83.219 
G1 X101.339 Y82.859 
G1 X101.37 Y82.85 
G1 X101.424 Y82.835 
G1 X101.455 Y82.827 
G1 X102.649 Y82.536 
G1 X102.674 Y82.53 
G1 X102.72 Y82.52 
G1 X102.746 Y82.515 
G1 X103.559 Y82.359 
G1 X103.579 Y82.355 
G1 X103.616 Y82.349 
G1 X103.637 Y82.345 
G1 X104.45 Y82.222 
G1 X104.471 Y82.219 
G1 X104.508 Y82.214 
G1 X104.529 Y82.212 
G1 X105.359 Y82.119 
G1 X105.394 Y82.116 
G1 X105.456 Y82.111 
G1 X105.492 Y82.108 
G1 X107.387 Y82.022 
G1 X107.426 Y82.02 
G1 X107.494 Y82.02 
G1 X107.533 Y82.02 
G1 X108.639 Y82.049 
G1 X108.668 Y82.05 
G1 X108.718 Y82.053 
G1 X108.745 Y82.055 
G1 X109.839 Y82.141 
G1 X109.867 Y82.143 
G1 X109.916 Y82.148 
G1 X109.944 Y82.152 
G1 X111.032 Y82.295 
G1 X111.059 Y82.299 
G1 X111.108 Y82.307 
G1 X111.137 Y82.312 
G1 X112.215 Y82.511 
G1 X112.243 Y82.517 
G1 X112.291 Y82.527 
G1 X112.319 Y82.534 
G1 X113.386 Y82.79 
G1 X113.413 Y82.797 
G1 X113.461 Y82.81 
G1 X113.488 Y82.817 
G1 X114.54 Y83.129 
G1 X114.567 Y83.137 
G1 X114.614 Y83.152 
G1 X114.641 Y83.161 
G1 X115.675 Y83.528 
G1 X115.701 Y83.537 
G1 X115.748 Y83.555 
G1 X115.774 Y83.566 
G1 X116.788 Y83.985 
G1 X116.814 Y83.997 
G1 X116.859 Y84.017 
G1 X116.885 Y84.029 
G1 X117.875 Y84.501 
G1 X117.901 Y84.514 
G1 X117.945 Y84.536 
G1 X117.97 Y84.549 
G1 X118.933 Y85.072 
G1 X118.958 Y85.086 
G1 X119.001 Y85.111 
G1 X119.025 Y85.126 
G1 X119.961 Y85.699 
G1 X119.985 Y85.714 
G1 X120.026 Y85.741 
G1 X120.05 Y85.757 
G1 X120.953 Y86.378 
G1 X120.976 Y86.394 
G1 X121.016 Y86.423 
G1 X121.039 Y86.44 
G1 X121.91 Y87.108 
G1 X121.932 Y87.126 
G1 X121.971 Y87.157 
G1 X121.992 Y87.175 
G1 X122.826 Y87.887 
G1 X122.848 Y87.906 
G1 X122.885 Y87.939 
G1 X122.905 Y87.958 
G1 X123.701 Y88.713 
G1 X123.721 Y88.733 
G1 X123.756 Y88.768 
G1 X123.776 Y88.789 
G1 X124.524 Y89.577 
G1 X124.544 Y89.598 
G1 X124.577 Y89.634 
G1 X124.595 Y89.655 
G1 X125.307 Y90.489 
G1 X125.326 Y90.511 
G1 X125.357 Y90.549 
G1 X125.374 Y90.571 
G1 X126.042 Y91.441 
G1 X126.059 Y91.464 
G1 X126.089 Y91.504 
G1 X126.105 Y91.527 
G1 X126.727 Y92.431 
G1 X126.742 Y92.454 
G1 X126.77 Y92.496 
G1 X126.785 Y92.52 
G1 X127.358 Y93.455 
G1 X127.373 Y93.479 
G1 X127.398 Y93.522 
G1 X127.411 Y93.547 
G1 X127.935 Y94.511 
G1 X127.948 Y94.536 
G1 X127.971 Y94.58 
G1 X127.983 Y94.605 
G1 X128.456 Y95.595 
G1 X128.468 Y95.621 
G1 X128.488 Y95.666 
G1 X128.499 Y95.692 
G1 X128.92 Y96.705 
G1 X128.93 Y96.731 
G1 X128.948 Y96.778 
G1 X128.958 Y96.804 
G1 X129.324 Y97.838 
G1 X129.333 Y97.864 
G1 X129.349 Y97.912 
G1 X129.357 Y97.939 
G1 X129.669 Y98.991 
G1 X129.677 Y99.018 
G1 X129.69 Y99.066 
G1 X129.697 Y99.093 
G1 X129.953 Y100.159 
G1 X129.96 Y100.187 
G1 X129.97 Y100.235 
G1 X129.976 Y100.263 
G1 X130.176 Y101.342 
G1 X130.181 Y101.37 
G1 X130.189 Y101.42 
G1 X130.193 Y101.447 
G1 X130.336 Y102.534 
G1 X130.34 Y102.563 
G1 X130.345 Y102.612 
G1 X130.347 Y102.64 
G1 X130.434 Y103.734 
G1 X130.436 Y103.763 
G1 X130.439 Y103.812 
G1 X130.44 Y103.84 
G1 X130.469 Y104.948 
G1 X130.469 Y104.991 
G1 X130.469 Y105.066 
G1 X130.467 Y105.108 
G1 X130.354 Y107.283 
G1 X130.351 Y107.325 
G1 X130.344 Y107.4 
G1 X130.339 Y107.442 
G1 X130.195 Y108.537 
G1 X130.191 Y108.566 
G1 X130.183 Y108.615 
G1 X130.179 Y108.642 
G1 X129.979 Y109.72 
G1 X129.974 Y109.748 
G1 X129.963 Y109.797 
G1 X129.957 Y109.824 
G1 X129.701 Y110.891 
G1 X129.694 Y110.919 
G1 X129.681 Y110.967 
G1 X129.674 Y110.994 
G1 X129.362 Y112.045 
G1 X129.354 Y112.072 
G1 X129.339 Y112.12 
G1 X129.33 Y112.146 
G1 X128.964 Y113.18 
G1 X128.954 Y113.207 
G1 X128.936 Y113.253 
G1 X128.926 Y113.28 
G1 X128.506 Y114.293 
G1 X128.495 Y114.319 
G1 X128.475 Y114.365 
G1 X128.463 Y114.39 
G1 X127.991 Y115.38 
G1 X127.979 Y115.406 
G1 X127.956 Y115.45 
G1 X127.943 Y115.475 
G1 X127.42 Y116.439 
G1 X127.406 Y116.464 
G1 X127.381 Y116.507 
G1 X127.367 Y116.531 
G1 X126.794 Y117.466 
G1 X126.779 Y117.49 
G1 X126.752 Y117.532 
G1 X126.736 Y117.556 
G1 X126.115 Y118.46 
G1 X126.098 Y118.483 
G1 X126.069 Y118.523 
G1 X126.052 Y118.546 
G1 X125.385 Y119.416 
G1 X125.367 Y119.438 
G1 X125.336 Y119.477 
G1 X125.318 Y119.499 
G1 X124.606 Y120.333 
G1 X124.587 Y120.354 
G1 X124.554 Y120.391 
G1 X124.535 Y120.412 
G1 X123.784 Y121.203 
G1 X123.77 Y121.218 
G1 X123.744 Y121.245 
G1 X123.728 Y121.26 
G1 X123.323 Y121.655 
G1 X123.308 Y121.669 
G1 X123.281 Y121.695 
G1 X123.265 Y121.709 
G1 X122.454 Y122.439 
G1 X122.433 Y122.458 
G1 X122.395 Y122.49 
G1 X122.373 Y122.508 
G1 X121.521 Y123.199 
G1 X121.499 Y123.216 
G1 X121.459 Y123.246 
G1 X121.436 Y123.263 
G1 X120.549 Y123.908 
G1 X120.526 Y123.924 
G1 X120.485 Y123.952 
G1 X120.462 Y123.968 
G1 X119.542 Y124.566 
G1 X119.518 Y124.581 
G1 X119.475 Y124.607 
G1 X119.451 Y124.621 
G1 X118.501 Y125.17 
G1 X118.476 Y125.183 
G1 X118.433 Y125.207 
G1 X118.408 Y125.22 
G1 X117.43 Y125.718 
G1 X117.405 Y125.731 
G1 X117.36 Y125.752 
G1 X117.334 Y125.764 
G1 X116.338 Y126.208 
G1 X116.319 Y126.216 
G1 X116.284 Y126.231 
G1 X116.265 Y126.239 
G1 X115.744 Y126.446 
G1 X115.724 Y126.454 
G1 X115.689 Y126.467 
G1 X115.669 Y126.474 
G1 X114.641 Y126.839 
G1 X114.614 Y126.848 
G1 X114.567 Y126.863 
G1 X114.54 Y126.871 
G1 X113.488 Y127.183 
G1 X113.461 Y127.19 
G1 X113.413 Y127.203 
G1 X113.386 Y127.21 
G1 X112.319 Y127.466 
G1 X112.291 Y127.473 
G1 X112.243 Y127.483 
G1 X112.215 Y127.489 
G1 X111.137 Y127.688 
G1 X111.108 Y127.693 
G1 X111.059 Y127.701 
G1 X111.032 Y127.705 
G1 X109.944 Y127.848 
G1 X109.916 Y127.852 
G1 X109.867 Y127.857 
G1 X109.839 Y127.859 
G1 X108.745 Y127.945 
G1 X108.718 Y127.947 
G1 X108.668 Y127.95 
G1 X108.639 Y127.951 
G1 X107.512 Y127.98 
G1 X107.448 Y127.98 
G1 X107.336 Y127.977 
G1 X107.273 Y127.973 
G1 X103.52 Y127.628 
G1 X103.46 Y127.621 
G1 X103.355 Y127.605 
G1 X103.296 Y127.595 
G1 X102.457 Y127.422 
G1 X102.436 Y127.417 
G1 X102.399 Y127.409 
G1 X102.379 Y127.404 
G1 X101.577 Y127.206 
G1 X101.554 Y127.2 
G1 X101.512 Y127.189 
G1 X101.488 Y127.182 
G1 X100.439 Y126.871 
G1 X100.412 Y126.863 
G1 X100.365 Y126.848 
G1 X100.338 Y126.839 
G1 X99.304 Y126.472 
G1 X99.278 Y126.463 
G1 X99.231 Y126.445 
G1 X99.205 Y126.434 
G1 X98.194 Y126.016 
G1 X98.171 Y126.006 
G1 X98.131 Y125.988 
G1 X98.109 Y125.978 
G1 X97.359 Y125.626 
G1 X97.337 Y125.616 
G1 X97.298 Y125.596 
G1 X97.276 Y125.585 
G1 X96.308 Y125.076 
G1 X96.283 Y125.062 
G1 X96.24 Y125.038 
G1 X96.215 Y125.024 
G1 X95.272 Y124.463 
G1 X95.248 Y124.448 
G1 X95.206 Y124.422 
G1 X95.182 Y124.406 
G1 X94.273 Y123.798 
G1 X94.252 Y123.784 
G1 X94.217 Y123.759 
G1 X94.197 Y123.745 
G1 X93.53 Y123.254 
G1 X93.51 Y123.239 
G1 X93.476 Y123.212 
G1 X93.456 Y123.197 
G1 X92.606 Y122.508 
G1 X92.584 Y122.49 
G1 X92.546 Y122.458 
G1 X92.525 Y122.439 
G1 X91.71 Y121.706 
G1 X91.689 Y121.686 
G1 X91.653 Y121.652 
G1 X91.633 Y121.632 
G1 X90.859 Y120.859 
G1 X90.839 Y120.838 
G1 X90.805 Y120.802 
G1 X90.786 Y120.782 
G1 X90.052 Y119.967 
G1 X90.034 Y119.946 
G1 X90.001 Y119.908 
G1 X89.983 Y119.886 
G1 X89.294 Y119.036 
G1 X89.279 Y119.016 
G1 X89.252 Y118.981 
G1 X89.238 Y118.962 
G1 X88.746 Y118.295 
G1 X88.732 Y118.275 
G1 X88.707 Y118.239 
G1 X88.693 Y118.219 
G1 X88.085 Y117.309 
G1 X88.069 Y117.286 
G1 X88.043 Y117.243 
G1 X88.028 Y117.22 
G1 X87.469 Y116.28 
G1 X87.456 Y116.258 
G1 X87.435 Y116.22 
G1 X87.423 Y116.199 
G1 X87.032 Y115.468 
G1 X87.021 Y115.445 
G1 X87.001 Y115.406 
G1 X86.99 Y115.385 
G1 X86.519 Y114.398 
G1 X86.508 Y114.372 
G1 X86.487 Y114.327 
G1 X86.476 Y114.301 
G1 X86.056 Y113.287 
G1 X86.046 Y113.261 
G1 X86.028 Y113.215 
G1 X86.018 Y113.188 
G1 X85.653 Y112.157 
G1 X85.645 Y112.134 
G1 X85.631 Y112.093 
G1 X85.624 Y112.069 
G1 X85.383 Y111.276 
G1 X85.376 Y111.252 
G1 X85.365 Y111.21 
G1 X85.358 Y111.186 
G1 X85.088 Y110.123 
G1 X85.081 Y110.092 
G1 X85.069 Y110.038 
G1 X85.062 Y110.006 
G1 X84.798 Y108.631 
G1 X84.786 Y108.56 
G1 X84.771 Y108.433 
G1 X84.764 Y108.361 
G1 X84.532 Y104.188 
G1 X84.53 Y104.117 
G1 X84.531 Y103.993 
G1 X84.534 Y103.922 
G1 X84.629 Y102.663 
G1 X84.631 Y102.637 
G1 X84.636 Y102.591 
G1 X84.639 Y102.564 
G1 X84.742 Y101.743 
G1 X84.744 Y101.722 
G1 X84.75 Y101.685 
G1 X84.753 Y101.664 
G1 X84.887 Y100.853 
G1 X84.891 Y100.831 
G1 X84.898 Y100.795 
G1 X84.902 Y100.774 
G1 X85.068 Y99.964 
G1 X85.074 Y99.939 
G1 X85.084 Y99.893 
G1 X85.091 Y99.867 
G1 X85.396 Y98.681 
G1 X85.403 Y98.655 
G1 X85.416 Y98.61 
G1 X85.423 Y98.585 
G1 X85.668 Y97.795 
G1 X85.675 Y97.775 
G1 X85.687 Y97.74 
G1 X85.693 Y97.719 
G1 X85.97 Y96.939 
G1 X85.979 Y96.914 
G1 X85.996 Y96.87 
G1 X86.005 Y96.846 
G1 X86.472 Y95.709 
G1 X86.484 Y95.68 
G1 X86.507 Y95.629 
G1 X86.52 Y95.6 
G1 X87.053 Y94.492 
G1 X87.065 Y94.469 
G1 X87.086 Y94.427 
G1 X87.099 Y94.404 
G1 X87.493 Y93.676 
G1 X87.504 Y93.658 
G1 X87.522 Y93.625 
G1 X87.533 Y93.607 
G1 X87.956 Y92.896 
G1 X87.97 Y92.873 
G1 X87.995 Y92.834 
G1 X88.009 Y92.812 
G1 X88.686 Y91.791 
G1 X88.701 Y91.769 
G1 X88.727 Y91.731 
G1 X88.743 Y91.71 
G1 X89.236 Y91.04 
G1 X89.252 Y91.019 
G1 X89.28 Y90.982 
G1 X89.297 Y90.961 
G1 X90.074 Y90.008 
G1 X90.094 Y89.983 
G1 X90.131 Y89.941 
G1 X90.152 Y89.918 
G1 X90.983 Y89.012 
G1 X91.002 Y88.993 
G1 X91.034 Y88.959 
G1 X91.053 Y88.941 
G1 X91.392 Y89.28 F6000
G92 
G1 X91.978 Y88.702 
G1 X91.989 Y88.691 
G1 X92.013 Y88.668 
G1 X92.025 Y88.657 
G1 X92.633 Y88.103 
G1 X92.648 Y88.089 
G1 X92.679 Y88.062 
G1 X92.695 Y88.049 
G1 X93.637 Y87.27 
G1 X93.657 Y87.255 
G1 X93.695 Y87.225 
G1 X93.715 Y87.21 
G1 X94.702 Y86.488 
G1 X94.719 Y86.476 
G1 X94.752 Y86.452 
G1 X94.769 Y86.441 
G1 X95.456 Y85.989 
G1 X95.469 Y85.98 
G1 X95.497 Y85.963 
G1 X95.511 Y85.954 
G1 X96.215 Y85.529 
G1 X96.232 Y85.518 
G1 X96.268 Y85.498 
G1 X96.286 Y85.488 
G1 X97.362 Y84.908 
G1 X97.384 Y84.897 
G1 X97.428 Y84.875 
G1 X97.45 Y84.864 
G1 X98.559 Y84.349 
G1 X98.578 Y84.34 
G1 X98.615 Y84.324 
G1 X98.634 Y84.316 
G1 X99.396 Y84.006 
G1 X99.411 Y84 
G1 X99.441 Y83.989 
G1 X99.457 Y83.983 
G1 X100.23 Y83.703 
G1 X100.25 Y83.696 
G1 X100.288 Y83.684 
G1 X100.308 Y83.677 
G1 X101.477 Y83.319 
G1 X101.501 Y83.312 
G1 X101.548 Y83.299 
G1 X101.572 Y83.293 
G1 X102.759 Y83.003 
G1 X102.779 Y82.999 
G1 X102.819 Y82.99 
G1 X102.839 Y82.986 
G1 X103.647 Y82.831 
G1 X103.663 Y82.828 
G1 X103.695 Y82.822 
G1 X103.711 Y82.82 
G1 X104.52 Y82.697 
G1 X104.536 Y82.695 
G1 X104.568 Y82.69 
G1 X104.585 Y82.688 
G1 X105.409 Y82.596 
G1 X105.436 Y82.594 
G1 X105.49 Y82.589 
G1 X105.518 Y82.588 
G1 X107.405 Y82.501 
G1 X107.435 Y82.5 
G1 X107.495 Y82.5 
G1 X107.525 Y82.5 
G1 X108.624 Y82.529 
G1 X108.646 Y82.53 
G1 X108.689 Y82.532 
G1 X108.711 Y82.533 
G1 X109.798 Y82.619 
G1 X109.82 Y82.621 
G1 X109.863 Y82.626 
G1 X109.885 Y82.628 
G1 X110.966 Y82.77 
G1 X110.987 Y82.774 
G1 X111.03 Y82.78 
G1 X111.052 Y82.784 
G1 X112.125 Y82.983 
G1 X112.146 Y82.987 
G1 X112.189 Y82.996 
G1 X112.21 Y83.001 
G1 X113.271 Y83.256 
G1 X113.292 Y83.261 
G1 X113.334 Y83.272 
G1 X113.355 Y83.278 
G1 X114.401 Y83.588 
G1 X114.421 Y83.594 
G1 X114.463 Y83.608 
G1 X114.484 Y83.615 
G1 X115.512 Y83.979 
G1 X115.532 Y83.987 
G1 X115.573 Y84.002 
G1 X115.593 Y84.01 
G1 X116.601 Y84.428 
G1 X116.621 Y84.436 
G1 X116.661 Y84.454 
G1 X116.681 Y84.463 
G1 X117.665 Y84.933 
G1 X117.685 Y84.943 
G1 X117.724 Y84.962 
G1 X117.743 Y84.973 
G1 X118.701 Y85.493 
G1 X118.721 Y85.504 
G1 X118.758 Y85.525 
G1 X118.777 Y85.537 
G1 X119.707 Y86.106 
G1 X119.726 Y86.118 
G1 X119.762 Y86.142 
G1 X119.78 Y86.154 
G1 X120.679 Y86.772 
G1 X120.697 Y86.784 
G1 X120.732 Y86.81 
G1 X120.75 Y86.823 
G1 X121.615 Y87.487 
G1 X121.632 Y87.501 
G1 X121.666 Y87.528 
G1 X121.683 Y87.542 
G1 X122.512 Y88.25 
G1 X122.529 Y88.265 
G1 X122.561 Y88.294 
G1 X122.577 Y88.309 
G1 X123.368 Y89.059 
G1 X123.384 Y89.075 
G1 X123.415 Y89.105 
G1 X123.43 Y89.121 
G1 X124.174 Y89.905 
G1 X124.189 Y89.921 
G1 X124.218 Y89.953 
G1 X124.232 Y89.97 
G1 X124.941 Y90.798 
G1 X124.955 Y90.815 
G1 X124.982 Y90.849 
G1 X124.996 Y90.866 
G1 X125.66 Y91.731 
G1 X125.673 Y91.749 
G1 X125.699 Y91.784 
G1 X125.711 Y91.802 
G1 X126.329 Y92.7 
G1 X126.342 Y92.719 
G1 X126.365 Y92.755 
G1 X126.377 Y92.774 
G1 X126.947 Y93.703 
G1 X126.959 Y93.722 
G1 X126.98 Y93.76 
G1 X126.991 Y93.779 
G1 X127.512 Y94.737 
G1 X127.522 Y94.757 
G1 X127.542 Y94.795 
G1 X127.552 Y94.815 
G1 X128.022 Y95.799 
G1 X128.031 Y95.819 
G1 X128.049 Y95.859 
G1 X128.057 Y95.879 
G1 X128.475 Y96.886 
G1 X128.483 Y96.906 
G1 X128.499 Y96.947 
G1 X128.506 Y96.968 
G1 X128.871 Y97.995 
G1 X128.878 Y98.016 
G1 X128.891 Y98.057 
G1 X128.898 Y98.079 
G1 X129.208 Y99.124 
G1 X129.214 Y99.145 
G1 X129.225 Y99.187 
G1 X129.231 Y99.209 
G1 X129.486 Y100.269 
G1 X129.491 Y100.29 
G1 X129.5 Y100.332 
G1 X129.504 Y100.354 
G1 X129.703 Y101.427 
G1 X129.707 Y101.449 
G1 X129.714 Y101.492 
G1 X129.717 Y101.513 
G1 X129.86 Y102.594 
G1 X129.863 Y102.616 
G1 X129.867 Y102.659 
G1 X129.869 Y102.681 
G1 X129.955 Y103.768 
G1 X129.957 Y103.791 
G1 X129.959 Y103.834 
G1 X129.96 Y103.856 
G1 X129.989 Y104.956 
G1 X129.989 Y104.99 
G1 X129.989 Y105.055 
G1 X129.988 Y105.088 
G1 X129.875 Y107.253 
G1 X129.872 Y107.286 
G1 X129.867 Y107.351 
G1 X129.863 Y107.384 
G1 X129.72 Y108.472 
G1 X129.717 Y108.494 
G1 X129.71 Y108.536 
G1 X129.706 Y108.558 
G1 X129.508 Y109.63 
G1 X129.503 Y109.652 
G1 X129.494 Y109.694 
G1 X129.489 Y109.715 
G1 X129.235 Y110.776 
G1 X129.23 Y110.798 
G1 X129.218 Y110.84 
G1 X129.213 Y110.861 
G1 X128.903 Y111.906 
G1 X128.897 Y111.927 
G1 X128.883 Y111.968 
G1 X128.876 Y111.989 
G1 X128.512 Y113.017 
G1 X128.505 Y113.038 
G1 X128.489 Y113.078 
G1 X128.481 Y113.099 
G1 X128.064 Y114.107 
G1 X128.055 Y114.127 
G1 X128.038 Y114.167 
G1 X128.028 Y114.187 
G1 X127.559 Y115.171 
G1 X127.549 Y115.191 
G1 X127.53 Y115.229 
G1 X127.519 Y115.249 
G1 X126.999 Y116.207 
G1 X126.989 Y116.226 
G1 X126.967 Y116.264 
G1 X126.956 Y116.283 
G1 X126.386 Y117.213 
G1 X126.374 Y117.232 
G1 X126.351 Y117.268 
G1 X126.338 Y117.286 
G1 X125.721 Y118.185 
G1 X125.708 Y118.203 
G1 X125.683 Y118.239 
G1 X125.669 Y118.256 
G1 X125.006 Y119.121 
G1 X124.992 Y119.139 
G1 X124.965 Y119.172 
G1 X124.951 Y119.189 
G1 X124.243 Y120.019 
G1 X124.228 Y120.035 
G1 X124.199 Y120.068 
G1 X124.184 Y120.084 
G1 X123.438 Y120.871 
G1 X123.426 Y120.883 
G1 X123.403 Y120.906 
G1 X123.392 Y120.918 
G1 X122.99 Y121.309 
G1 X122.978 Y121.32 
G1 X122.954 Y121.343 
G1 X122.942 Y121.354 
G1 X122.135 Y122.081 
G1 X122.119 Y122.095 
G1 X122.086 Y122.123 
G1 X122.069 Y122.137 
G1 X121.221 Y122.824 
G1 X121.204 Y122.837 
G1 X121.169 Y122.864 
G1 X121.152 Y122.877 
G1 X120.27 Y123.518 
G1 X120.252 Y123.53 
G1 X120.216 Y123.555 
G1 X120.197 Y123.567 
G1 X119.283 Y124.161 
G1 X119.264 Y124.173 
G1 X119.227 Y124.196 
G1 X119.208 Y124.207 
G1 X118.264 Y124.752 
G1 X118.245 Y124.763 
G1 X118.206 Y124.784 
G1 X118.187 Y124.794 
G1 X117.215 Y125.289 
G1 X117.195 Y125.299 
G1 X117.156 Y125.318 
G1 X117.136 Y125.327 
G1 X116.145 Y125.768 
G1 X116.13 Y125.775 
G1 X116.1 Y125.787 
G1 X116.085 Y125.794 
G1 X115.568 Y126 
G1 X115.553 Y126.006 
G1 X115.522 Y126.017 
G1 X115.507 Y126.023 
G1 X114.484 Y126.385 
G1 X114.463 Y126.392 
G1 X114.421 Y126.406 
G1 X114.401 Y126.412 
G1 X113.355 Y126.722 
G1 X113.334 Y126.728 
G1 X113.292 Y126.739 
G1 X113.271 Y126.744 
G1 X112.21 Y126.999 
G1 X112.189 Y127.004 
G1 X112.146 Y127.013 
G1 X112.125 Y127.017 
G1 X111.052 Y127.216 
G1 X111.03 Y127.22 
G1 X110.987 Y127.226 
G1 X110.966 Y127.23 
G1 X109.885 Y127.372 
G1 X109.863 Y127.374 
G1 X109.82 Y127.379 
G1 X109.798 Y127.381 
G1 X108.711 Y127.467 
G1 X108.689 Y127.468 
G1 X108.646 Y127.47 
G1 X108.624 Y127.471 
G1 X107.506 Y127.5 
G1 X107.457 Y127.5 
G1 X107.359 Y127.497 
G1 X107.309 Y127.494 
G1 X103.57 Y127.15 
G1 X103.524 Y127.145 
G1 X103.432 Y127.131 
G1 X103.386 Y127.123 
G1 X102.556 Y126.952 
G1 X102.539 Y126.949 
G1 X102.508 Y126.942 
G1 X102.492 Y126.938 
G1 X101.695 Y126.741 
G1 X101.677 Y126.736 
G1 X101.64 Y126.726 
G1 X101.621 Y126.721 
G1 X100.578 Y126.412 
G1 X100.558 Y126.406 
G1 X100.516 Y126.392 
G1 X100.495 Y126.385 
G1 X99.467 Y126.021 
G1 X99.447 Y126.013 
G1 X99.406 Y125.998 
G1 X99.386 Y125.99 
G1 X98.38 Y125.573 
G1 X98.362 Y125.566 
G1 X98.328 Y125.55 
G1 X98.31 Y125.542 
G1 X97.565 Y125.193 
G1 X97.548 Y125.185 
G1 X97.514 Y125.168 
G1 X97.497 Y125.159 
G1 X96.534 Y124.652 
G1 X96.515 Y124.642 
G1 X96.477 Y124.621 
G1 X96.458 Y124.61 
G1 X95.52 Y124.052 
G1 X95.502 Y124.04 
G1 X95.465 Y124.017 
G1 X95.446 Y124.005 
G1 X94.542 Y123.401 
G1 X94.526 Y123.39 
G1 X94.495 Y123.368 
G1 X94.479 Y123.357 
G1 X93.816 Y122.869 
G1 X93.801 Y122.857 
G1 X93.771 Y122.834 
G1 X93.756 Y122.822 
G1 X92.91 Y122.137 
G1 X92.893 Y122.123 
G1 X92.86 Y122.095 
G1 X92.844 Y122.081 
G1 X92.034 Y121.351 
G1 X92.017 Y121.336 
G1 X91.986 Y121.306 
G1 X91.97 Y121.291 
G1 X91.201 Y120.521 
G1 X91.185 Y120.506 
G1 X91.155 Y120.474 
G1 X91.141 Y120.458 
G1 X90.411 Y119.648 
G1 X90.396 Y119.631 
G1 X90.368 Y119.598 
G1 X90.354 Y119.581 
G1 X89.669 Y118.736 
G1 X89.657 Y118.72 
G1 X89.634 Y118.69 
G1 X89.622 Y118.675 
G1 X89.134 Y118.012 
G1 X89.123 Y117.997 
G1 X89.101 Y117.966 
G1 X89.09 Y117.95 
G1 X88.486 Y117.045 
G1 X88.474 Y117.027 
G1 X88.45 Y116.99 
G1 X88.439 Y116.971 
G1 X87.883 Y116.037 
G1 X87.873 Y116.02 
G1 X87.854 Y115.987 
G1 X87.845 Y115.97 
G1 X87.457 Y115.244 
G1 X87.448 Y115.226 
G1 X87.431 Y115.192 
G1 X87.422 Y115.175 
G1 X86.954 Y114.194 
G1 X86.945 Y114.174 
G1 X86.927 Y114.134 
G1 X86.918 Y114.114 
G1 X86.501 Y113.107 
G1 X86.493 Y113.086 
G1 X86.477 Y113.046 
G1 X86.47 Y113.025 
G1 X86.106 Y112 
G1 X86.1 Y111.981 
G1 X86.088 Y111.945 
G1 X86.082 Y111.927 
G1 X85.843 Y111.139 
G1 X85.838 Y111.12 
G1 X85.828 Y111.084 
G1 X85.823 Y111.065 
G1 X85.554 Y110.008 
G1 X85.548 Y109.984 
G1 X85.538 Y109.937 
G1 X85.533 Y109.912 
G1 X85.271 Y108.548 
G1 X85.262 Y108.493 
G1 X85.248 Y108.382 
G1 X85.243 Y108.326 
G1 X85.011 Y104.169 
G1 X85.01 Y104.114 
G1 X85.011 Y104.005 
G1 X85.013 Y103.95 
G1 X85.108 Y102.702 
G1 X85.109 Y102.682 
G1 X85.113 Y102.642 
G1 X85.116 Y102.621 
G1 X85.218 Y101.805 
G1 X85.22 Y101.789 
G1 X85.225 Y101.757 
G1 X85.227 Y101.74 
G1 X85.36 Y100.933 
G1 X85.363 Y100.917 
G1 X85.369 Y100.885 
G1 X85.372 Y100.869 
G1 X85.538 Y100.064 
G1 X85.542 Y100.044 
G1 X85.551 Y100.004 
G1 X85.556 Y99.984 
G1 X85.86 Y98.803 
G1 X85.865 Y98.783 
G1 X85.877 Y98.744 
G1 X85.882 Y98.725 
G1 X86.126 Y97.94 
G1 X86.131 Y97.924 
G1 X86.141 Y97.893 
G1 X86.147 Y97.877 
G1 X86.421 Y97.102 
G1 X86.428 Y97.083 
G1 X86.443 Y97.045 
G1 X86.45 Y97.026 
G1 X86.915 Y95.895 
G1 X86.924 Y95.872 
G1 X86.944 Y95.827 
G1 X86.955 Y95.805 
G1 X87.484 Y94.703 
G1 X87.494 Y94.685 
G1 X87.512 Y94.648 
G1 X87.522 Y94.63 
G1 X87.914 Y93.908 
G1 X87.922 Y93.893 
G1 X87.938 Y93.865 
G1 X87.946 Y93.851 
G1 X88.367 Y93.144 
G1 X88.378 Y93.126 
G1 X88.399 Y93.092 
G1 X88.41 Y93.075 
G1 X89.084 Y92.059 
G1 X89.096 Y92.042 
G1 X89.119 Y92.009 
G1 X89.131 Y91.992 
G1 X89.621 Y91.327 
G1 X89.633 Y91.311 
G1 X89.658 Y91.279 
G1 X89.671 Y91.262 
G1 X90.444 Y90.314 
G1 X90.46 Y90.295 
G1 X90.492 Y90.258 
G1 X90.508 Y90.24 
G1 X91.335 Y89.339 
G1 X91.349 Y89.324 
G1 X91.378 Y89.295 
G1 X91.392 Y89.28 
G1 X91.731 Y89.62 F6000
G92 
G1 X92.313 Y89.045 
G1 X92.322 Y89.037 
G1 X92.342 Y89.018 
G1 X92.351 Y89.01 
G1 X92.954 Y88.459 
G1 X92.965 Y88.449 
G1 X92.991 Y88.427 
G1 X93.003 Y88.417 
G1 X93.94 Y87.642 
G1 X93.954 Y87.631 
G1 X93.987 Y87.606 
G1 X94.001 Y87.595 
G1 X94.983 Y86.877 
G1 X94.995 Y86.868 
G1 X95.023 Y86.848 
G1 X95.036 Y86.84 
G1 X95.718 Y86.391 
G1 X95.727 Y86.385 
G1 X95.751 Y86.37 
G1 X95.761 Y86.363 
G1 X96.46 Y85.941 
G1 X96.473 Y85.934 
G1 X96.503 Y85.917 
G1 X96.516 Y85.909 
G1 X97.587 Y85.333 
G1 X97.603 Y85.324 
G1 X97.64 Y85.306 
G1 X97.656 Y85.298 
G1 X98.759 Y84.785 
G1 X98.772 Y84.779 
G1 X98.804 Y84.765 
G1 X98.818 Y84.759 
G1 X99.574 Y84.452 
G1 X99.585 Y84.448 
G1 X99.611 Y84.438 
G1 X99.622 Y84.433 
G1 X100.39 Y84.156 
G1 X100.404 Y84.151 
G1 X100.438 Y84.14 
G1 X100.451 Y84.135 
G1 X101.614 Y83.779 
G1 X101.631 Y83.774 
G1 X101.672 Y83.762 
G1 X101.689 Y83.758 
G1 X102.87 Y83.47 
G1 X102.884 Y83.467 
G1 X102.918 Y83.46 
G1 X102.933 Y83.457 
G1 X103.735 Y83.303 
G1 X103.747 Y83.3 
G1 X103.774 Y83.296 
G1 X103.786 Y83.294 
G1 X104.59 Y83.172 
G1 X104.601 Y83.17 
G1 X104.629 Y83.167 
G1 X104.641 Y83.165 
G1 X105.458 Y83.074 
G1 X105.478 Y83.072 
G1 X105.524 Y83.068 
G1 X105.544 Y83.067 
G1 X107.423 Y82.981 
G1 X107.444 Y82.98 
G1 X107.495 Y82.98 
G1 X107.517 Y82.98 
G1 X108.608 Y83.009 
G1 X108.624 Y83.009 
G1 X108.661 Y83.011 
G1 X108.676 Y83.012 
G1 X109.757 Y83.097 
G1 X109.773 Y83.099 
G1 X109.81 Y83.103 
G1 X109.825 Y83.104 
G1 X110.9 Y83.246 
G1 X110.915 Y83.248 
G1 X110.952 Y83.254 
G1 X110.968 Y83.257 
G1 X112.034 Y83.454 
G1 X112.049 Y83.457 
G1 X112.086 Y83.465 
G1 X112.101 Y83.469 
G1 X113.156 Y83.722 
G1 X113.171 Y83.726 
G1 X113.207 Y83.735 
G1 X113.222 Y83.739 
G1 X114.261 Y84.047 
G1 X114.276 Y84.052 
G1 X114.311 Y84.063 
G1 X114.327 Y84.068 
G1 X115.349 Y84.43 
G1 X115.363 Y84.436 
G1 X115.398 Y84.449 
G1 X115.413 Y84.455 
G1 X116.414 Y84.87 
G1 X116.429 Y84.876 
G1 X116.463 Y84.891 
G1 X116.477 Y84.898 
G1 X117.456 Y85.365 
G1 X117.47 Y85.372 
G1 X117.503 Y85.389 
G1 X117.517 Y85.396 
G1 X118.47 Y85.913 
G1 X118.483 Y85.921 
G1 X118.516 Y85.939 
G1 X118.529 Y85.947 
G1 X119.454 Y86.514 
G1 X119.467 Y86.522 
G1 X119.498 Y86.543 
G1 X119.511 Y86.551 
G1 X120.405 Y87.165 
G1 X120.417 Y87.174 
G1 X120.447 Y87.196 
G1 X120.46 Y87.206 
G1 X121.32 Y87.866 
G1 X121.333 Y87.876 
G1 X121.362 Y87.899 
G1 X121.374 Y87.909 
G1 X122.198 Y88.613 
G1 X122.21 Y88.624 
G1 X122.238 Y88.648 
G1 X122.249 Y88.659 
G1 X123.036 Y89.405 
G1 X123.047 Y89.416 
G1 X123.073 Y89.443 
G1 X123.084 Y89.454 
G1 X123.824 Y90.233 
G1 X123.834 Y90.245 
G1 X123.859 Y90.272 
G1 X123.869 Y90.284 
G1 X124.574 Y91.108 
G1 X124.584 Y91.12 
G1 X124.607 Y91.149 
G1 X124.617 Y91.161 
G1 X125.277 Y92.021 
G1 X125.287 Y92.033 
G1 X125.309 Y92.064 
G1 X125.318 Y92.076 
G1 X125.932 Y92.97 
G1 X125.941 Y92.983 
G1 X125.961 Y93.014 
G1 X125.97 Y93.027 
G1 X126.537 Y93.952 
G1 X126.545 Y93.965 
G1 X126.563 Y93.997 
G1 X126.571 Y94.011 
G1 X127.089 Y94.963 
G1 X127.096 Y94.977 
G1 X127.113 Y95.011 
G1 X127.12 Y95.025 
G1 X127.587 Y96.003 
G1 X127.594 Y96.017 
G1 X127.609 Y96.051 
G1 X127.615 Y96.066 
G1 X128.03 Y97.067 
G1 X128.036 Y97.082 
G1 X128.05 Y97.116 
G1 X128.055 Y97.131 
G1 X128.417 Y98.153 
G1 X128.422 Y98.168 
G1 X128.434 Y98.203 
G1 X128.439 Y98.218 
G1 X128.747 Y99.258 
G1 X128.751 Y99.273 
G1 X128.761 Y99.309 
G1 X128.765 Y99.324 
G1 X129.019 Y100.378 
G1 X129.022 Y100.393 
G1 X129.03 Y100.43 
G1 X129.033 Y100.445 
G1 X129.231 Y101.511 
G1 X129.234 Y101.527 
G1 X129.239 Y101.564 
G1 X129.242 Y101.579 
G1 X129.384 Y102.654 
G1 X129.386 Y102.67 
G1 X129.389 Y102.707 
G1 X129.391 Y102.722 
G1 X129.477 Y103.803 
G1 X129.478 Y103.819 
G1 X129.48 Y103.856 
G1 X129.48 Y103.872 
G1 X129.509 Y104.965 
G1 X129.509 Y104.988 
G1 X129.509 Y105.044 
G1 X129.508 Y105.068 
G1 X129.396 Y107.224 
G1 X129.394 Y107.247 
G1 X129.389 Y107.303 
G1 X129.386 Y107.326 
G1 X129.244 Y108.406 
G1 X129.242 Y108.422 
G1 X129.236 Y108.458 
G1 X129.234 Y108.473 
G1 X129.036 Y109.54 
G1 X129.033 Y109.555 
G1 X129.025 Y109.591 
G1 X129.022 Y109.607 
G1 X128.769 Y110.661 
G1 X128.765 Y110.676 
G1 X128.756 Y110.712 
G1 X128.751 Y110.727 
G1 X128.444 Y111.767 
G1 X128.439 Y111.782 
G1 X128.428 Y111.817 
G1 X128.423 Y111.832 
G1 X128.061 Y112.854 
G1 X128.055 Y112.869 
G1 X128.042 Y112.904 
G1 X128.036 Y112.918 
G1 X127.622 Y113.92 
G1 X127.615 Y113.935 
G1 X127.6 Y113.969 
G1 X127.594 Y113.983 
G1 X127.127 Y114.962 
G1 X127.12 Y114.976 
G1 X127.103 Y115.009 
G1 X127.096 Y115.023 
G1 X126.579 Y115.976 
G1 X126.571 Y115.989 
G1 X126.553 Y116.021 
G1 X126.545 Y116.035 
G1 X125.978 Y116.96 
G1 X125.97 Y116.973 
G1 X125.95 Y117.004 
G1 X125.941 Y117.017 
G1 X125.327 Y117.911 
G1 X125.318 Y117.924 
G1 X125.296 Y117.954 
G1 X125.287 Y117.966 
G1 X124.627 Y118.827 
G1 X124.617 Y118.839 
G1 X124.594 Y118.868 
G1 X124.584 Y118.88 
G1 X123.88 Y119.705 
G1 X123.869 Y119.717 
G1 X123.844 Y119.744 
G1 X123.834 Y119.756 
G1 X123.091 Y120.539 
G1 X123.083 Y120.547 
G1 X123.063 Y120.567 
G1 X123.055 Y120.576 
G1 X122.656 Y120.964 
G1 X122.648 Y120.972 
G1 X122.628 Y120.991 
G1 X122.619 Y120.999 
G1 X121.816 Y121.722 
G1 X121.805 Y121.732 
G1 X121.776 Y121.756 
G1 X121.764 Y121.766 
G1 X120.922 Y122.449 
G1 X120.909 Y122.458 
G1 X120.88 Y122.481 
G1 X120.867 Y122.49 
G1 X119.99 Y123.128 
G1 X119.977 Y123.137 
G1 X119.947 Y123.158 
G1 X119.933 Y123.166 
G1 X119.024 Y123.757 
G1 X119.011 Y123.765 
G1 X118.979 Y123.785 
G1 X118.966 Y123.793 
G1 X118.027 Y124.335 
G1 X118.013 Y124.343 
G1 X117.98 Y124.36 
G1 X117.966 Y124.368 
G1 X117 Y124.86 
G1 X116.986 Y124.867 
G1 X116.952 Y124.883 
G1 X116.938 Y124.89 
G1 X115.952 Y125.329 
G1 X115.941 Y125.333 
G1 X115.915 Y125.344 
G1 X115.905 Y125.349 
G1 X115.392 Y125.553 
G1 X115.382 Y125.557 
G1 X115.355 Y125.567 
G1 X115.344 Y125.571 
G1 X114.327 Y125.931 
G1 X114.311 Y125.937 
G1 X114.276 Y125.948 
G1 X114.261 Y125.953 
G1 X113.222 Y126.261 
G1 X113.207 Y126.265 
G1 X113.171 Y126.274 
G1 X113.156 Y126.278 
G1 X112.101 Y126.531 
G1 X112.086 Y126.535 
G1 X112.049 Y126.543 
G1 X112.034 Y126.546 
G1 X110.968 Y126.743 
G1 X110.952 Y126.746 
G1 X110.916 Y126.752 
G1 X110.9 Y126.754 
G1 X109.825 Y126.896 
G1 X109.81 Y126.897 
G1 X109.773 Y126.901 
G1 X109.757 Y126.903 
G1 X108.676 Y126.988 
G1 X108.661 Y126.989 
G1 X108.624 Y126.991 
G1 X108.608 Y126.991 
G1 X107.501 Y127.02 
G1 X107.465 Y127.02 
G1 X107.382 Y127.018 
G1 X107.346 Y127.015 
G1 X103.621 Y126.673 
G1 X103.588 Y126.669 
G1 X103.509 Y126.657 
G1 X103.476 Y126.652 
G1 X102.655 Y126.483 
G1 X102.643 Y126.48 
G1 X102.616 Y126.474 
G1 X102.605 Y126.471 
G1 X101.813 Y126.276 
G1 X101.8 Y126.272 
G1 X101.768 Y126.264 
G1 X101.755 Y126.26 
G1 X100.718 Y125.953 
G1 X100.703 Y125.948 
G1 X100.668 Y125.937 
G1 X100.652 Y125.931 
G1 X99.63 Y125.57 
G1 X99.616 Y125.564 
G1 X99.581 Y125.551 
G1 X99.566 Y125.545 
G1 X98.567 Y125.131 
G1 X98.554 Y125.125 
G1 X98.524 Y125.112 
G1 X98.512 Y125.107 
G1 X97.771 Y124.759 
G1 X97.759 Y124.754 
G1 X97.73 Y124.739 
G1 X97.718 Y124.733 
G1 X96.76 Y124.229 
G1 X96.746 Y124.222 
G1 X96.714 Y124.203 
G1 X96.7 Y124.195 
G1 X95.768 Y123.641 
G1 X95.755 Y123.633 
G1 X95.724 Y123.613 
G1 X95.71 Y123.604 
G1 X94.811 Y123.003 
G1 X94.799 Y122.996 
G1 X94.773 Y122.977 
G1 X94.762 Y122.969 
G1 X94.103 Y122.484 
G1 X94.092 Y122.476 
G1 X94.067 Y122.456 
G1 X94.056 Y122.447 
G1 X93.215 Y121.766 
G1 X93.203 Y121.756 
G1 X93.174 Y121.732 
G1 X93.163 Y121.722 
G1 X92.357 Y120.996 
G1 X92.346 Y120.986 
G1 X92.319 Y120.96 
G1 X92.307 Y120.949 
G1 X91.542 Y120.184 
G1 X91.531 Y120.173 
G1 X91.506 Y120.146 
G1 X91.495 Y120.134 
G1 X90.77 Y119.329 
G1 X90.759 Y119.317 
G1 X90.735 Y119.289 
G1 X90.725 Y119.277 
G1 X90.044 Y118.436 
G1 X90.035 Y118.425 
G1 X90.015 Y118.399 
G1 X90.007 Y118.388 
G1 X89.522 Y117.73 
G1 X89.514 Y117.719 
G1 X89.495 Y117.692 
G1 X89.488 Y117.681 
G1 X88.886 Y116.781 
G1 X88.878 Y116.768 
G1 X88.858 Y116.737 
G1 X88.85 Y116.723 
G1 X88.297 Y115.794 
G1 X88.29 Y115.782 
G1 X88.274 Y115.753 
G1 X88.267 Y115.741 
G1 X87.881 Y115.02 
G1 X87.875 Y115.008 
G1 X87.86 Y114.978 
G1 X87.854 Y114.966 
G1 X87.388 Y113.99 
G1 X87.382 Y113.976 
G1 X87.367 Y113.942 
G1 X87.361 Y113.927 
G1 X86.946 Y112.926 
G1 X86.94 Y112.911 
G1 X86.926 Y112.877 
G1 X86.921 Y112.862 
G1 X86.56 Y111.842 
G1 X86.555 Y111.829 
G1 X86.545 Y111.798 
G1 X86.541 Y111.785 
G1 X86.303 Y111.002 
G1 X86.3 Y110.989 
G1 X86.291 Y110.958 
G1 X86.287 Y110.944 
G1 X86.02 Y109.894 
G1 X86.016 Y109.876 
G1 X86.007 Y109.836 
G1 X86.003 Y109.818 
G1 X85.743 Y108.466 
G1 X85.737 Y108.426 
G1 X85.725 Y108.331 
G1 X85.722 Y108.291 
G1 X85.491 Y104.15 
G1 X85.49 Y104.111 
G1 X85.491 Y104.018 
G1 X85.493 Y103.979 
G1 X85.586 Y102.741 
G1 X85.587 Y102.727 
G1 X85.591 Y102.692 
G1 X85.592 Y102.677 
G1 X85.694 Y101.867 
G1 X85.695 Y101.855 
G1 X85.699 Y101.828 
G1 X85.701 Y101.816 
G1 X85.833 Y101.014 
G1 X85.835 Y101.002 
G1 X85.841 Y100.974 
G1 X85.843 Y100.963 
G1 X86.007 Y100.163 
G1 X86.01 Y100.149 
G1 X86.018 Y100.115 
G1 X86.022 Y100.101 
G1 X86.324 Y98.926 
G1 X86.328 Y98.912 
G1 X86.338 Y98.878 
G1 X86.342 Y98.864 
G1 X86.584 Y98.084 
G1 X86.587 Y98.073 
G1 X86.596 Y98.047 
G1 X86.6 Y98.035 
G1 X86.873 Y97.265 
G1 X86.878 Y97.251 
G1 X86.89 Y97.219 
G1 X86.896 Y97.205 
G1 X87.357 Y96.08 
G1 X87.364 Y96.064 
G1 X87.381 Y96.026 
G1 X87.389 Y96.01 
G1 X87.916 Y94.914 
G1 X87.922 Y94.9 
G1 X87.938 Y94.869 
G1 X87.945 Y94.856 
G1 X88.335 Y94.139 
G1 X88.34 Y94.128 
G1 X88.354 Y94.104 
G1 X88.36 Y94.094 
G1 X88.778 Y93.392 
G1 X88.786 Y93.379 
G1 X88.804 Y93.35 
G1 X88.812 Y93.337 
G1 X89.482 Y92.327 
G1 X89.491 Y92.315 
G1 X89.511 Y92.286 
G1 X89.519 Y92.274 
G1 X90.005 Y91.614 
G1 X90.014 Y91.602 
G1 X90.036 Y91.575 
G1 X90.045 Y91.563 
G1 X90.813 Y90.62 
G1 X90.825 Y90.606 
G1 X90.852 Y90.575 
G1 X90.864 Y90.562 
G1 X91.687 Y89.666 
G1 X91.697 Y89.655 
G1 X91.721 Y89.63 
G1 X91.731 Y89.62 
G1 X92.071 Y89.959 F6000
G92 
G1 X92.649 Y89.388 
G1 X92.654 Y89.384 
G1 X92.671 Y89.368 
G1 X92.676 Y89.363 
G1 X93.275 Y88.816 
G1 X93.282 Y88.81 
G1 X93.304 Y88.791 
G1 X93.311 Y88.785 
G1 X94.243 Y88.015 
G1 X94.252 Y88.008 
G1 X94.279 Y87.987 
G1 X94.287 Y87.98 
G1 X95.264 Y87.266 
G1 X95.271 Y87.261 
G1 X95.295 Y87.244 
G1 X95.302 Y87.239 
G1 X95.98 Y86.793 
G1 X95.986 Y86.789 
G1 X96.005 Y86.777 
G1 X96.011 Y86.773 
G1 X96.706 Y86.354 
G1 X96.713 Y86.349 
G1 X96.739 Y86.335 
G1 X96.746 Y86.331 
G1 X97.811 Y85.757 
G1 X97.821 Y85.752 
G1 X97.852 Y85.736 
G1 X97.861 Y85.732 
G1 X98.958 Y85.222 
G1 X98.966 Y85.218 
G1 X98.993 Y85.206 
G1 X99.001 Y85.203 
G1 X99.753 Y84.897 
G1 X99.759 Y84.895 
G1 X99.781 Y84.887 
G1 X99.788 Y84.884 
G1 X100.551 Y84.608 
G1 X100.559 Y84.605 
G1 X100.587 Y84.596 
G1 X100.595 Y84.593 
G1 X101.752 Y84.238 
G1 X101.762 Y84.235 
G1 X101.795 Y84.226 
G1 X101.806 Y84.224 
G1 X102.981 Y83.937 
G1 X102.989 Y83.935 
G1 X103.018 Y83.929 
G1 X103.026 Y83.927 
G1 X103.823 Y83.774 
G1 X103.83 Y83.773 
G1 X103.853 Y83.769 
G1 X103.86 Y83.768 
G1 X104.659 Y83.647 
G1 X104.666 Y83.646 
G1 X104.689 Y83.643 
G1 X104.696 Y83.642 
G1 X105.508 Y83.551 
G1 X105.519 Y83.55 
G1 X105.558 Y83.547 
G1 X105.57 Y83.546 
G1 X107.44 Y83.461 
G1 X107.453 Y83.46 
G1 X107.496 Y83.46 
G1 X107.509 Y83.46 
G1 X108.592 Y83.488 
G1 X108.602 Y83.489 
G1 X108.632 Y83.49 
G1 X108.642 Y83.491 
G1 X109.716 Y83.576 
G1 X109.726 Y83.576 
G1 X109.756 Y83.58 
G1 X109.766 Y83.581 
G1 X110.834 Y83.721 
G1 X110.844 Y83.723 
G1 X110.874 Y83.728 
G1 X110.884 Y83.729 
G1 X111.944 Y83.926 
G1 X111.953 Y83.927 
G1 X111.983 Y83.934 
G1 X111.992 Y83.936 
G1 X113.04 Y84.188 
G1 X113.05 Y84.19 
G1 X113.079 Y84.198 
G1 X113.088 Y84.201 
G1 X114.122 Y84.507 
G1 X114.131 Y84.509 
G1 X114.16 Y84.519 
G1 X114.169 Y84.522 
G1 X115.185 Y84.882 
G1 X115.194 Y84.885 
G1 X115.223 Y84.896 
G1 X115.232 Y84.9 
G1 X116.228 Y85.312 
G1 X116.236 Y85.316 
G1 X116.265 Y85.329 
G1 X116.273 Y85.332 
G1 X117.246 Y85.797 
G1 X117.255 Y85.801 
G1 X117.282 Y85.815 
G1 X117.291 Y85.819 
G1 X118.238 Y86.333 
G1 X118.246 Y86.338 
G1 X118.273 Y86.354 
G1 X118.281 Y86.358 
G1 X119.2 Y86.922 
G1 X119.208 Y86.927 
G1 X119.234 Y86.943 
G1 X119.242 Y86.949 
G1 X120.13 Y87.559 
G1 X120.138 Y87.565 
G1 X120.163 Y87.583 
G1 X120.17 Y87.588 
G1 X121.026 Y88.245 
G1 X121.033 Y88.251 
G1 X121.057 Y88.27 
G1 X121.064 Y88.276 
G1 X121.884 Y88.976 
G1 X121.891 Y88.982 
G1 X121.914 Y89.003 
G1 X121.921 Y89.009 
G1 X122.703 Y89.751 
G1 X122.71 Y89.758 
G1 X122.731 Y89.78 
G1 X122.738 Y89.787 
G1 X123.473 Y90.562 
G1 X123.48 Y90.568 
G1 X123.5 Y90.591 
G1 X123.506 Y90.598 
G1 X124.207 Y91.417 
G1 X124.213 Y91.425 
G1 X124.232 Y91.449 
G1 X124.238 Y91.456 
G1 X124.895 Y92.311 
G1 X124.9 Y92.318 
G1 X124.919 Y92.343 
G1 X124.924 Y92.351 
G1 X125.535 Y93.239 
G1 X125.54 Y93.247 
G1 X125.557 Y93.273 
G1 X125.562 Y93.281 
G1 X126.126 Y94.2 
G1 X126.131 Y94.208 
G1 X126.146 Y94.235 
G1 X126.151 Y94.243 
G1 X126.665 Y95.19 
G1 X126.67 Y95.198 
G1 X126.684 Y95.226 
G1 X126.688 Y95.234 
G1 X127.153 Y96.207 
G1 X127.157 Y96.216 
G1 X127.169 Y96.244 
G1 X127.173 Y96.252 
G1 X127.586 Y97.248 
G1 X127.589 Y97.257 
G1 X127.6 Y97.286 
G1 X127.604 Y97.295 
G1 X127.964 Y98.31 
G1 X127.967 Y98.319 
G1 X127.977 Y98.349 
G1 X127.979 Y98.358 
G1 X128.286 Y99.391 
G1 X128.289 Y99.4 
G1 X128.297 Y99.43 
G1 X128.299 Y99.439 
G1 X128.551 Y100.487 
G1 X128.553 Y100.496 
G1 X128.56 Y100.527 
G1 X128.561 Y100.536 
G1 X128.758 Y101.596 
G1 X128.76 Y101.605 
G1 X128.765 Y101.636 
G1 X128.766 Y101.645 
G1 X128.907 Y102.714 
G1 X128.909 Y102.723 
G1 X128.912 Y102.754 
G1 X128.913 Y102.763 
G1 X128.998 Y103.838 
G1 X128.998 Y103.847 
G1 X129 Y103.878 
G1 X129 Y103.887 
G1 X129.029 Y104.973 
G1 X129.029 Y104.987 
G1 X129.029 Y105.033 
G1 X129.028 Y105.047 
G1 X128.917 Y107.194 
G1 X128.916 Y107.208 
G1 X128.911 Y107.254 
G1 X128.91 Y107.268 
G1 X128.769 Y108.34 
G1 X128.767 Y108.35 
G1 X128.763 Y108.38 
G1 X128.761 Y108.389 
G1 X128.565 Y109.449 
G1 X128.563 Y109.458 
G1 X128.557 Y109.489 
G1 X128.555 Y109.498 
G1 X128.303 Y110.546 
G1 X128.301 Y110.555 
G1 X128.293 Y110.585 
G1 X128.29 Y110.594 
G1 X127.984 Y111.628 
G1 X127.982 Y111.637 
G1 X127.972 Y111.666 
G1 X127.969 Y111.675 
G1 X127.609 Y112.691 
G1 X127.606 Y112.7 
G1 X127.595 Y112.729 
G1 X127.592 Y112.738 
G1 X127.179 Y113.734 
G1 X127.176 Y113.742 
G1 X127.163 Y113.771 
G1 X127.159 Y113.779 
G1 X126.695 Y114.752 
G1 X126.691 Y114.761 
G1 X126.677 Y114.788 
G1 X126.673 Y114.796 
G1 X126.159 Y115.744 
G1 X126.154 Y115.752 
G1 X126.138 Y115.779 
G1 X126.134 Y115.787 
G1 X125.571 Y116.706 
G1 X125.566 Y116.714 
G1 X125.549 Y116.74 
G1 X125.544 Y116.748 
G1 X124.933 Y117.637 
G1 X124.928 Y117.644 
G1 X124.91 Y117.669 
G1 X124.904 Y117.677 
G1 X124.248 Y118.532 
G1 X124.242 Y118.54 
G1 X124.223 Y118.564 
G1 X124.217 Y118.571 
G1 X123.517 Y119.391 
G1 X123.51 Y119.398 
G1 X123.49 Y119.421 
G1 X123.483 Y119.428 
G1 X122.744 Y120.207 
G1 X122.739 Y120.212 
G1 X122.723 Y120.228 
G1 X122.718 Y120.233 
G1 X122.323 Y120.618 
G1 X122.318 Y120.623 
G1 X122.301 Y120.639 
G1 X122.296 Y120.644 
G1 X121.497 Y121.363 
G1 X121.49 Y121.369 
G1 X121.467 Y121.389 
G1 X121.46 Y121.395 
G1 X120.622 Y122.074 
G1 X120.615 Y122.079 
G1 X120.59 Y122.098 
G1 X120.582 Y122.104 
G1 X119.71 Y122.737 
G1 X119.703 Y122.743 
G1 X119.677 Y122.76 
G1 X119.669 Y122.766 
G1 X118.765 Y123.353 
G1 X118.757 Y123.358 
G1 X118.731 Y123.374 
G1 X118.723 Y123.379 
G1 X117.789 Y123.918 
G1 X117.781 Y123.922 
G1 X117.754 Y123.937 
G1 X117.746 Y123.941 
G1 X116.785 Y124.431 
G1 X116.777 Y124.435 
G1 X116.749 Y124.448 
G1 X116.74 Y124.452 
G1 X115.759 Y124.889 
G1 X115.752 Y124.892 
G1 X115.731 Y124.901 
G1 X115.725 Y124.904 
G1 X115.217 Y125.106 
G1 X115.21 Y125.109 
G1 X115.189 Y125.117 
G1 X115.182 Y125.119 
G1 X114.169 Y125.478 
G1 X114.16 Y125.481 
G1 X114.131 Y125.491 
G1 X114.122 Y125.493 
G1 X113.088 Y125.799 
G1 X113.079 Y125.802 
G1 X113.05 Y125.81 
G1 X113.04 Y125.812 
G1 X111.992 Y126.064 
G1 X111.983 Y126.066 
G1 X111.953 Y126.073 
G1 X111.944 Y126.074 
G1 X110.884 Y126.271 
G1 X110.874 Y126.272 
G1 X110.844 Y126.277 
G1 X110.834 Y126.279 
G1 X109.766 Y126.419 
G1 X109.756 Y126.42 
G1 X109.726 Y126.424 
G1 X109.716 Y126.424 
G1 X108.642 Y126.509 
G1 X108.632 Y126.51 
G1 X108.602 Y126.511 
G1 X108.592 Y126.512 
G1 X107.495 Y126.54 
G1 X107.474 Y126.54 
G1 X107.404 Y126.538 
G1 X107.383 Y126.537 
G1 X103.671 Y126.196 
G1 X103.651 Y126.193 
G1 X103.586 Y126.184 
G1 X103.567 Y126.18 
G1 X102.754 Y126.013 
G1 X102.747 Y126.011 
G1 X102.724 Y126.006 
G1 X102.717 Y126.005 
G1 X101.931 Y125.81 
G1 X101.923 Y125.808 
G1 X101.897 Y125.801 
G1 X101.889 Y125.799 
G1 X100.857 Y125.493 
G1 X100.848 Y125.491 
G1 X100.819 Y125.481 
G1 X100.81 Y125.478 
G1 X99.794 Y125.118 
G1 X99.785 Y125.115 
G1 X99.756 Y125.104 
G1 X99.747 Y125.1 
G1 X98.753 Y124.688 
G1 X98.745 Y124.685 
G1 X98.72 Y124.674 
G1 X98.713 Y124.671 
G1 X97.978 Y124.326 
G1 X97.97 Y124.322 
G1 X97.946 Y124.31 
G1 X97.939 Y124.307 
G1 X96.986 Y123.806 
G1 X96.978 Y123.801 
G1 X96.951 Y123.786 
G1 X96.943 Y123.781 
G1 X96.017 Y123.23 
G1 X96.009 Y123.225 
G1 X95.982 Y123.209 
G1 X95.974 Y123.204 
G1 X95.08 Y122.606 
G1 X95.073 Y122.601 
G1 X95.051 Y122.586 
G1 X95.044 Y122.581 
G1 X94.39 Y122.099 
G1 X94.384 Y122.094 
G1 X94.362 Y122.078 
G1 X94.356 Y122.072 
G1 X93.519 Y121.395 
G1 X93.512 Y121.389 
G1 X93.489 Y121.369 
G1 X93.482 Y121.363 
G1 X92.681 Y120.642 
G1 X92.674 Y120.635 
G1 X92.651 Y120.614 
G1 X92.644 Y120.607 
G1 X91.884 Y119.847 
G1 X91.877 Y119.84 
G1 X91.856 Y119.818 
G1 X91.85 Y119.811 
G1 X91.128 Y119.01 
G1 X91.122 Y119.003 
G1 X91.102 Y118.979 
G1 X91.096 Y118.972 
G1 X90.419 Y118.136 
G1 X90.413 Y118.129 
G1 X90.397 Y118.108 
G1 X90.392 Y118.101 
G1 X89.91 Y117.447 
G1 X89.905 Y117.441 
G1 X89.89 Y117.419 
G1 X89.885 Y117.412 
G1 X89.287 Y116.517 
G1 X89.282 Y116.509 
G1 X89.266 Y116.483 
G1 X89.261 Y116.475 
G1 X88.71 Y115.55 
G1 X88.706 Y115.543 
G1 X88.693 Y115.52 
G1 X88.689 Y115.513 
G1 X88.306 Y114.796 
G1 X88.302 Y114.789 
G1 X88.29 Y114.764 
G1 X88.286 Y114.757 
G1 X87.823 Y113.786 
G1 X87.819 Y113.778 
G1 X87.807 Y113.749 
G1 X87.803 Y113.741 
G1 X87.39 Y112.745 
G1 X87.387 Y112.736 
G1 X87.376 Y112.707 
G1 X87.372 Y112.698 
G1 X87.013 Y111.684 
G1 X87.01 Y111.676 
G1 X87.002 Y111.651 
G1 X86.999 Y111.643 
G1 X86.763 Y110.865 
G1 X86.761 Y110.857 
G1 X86.754 Y110.831 
G1 X86.752 Y110.823 
G1 X86.486 Y109.779 
G1 X86.484 Y109.768 
G1 X86.476 Y109.734 
G1 X86.474 Y109.724 
G1 X86.216 Y108.383 
G1 X86.213 Y108.359 
G1 X86.203 Y108.28 
G1 X86.201 Y108.256 
G1 X85.971 Y104.131 
G1 X85.97 Y104.108 
G1 X85.971 Y104.03 
G1 X85.972 Y104.007 
G1 X86.064 Y102.78 
G1 X86.065 Y102.772 
G1 X86.068 Y102.743 
G1 X86.069 Y102.734 
G1 X86.17 Y101.929 
G1 X86.171 Y101.922 
G1 X86.174 Y101.899 
G1 X86.175 Y101.892 
G1 X86.307 Y101.094 
G1 X86.308 Y101.087 
G1 X86.312 Y101.064 
G1 X86.313 Y101.058 
G1 X86.477 Y100.263 
G1 X86.479 Y100.254 
G1 X86.485 Y100.226 
G1 X86.487 Y100.217 
G1 X86.788 Y99.049 
G1 X86.791 Y99.04 
G1 X86.799 Y99.012 
G1 X86.801 Y99.004 
G1 X87.042 Y98.229 
G1 X87.044 Y98.222 
G1 X87.051 Y98.2 
G1 X87.053 Y98.193 
G1 X87.324 Y97.428 
G1 X87.327 Y97.42 
G1 X87.338 Y97.393 
G1 X87.341 Y97.385 
G1 X87.8 Y96.266 
G1 X87.804 Y96.256 
G1 X87.818 Y96.224 
G1 X87.823 Y96.215 
G1 X88.347 Y95.124 
G1 X88.351 Y95.116 
G1 X88.364 Y95.091 
G1 X88.368 Y95.083 
G1 X88.755 Y94.37 
G1 X88.759 Y94.364 
G1 X88.77 Y94.343 
G1 X88.774 Y94.337 
G1 X89.189 Y93.64 
G1 X89.193 Y93.632 
G1 X89.209 Y93.608 
G1 X89.214 Y93.6 
G1 X89.881 Y92.595 
G1 X89.886 Y92.587 
G1 X89.902 Y92.564 
G1 X89.907 Y92.556 
G1 X90.39 Y91.901 
G1 X90.395 Y91.894 
G1 X90.413 Y91.871 
G1 X90.419 Y91.864 
G1 X91.183 Y90.926 
G1 X91.19 Y90.918 
G1 X91.213 Y90.892 
G1 X91.22 Y90.884 
G1 X92.038 Y89.993 
G1 X92.044 Y89.986 
G1 X92.064 Y89.965 
G1 X92.071 Y89.959 
G1 X92.41 Y90.299 F6000
G92 
G1 X92.984 Y89.732 
G1 X92.986 Y89.73 
G1 X92.999 Y89.717 
G1 X93.001 Y89.716 
G1 X93.597 Y89.172 
G1 X93.599 Y89.17 
G1 X93.616 Y89.155 
G1 X93.619 Y89.153 
G1 X94.546 Y88.387 
G1 X94.549 Y88.385 
G1 X94.571 Y88.368 
G1 X94.574 Y88.366 
G1 X95.545 Y87.655 
G1 X95.547 Y87.653 
G1 X95.566 Y87.64 
G1 X95.569 Y87.639 
G1 X96.242 Y87.195 
G1 X96.244 Y87.194 
G1 X96.259 Y87.184 
G1 X96.261 Y87.183 
G1 X96.951 Y86.766 
G1 X96.954 Y86.765 
G1 X96.974 Y86.753 
G1 X96.977 Y86.752 
G1 X98.036 Y86.181 
G1 X98.039 Y86.179 
G1 X98.064 Y86.167 
G1 X98.067 Y86.165 
G1 X99.158 Y85.658 
G1 X99.161 Y85.657 
G1 X99.182 Y85.648 
G1 X99.185 Y85.647 
G1 X99.931 Y85.343 
G1 X99.934 Y85.342 
G1 X99.951 Y85.335 
G1 X99.953 Y85.335 
G1 X100.711 Y85.061 
G1 X100.714 Y85.06 
G1 X100.736 Y85.052 
G1 X100.739 Y85.051 
G1 X101.889 Y84.698 
G1 X101.892 Y84.697 
G1 X101.919 Y84.69 
G1 X101.923 Y84.689 
G1 X103.092 Y84.404 
G1 X103.094 Y84.404 
G1 X103.117 Y84.399 
G1 X103.12 Y84.398 
G1 X103.912 Y84.246 
G1 X103.914 Y84.246 
G1 X103.932 Y84.243 
G1 X103.934 Y84.242 
G1 X104.729 Y84.122 
G1 X104.731 Y84.121 
G1 X104.75 Y84.119 
G1 X104.752 Y84.119 
G1 X105.557 Y84.029 
G1 X105.561 Y84.028 
G1 X105.592 Y84.026 
G1 X105.596 Y84.026 
G1 X107.458 Y83.94 
G1 X107.462 Y83.94 
G1 X107.496 Y83.94 
G1 X107.5 Y83.94 
G1 X108.576 Y83.968 
G1 X108.579 Y83.968 
G1 X108.604 Y83.97 
G1 X108.607 Y83.97 
G1 X109.675 Y84.054 
G1 X109.679 Y84.054 
G1 X109.703 Y84.057 
G1 X109.706 Y84.057 
G1 X110.769 Y84.197 
G1 X110.772 Y84.197 
G1 X110.796 Y84.201 
G1 X110.799 Y84.202 
G1 X111.853 Y84.397 
G1 X111.856 Y84.398 
G1 X111.88 Y84.403 
G1 X111.883 Y84.403 
G1 X112.925 Y84.654 
G1 X112.928 Y84.654 
G1 X112.952 Y84.661 
G1 X112.955 Y84.662 
G1 X113.983 Y84.966 
G1 X113.986 Y84.967 
G1 X114.009 Y84.975 
G1 X114.012 Y84.976 
G1 X115.022 Y85.333 
G1 X115.025 Y85.334 
G1 X115.048 Y85.343 
G1 X115.051 Y85.344 
G1 X116.041 Y85.754 
G1 X116.044 Y85.756 
G1 X116.067 Y85.766 
G1 X116.069 Y85.767 
G1 X117.037 Y86.228 
G1 X117.04 Y86.23 
G1 X117.062 Y86.241 
G1 X117.064 Y86.242 
G1 X118.006 Y86.754 
G1 X118.009 Y86.755 
G1 X118.03 Y86.768 
G1 X118.033 Y86.769 
G1 X118.947 Y87.329 
G1 X118.949 Y87.331 
G1 X118.97 Y87.344 
G1 X118.973 Y87.346 
G1 X119.856 Y87.953 
G1 X119.858 Y87.955 
G1 X119.878 Y87.969 
G1 X119.881 Y87.971 
G1 X120.731 Y88.624 
G1 X120.733 Y88.626 
G1 X120.753 Y88.641 
G1 X120.755 Y88.643 
G1 X121.57 Y89.339 
G1 X121.572 Y89.341 
G1 X121.591 Y89.358 
G1 X121.593 Y89.36 
G1 X122.37 Y90.097 
G1 X122.372 Y90.1 
G1 X122.39 Y90.117 
G1 X122.392 Y90.119 
G1 X123.123 Y90.89 
G1 X123.125 Y90.892 
G1 X123.142 Y90.91 
G1 X123.144 Y90.912 
G1 X123.84 Y91.727 
G1 X123.842 Y91.729 
G1 X123.857 Y91.748 
G1 X123.859 Y91.751 
G1 X124.512 Y92.601 
G1 X124.514 Y92.603 
G1 X124.529 Y92.623 
G1 X124.53 Y92.626 
G1 X125.138 Y93.509 
G1 X125.14 Y93.511 
G1 X125.153 Y93.532 
G1 X125.155 Y93.535 
G1 X125.715 Y94.448 
G1 X125.717 Y94.451 
G1 X125.729 Y94.472 
G1 X125.73 Y94.475 
G1 X126.242 Y95.416 
G1 X126.244 Y95.419 
G1 X126.255 Y95.441 
G1 X126.256 Y95.444 
G1 X126.718 Y96.411 
G1 X126.719 Y96.414 
G1 X126.729 Y96.436 
G1 X126.731 Y96.439 
G1 X127.141 Y97.429 
G1 X127.142 Y97.432 
G1 X127.151 Y97.455 
G1 X127.152 Y97.458 
G1 X127.511 Y98.468 
G1 X127.512 Y98.471 
G1 X127.519 Y98.494 
G1 X127.52 Y98.497 
G1 X127.825 Y99.525 
G1 X127.826 Y99.528 
G1 X127.832 Y99.552 
G1 X127.833 Y99.555 
G1 X128.084 Y100.597 
G1 X128.084 Y100.6 
G1 X128.09 Y100.624 
G1 X128.09 Y100.627 
G1 X128.286 Y101.68 
G1 X128.286 Y101.684 
G1 X128.29 Y101.708 
G1 X128.291 Y101.711 
G1 X128.431 Y102.773 
G1 X128.432 Y102.776 
G1 X128.434 Y102.801 
G1 X128.434 Y102.804 
G1 X128.519 Y103.872 
G1 X128.519 Y103.876 
G1 X128.521 Y103.9 
G1 X128.521 Y103.903 
G1 X128.549 Y104.981 
G1 X128.549 Y104.985 
G1 X128.549 Y105.022 
G1 X128.549 Y105.027 
G1 X128.438 Y107.164 
G1 X128.437 Y107.169 
G1 X128.434 Y107.206 
G1 X128.433 Y107.21 
G1 X128.293 Y108.274 
G1 X128.293 Y108.278 
G1 X128.289 Y108.302 
G1 X128.288 Y108.305 
G1 X128.093 Y109.359 
G1 X128.093 Y109.362 
G1 X128.088 Y109.386 
G1 X128.087 Y109.389 
G1 X127.837 Y110.431 
G1 X127.836 Y110.434 
G1 X127.83 Y110.458 
G1 X127.829 Y110.461 
G1 X127.525 Y111.488 
G1 X127.524 Y111.491 
G1 X127.516 Y111.515 
G1 X127.515 Y111.518 
G1 X127.158 Y112.528 
G1 X127.157 Y112.531 
G1 X127.148 Y112.554 
G1 X127.147 Y112.557 
G1 X126.737 Y113.547 
G1 X126.736 Y113.55 
G1 X126.726 Y113.573 
G1 X126.724 Y113.575 
G1 X126.263 Y114.543 
G1 X126.262 Y114.546 
G1 X126.251 Y114.568 
G1 X126.249 Y114.57 
G1 X125.738 Y115.512 
G1 X125.737 Y115.515 
G1 X125.724 Y115.536 
G1 X125.723 Y115.539 
G1 X125.163 Y116.453 
G1 X125.161 Y116.456 
G1 X125.148 Y116.476 
G1 X125.146 Y116.479 
G1 X124.539 Y117.362 
G1 X124.538 Y117.365 
G1 X124.523 Y117.385 
G1 X124.521 Y117.387 
G1 X123.869 Y118.238 
G1 X123.867 Y118.24 
G1 X123.852 Y118.259 
G1 X123.85 Y118.262 
G1 X123.154 Y119.077 
G1 X123.152 Y119.079 
G1 X123.135 Y119.097 
G1 X123.133 Y119.1 
G1 X122.398 Y119.875 
G1 X122.396 Y119.877 
G1 X122.383 Y119.89 
G1 X122.381 Y119.891 
G1 X121.99 Y120.273 
G1 X121.988 Y120.275 
G1 X121.975 Y120.287 
G1 X121.973 Y120.289 
G1 X121.179 Y121.004 
G1 X121.176 Y121.006 
G1 X121.158 Y121.022 
G1 X121.155 Y121.024 
G1 X120.322 Y121.699 
G1 X120.32 Y121.701 
G1 X120.3 Y121.715 
G1 X120.298 Y121.717 
G1 X119.431 Y122.347 
G1 X119.428 Y122.349 
G1 X119.408 Y122.363 
G1 X119.405 Y122.365 
G1 X118.506 Y122.948 
G1 X118.504 Y122.95 
G1 X118.483 Y122.963 
G1 X118.48 Y122.965 
G1 X117.552 Y123.5 
G1 X117.549 Y123.502 
G1 X117.528 Y123.514 
G1 X117.525 Y123.515 
G1 X116.57 Y124.002 
G1 X116.567 Y124.003 
G1 X116.545 Y124.014 
G1 X116.542 Y124.015 
G1 X115.566 Y124.45 
G1 X115.564 Y124.451 
G1 X115.547 Y124.458 
G1 X115.545 Y124.459 
G1 X115.041 Y124.66 
G1 X115.039 Y124.66 
G1 X115.022 Y124.667 
G1 X115.019 Y124.668 
G1 X114.012 Y125.024 
G1 X114.009 Y125.025 
G1 X113.986 Y125.033 
G1 X113.983 Y125.034 
G1 X112.955 Y125.338 
G1 X112.952 Y125.339 
G1 X112.928 Y125.346 
G1 X112.925 Y125.346 
G1 X111.883 Y125.597 
G1 X111.88 Y125.597 
G1 X111.856 Y125.602 
G1 X111.853 Y125.603 
G1 X110.799 Y125.798 
G1 X110.796 Y125.799 
G1 X110.772 Y125.803 
G1 X110.769 Y125.803 
G1 X109.706 Y125.943 
G1 X109.703 Y125.943 
G1 X109.679 Y125.946 
G1 X109.675 Y125.946 
G1 X108.607 Y126.03 
G1 X108.604 Y126.03 
G1 X108.579 Y126.032 
G1 X108.576 Y126.032 
G1 X107.49 Y126.06 
G1 X107.483 Y126.06 
G1 X107.427 Y126.059 
G1 X107.42 Y126.058 
G1 X103.722 Y125.718 
G1 X103.715 Y125.717 
G1 X103.663 Y125.71 
G1 X103.657 Y125.709 
G1 X102.853 Y125.543 
G1 X102.851 Y125.543 
G1 X102.833 Y125.539 
G1 X102.83 Y125.538 
G1 X102.048 Y125.345 
G1 X102.046 Y125.344 
G1 X102.025 Y125.339 
G1 X102.022 Y125.338 
G1 X100.996 Y125.034 
G1 X100.993 Y125.033 
G1 X100.97 Y125.025 
G1 X100.967 Y125.024 
G1 X99.957 Y124.667 
G1 X99.954 Y124.666 
G1 X99.931 Y124.657 
G1 X99.928 Y124.656 
G1 X98.939 Y124.246 
G1 X98.937 Y124.245 
G1 X98.917 Y124.236 
G1 X98.914 Y124.235 
G1 X98.184 Y123.893 
G1 X98.181 Y123.891 
G1 X98.162 Y123.882 
G1 X98.16 Y123.881 
G1 X97.213 Y123.382 
G1 X97.21 Y123.381 
G1 X97.188 Y123.369 
G1 X97.186 Y123.367 
G1 X96.265 Y122.819 
G1 X96.262 Y122.818 
G1 X96.241 Y122.804 
G1 X96.239 Y122.803 
G1 X95.349 Y122.208 
G1 X95.346 Y122.207 
G1 X95.329 Y122.194 
G1 X95.327 Y122.193 
G1 X94.677 Y121.714 
G1 X94.675 Y121.713 
G1 X94.658 Y121.699 
G1 X94.656 Y121.698 
G1 X93.824 Y121.024 
G1 X93.821 Y121.022 
G1 X93.803 Y121.006 
G1 X93.8 Y121.004 
G1 X93.004 Y120.287 
G1 X93.002 Y120.285 
G1 X92.984 Y120.268 
G1 X92.982 Y120.266 
G1 X92.225 Y119.51 
G1 X92.223 Y119.507 
G1 X92.206 Y119.49 
G1 X92.204 Y119.487 
G1 X91.487 Y118.691 
G1 X91.485 Y118.689 
G1 X91.469 Y118.67 
G1 X91.467 Y118.668 
G1 X90.793 Y117.836 
G1 X90.792 Y117.834 
G1 X90.778 Y117.817 
G1 X90.777 Y117.815 
G1 X90.298 Y117.165 
G1 X90.297 Y117.163 
G1 X90.284 Y117.145 
G1 X90.283 Y117.143 
G1 X89.688 Y116.253 
G1 X89.686 Y116.25 
G1 X89.673 Y116.23 
G1 X89.672 Y116.227 
G1 X89.124 Y115.307 
G1 X89.123 Y115.305 
G1 X89.112 Y115.286 
G1 X89.111 Y115.284 
G1 X88.731 Y114.572 
G1 X88.729 Y114.57 
G1 X88.72 Y114.55 
G1 X88.718 Y114.548 
G1 X88.258 Y113.582 
G1 X88.256 Y113.579 
G1 X88.246 Y113.557 
G1 X88.245 Y113.554 
G1 X87.835 Y112.564 
G1 X87.834 Y112.561 
G1 X87.825 Y112.538 
G1 X87.824 Y112.535 
G1 X87.466 Y111.526 
G1 X87.465 Y111.524 
G1 X87.459 Y111.503 
G1 X87.458 Y111.501 
G1 X87.224 Y110.729 
G1 X87.223 Y110.726 
G1 X87.217 Y110.705 
G1 X87.216 Y110.703 
G1 X86.952 Y109.664 
G1 X86.952 Y109.66 
G1 X86.946 Y109.633 
G1 X86.945 Y109.63 
G1 X86.689 Y108.3 
G1 X86.688 Y108.292 
G1 X86.68 Y108.23 
G1 X86.68 Y108.222 
G1 X86.45 Y104.112 
G1 X86.45 Y104.104 
G1 X86.451 Y104.043 
G1 X86.451 Y104.035 
G1 X86.543 Y102.819 
G1 X86.543 Y102.817 
G1 X86.545 Y102.794 
G1 X86.546 Y102.791 
G1 X86.646 Y101.991 
G1 X86.646 Y101.988 
G1 X86.649 Y101.97 
G1 X86.649 Y101.968 
G1 X86.78 Y101.175 
G1 X86.78 Y101.172 
G1 X86.784 Y101.154 
G1 X86.784 Y101.152 
G1 X86.946 Y100.362 
G1 X86.947 Y100.36 
G1 X86.952 Y100.337 
G1 X86.953 Y100.334 
G1 X87.252 Y99.171 
G1 X87.253 Y99.168 
G1 X87.259 Y99.146 
G1 X87.26 Y99.143 
G1 X87.499 Y98.373 
G1 X87.5 Y98.371 
G1 X87.506 Y98.354 
G1 X87.507 Y98.351 
G1 X87.776 Y97.591 
G1 X87.777 Y97.589 
G1 X87.785 Y97.567 
G1 X87.786 Y97.564 
G1 X88.243 Y96.451 
G1 X88.244 Y96.448 
G1 X88.255 Y96.423 
G1 X88.257 Y96.419 
G1 X88.778 Y95.335 
G1 X88.78 Y95.332 
G1 X88.79 Y95.312 
G1 X88.792 Y95.309 
G1 X89.176 Y94.601 
G1 X89.177 Y94.599 
G1 X89.186 Y94.583 
G1 X89.188 Y94.581 
G1 X89.6 Y93.888 
G1 X89.601 Y93.885 
G1 X89.614 Y93.866 
G1 X89.615 Y93.863 
G1 X90.279 Y92.862 
G1 X90.281 Y92.86 
G1 X90.294 Y92.841 
G1 X90.296 Y92.839 
G1 X90.775 Y92.188 
G1 X90.777 Y92.186 
G1 X90.791 Y92.167 
G1 X90.793 Y92.165 
G1 X91.553 Y91.232 
G1 X91.555 Y91.229 
G1 X91.573 Y91.209 
G1 X91.576 Y91.206 
G1 X92.39 Y90.32 
G1 X92.392 Y90.317 
G1 X92.408 Y90.301 
G1 X92.41 Y90.299 
G92 
; G1 
G1 X95.063 Y92.878 F6000
; G1 
G92 
G1 X95.54 Y92.408 
G1 X96.034 Y91.957 
G1 X96.832 Y91.298 
G1 X97.668 Y90.686 
G1 X98.226 Y90.319 
G1 X98.799 Y89.973 
G1 X99.71 Y89.482 
G1 X100.649 Y89.045 
G1 X101.268 Y88.794 
G1 X101.897 Y88.566 
G1 X102.887 Y88.262 
G1 X103.893 Y88.017 
G1 X104.55 Y87.891 
G1 X105.224 Y87.789 
G1 X105.867 Y87.717 
G1 X107.515 Y87.642 
G1 X108.398 Y87.665 
G1 X109.304 Y87.736 
G1 X110.205 Y87.855 
G1 X111.099 Y88.02 
G1 X111.982 Y88.232 
G1 X112.854 Y88.491 
G1 X113.71 Y88.794 
G1 X114.55 Y89.142 
G1 X115.37 Y89.533 
G1 X116.169 Y89.967 
G1 X116.944 Y90.441 
G1 X117.693 Y90.956 
G1 X118.414 Y91.509 
G1 X119.105 Y92.1 
G1 X119.764 Y92.725 
G1 X120.384 Y93.378 
G1 X120.975 Y94.069 
G1 X121.528 Y94.79 
G1 X122.043 Y95.539 
G1 X122.519 Y96.313 
G1 X122.953 Y97.112 
G1 X123.344 Y97.932 
G1 X123.692 Y98.771 
G1 X123.996 Y99.628 
G1 X124.255 Y100.499 
G1 X124.467 Y101.383 
G1 X124.633 Y102.276 
G1 X124.752 Y103.177 
G1 X124.824 Y104.083 
G1 X124.847 Y104.957 
G1 X124.749 Y106.849 
G1 X124.636 Y107.711 
G1 X124.47 Y108.605 
G1 X124.258 Y109.489 
G1 X124 Y110.36 
G1 X123.697 Y111.217 
G1 X123.349 Y112.057 
G1 X122.958 Y112.877 
G1 X122.525 Y113.676 
G1 X122.041 Y114.466 
G1 X121.796 Y114.833 
G1 X121.546 Y115.186 
G1 X120.983 Y115.921 
G1 X120.393 Y116.612 
G1 X119.755 Y117.284 
G1 X119.451 Y117.58 
G1 X118.763 Y118.2 
G1 X118.057 Y118.772 
G1 X117.322 Y119.306 
G1 X116.56 Y119.801 
G1 X115.772 Y120.255 
G1 X114.963 Y120.668 
G1 X114.117 Y121.045 
G1 X113.727 Y121.2 
G1 X112.854 Y121.509 
G1 X111.982 Y121.768 
G1 X111.099 Y121.98 
G1 X110.205 Y122.145 
G1 X109.287 Y122.266 
G1 X108.852 Y122.306 
G1 X108.415 Y122.335 
G1 X107.576 Y122.357 
G1 X104.233 Y122.05 
G1 X103.658 Y121.931 
G1 X103.005 Y121.77 
G1 X102.125 Y121.509 
G1 X101.269 Y121.206 
G1 X100.421 Y120.855 
G1 X99.819 Y120.573 
G1 X99.007 Y120.146 
G1 X98.226 Y119.681 
G1 X97.464 Y119.171 
G1 X96.929 Y118.777 
G1 X96.216 Y118.2 
G1 X95.54 Y117.592 
G1 X94.899 Y116.951 
G1 X94.291 Y116.275 
G1 X93.713 Y115.563 
G1 X93.319 Y115.028 
G1 X92.81 Y114.265 
G1 X92.34 Y113.477 
G1 X92.027 Y112.89 
G1 X91.632 Y112.062 
G1 X91.284 Y111.223 
G1 X90.978 Y110.358 
G1 X90.785 Y109.722 
G1 X90.559 Y108.833 
G1 X90.376 Y107.916 
G1 X90.364 Y107.842 
G1 X90.156 Y104.11 
G1 X90.227 Y103.174 
G1 X90.31 Y102.51 
G1 X90.42 Y101.838 
G1 X90.555 Y101.183 
G1 X90.817 Y100.167 
G1 X91.015 Y99.529 
G1 X91.238 Y98.898 
G1 X91.631 Y97.94 
G1 X92.08 Y97.007 
G1 X92.399 Y96.42 
G1 X92.741 Y95.845 
G1 X93.32 Y94.971 
G1 X93.709 Y94.444 
G1 X94.363 Y93.641 
G1 X95.063 Y92.878 
G1 X94.718 Y92.545 F6000
G92 
G1 X95.21 Y92.06 
G1 X95.719 Y91.595 
G1 X96.537 Y90.919 
G1 X97.394 Y90.292 
G1 X97.97 Y89.913 
G1 X98.561 Y89.556 
G1 X99.495 Y89.053 
G1 X100.457 Y88.605 
G1 X101.096 Y88.345 
G1 X101.745 Y88.111 
G1 X102.76 Y87.799 
G1 X103.791 Y87.548 
G1 X104.468 Y87.418 
G1 X105.161 Y87.313 
G1 X105.829 Y87.238 
G1 X107.511 Y87.161 
G1 X108.423 Y87.185 
G1 X109.354 Y87.258 
G1 X110.28 Y87.38 
G1 X111.199 Y87.551 
G1 X112.107 Y87.769 
G1 X113.002 Y88.034 
G1 X113.883 Y88.346 
G1 X114.745 Y88.703 
G1 X115.588 Y89.105 
G1 X116.409 Y89.551 
G1 X117.206 Y90.039 
G1 X117.975 Y90.568 
G1 X118.716 Y91.136 
G1 X119.426 Y91.743 
G1 X120.104 Y92.386 
G1 X120.74 Y93.057 
G1 X121.348 Y93.767 
G1 X121.917 Y94.508 
G1 X122.446 Y95.277 
G1 X122.934 Y96.073 
G1 X123.38 Y96.894 
G1 X123.783 Y97.736 
G1 X124.141 Y98.599 
G1 X124.453 Y99.479 
G1 X124.719 Y100.375 
G1 X124.937 Y101.283 
G1 X125.108 Y102.201 
G1 X125.23 Y103.127 
G1 X125.304 Y104.058 
G1 X125.328 Y104.963 
G1 X125.227 Y106.893 
G1 X125.11 Y107.786 
G1 X124.94 Y108.705 
G1 X124.722 Y109.613 
G1 X124.457 Y110.509 
G1 X124.145 Y111.389 
G1 X123.788 Y112.252 
G1 X123.386 Y113.095 
G1 X122.941 Y113.916 
G1 X122.446 Y114.724 
G1 X122.192 Y115.105 
G1 X121.933 Y115.471 
G1 X121.356 Y116.223 
G1 X120.749 Y116.934 
G1 X120.097 Y117.622 
G1 X119.78 Y117.931 
G1 X119.075 Y118.565 
G1 X118.349 Y119.153 
G1 X117.594 Y119.702 
G1 X116.81 Y120.211 
G1 X116.002 Y120.677 
G1 X115.169 Y121.101 
G1 X114.303 Y121.487 
G1 X113.896 Y121.65 
G1 X113.002 Y121.966 
G1 X112.107 Y122.231 
G1 X111.199 Y122.449 
G1 X110.28 Y122.62 
G1 X109.34 Y122.743 
G1 X108.889 Y122.785 
G1 X108.437 Y122.814 
G1 X107.56 Y122.837 
G1 X104.162 Y122.525 
G1 X103.552 Y122.4 
G1 X102.879 Y122.233 
G1 X101.977 Y121.966 
G1 X101.097 Y121.654 
G1 X100.227 Y121.294 
G1 X99.606 Y121.003 
G1 X98.773 Y120.565 
G1 X97.97 Y120.087 
G1 X97.188 Y119.564 
G1 X96.635 Y119.157 
G1 X95.904 Y118.565 
G1 X95.21 Y117.94 
G1 X94.551 Y117.281 
G1 X93.926 Y116.587 
G1 X93.334 Y115.856 
G1 X92.926 Y115.303 
G1 X92.404 Y114.521 
G1 X91.922 Y113.712 
G1 X91.599 Y113.107 
G1 X91.193 Y112.258 
G1 X90.836 Y111.395 
G1 X90.522 Y110.508 
G1 X90.322 Y109.851 
G1 X90.091 Y108.939 
G1 X89.904 Y108.002 
G1 X89.886 Y107.894 
G1 X89.675 Y104.105 
G1 X89.749 Y103.126 
G1 X89.834 Y102.441 
G1 X89.948 Y101.75 
G1 X90.087 Y101.074 
G1 X90.355 Y100.036 
G1 X90.559 Y99.377 
G1 X90.789 Y98.727 
G1 X91.192 Y97.745 
G1 X91.652 Y96.789 
G1 X91.981 Y96.182 
G1 X92.334 Y95.59 
G1 X92.927 Y94.696 
G1 X93.329 Y94.149 
G1 X94 Y93.327 
G1 X94.718 Y92.545 
G1 X94.372 Y92.212 F6000
G92 
G1 X94.879 Y91.711 
G1 X95.404 Y91.232 
G1 X96.243 Y90.54 
G1 X97.12 Y89.898 
G1 X97.714 Y89.506 
G1 X98.323 Y89.139 
G1 X99.28 Y88.623 
G1 X100.266 Y88.165 
G1 X100.924 Y87.897 
G1 X101.593 Y87.655 
G1 X102.632 Y87.336 
G1 X103.689 Y87.079 
G1 X104.387 Y86.945 
G1 X105.098 Y86.837 
G1 X105.791 Y86.76 
G1 X107.506 Y86.681 
G1 X108.448 Y86.706 
G1 X109.404 Y86.781 
G1 X110.355 Y86.906 
G1 X111.298 Y87.081 
G1 X112.231 Y87.305 
G1 X113.15 Y87.577 
G1 X114.055 Y87.897 
G1 X114.941 Y88.264 
G1 X115.806 Y88.677 
G1 X116.649 Y89.135 
G1 X117.467 Y89.636 
G1 X118.257 Y90.179 
G1 X119.018 Y90.763 
G1 X119.748 Y91.386 
G1 X120.443 Y92.046 
G1 X121.097 Y92.735 
G1 X121.721 Y93.465 
G1 X122.305 Y94.225 
G1 X122.848 Y95.015 
G1 X123.35 Y95.833 
G1 X123.808 Y96.675 
G1 X124.221 Y97.541 
G1 X124.589 Y98.427 
G1 X124.909 Y99.331 
G1 X125.182 Y100.25 
G1 X125.407 Y101.183 
G1 X125.582 Y102.126 
G1 X125.707 Y103.076 
G1 X125.783 Y104.032 
G1 X125.808 Y104.969 
G1 X125.706 Y106.937 
G1 X125.584 Y107.861 
G1 X125.409 Y108.805 
G1 X125.186 Y109.737 
G1 X124.914 Y110.657 
G1 X124.594 Y111.561 
G1 X124.227 Y112.447 
G1 X123.814 Y113.313 
G1 X123.357 Y114.156 
G1 X122.85 Y114.983 
G1 X122.587 Y115.377 
G1 X122.32 Y115.755 
G1 X121.729 Y116.525 
G1 X121.106 Y117.255 
G1 X120.439 Y117.959 
G1 X120.108 Y118.281 
G1 X119.387 Y118.93 
G1 X118.642 Y119.534 
G1 X117.866 Y120.097 
G1 X117.061 Y120.62 
G1 X116.231 Y121.099 
G1 X115.376 Y121.535 
G1 X114.49 Y121.929 
G1 X114.065 Y122.099 
G1 X113.15 Y122.423 
G1 X112.231 Y122.695 
G1 X111.298 Y122.919 
G1 X110.355 Y123.094 
G1 X109.394 Y123.221 
G1 X108.927 Y123.263 
G1 X108.459 Y123.294 
G1 X107.545 Y123.318 
G1 X104.092 Y123.001 
G1 X103.446 Y122.868 
G1 X102.753 Y122.697 
G1 X101.829 Y122.423 
G1 X100.924 Y122.103 
G1 X100.033 Y121.734 
G1 X99.392 Y121.433 
G1 X98.538 Y120.984 
G1 X97.714 Y120.493 
G1 X96.912 Y119.957 
G1 X96.342 Y119.537 
G1 X95.592 Y118.93 
G1 X94.879 Y118.288 
G1 X94.203 Y117.612 
G1 X93.561 Y116.899 
G1 X92.954 Y116.15 
G1 X92.534 Y115.579 
G1 X91.997 Y114.777 
G1 X91.504 Y113.948 
G1 X91.17 Y113.324 
G1 X90.755 Y112.453 
G1 X90.388 Y111.567 
G1 X90.066 Y110.658 
G1 X89.86 Y109.98 
G1 X89.622 Y109.045 
G1 X89.432 Y108.088 
G1 X89.408 Y107.947 
G1 X89.194 Y104.1 
G1 X89.271 Y103.078 
G1 X89.359 Y102.372 
G1 X89.476 Y101.662 
G1 X89.62 Y100.966 
G1 X89.893 Y99.905 
G1 X90.104 Y99.226 
G1 X90.341 Y98.556 
G1 X90.754 Y97.55 
G1 X91.225 Y96.57 
G1 X91.564 Y95.945 
G1 X91.928 Y95.334 
G1 X92.533 Y94.421 
G1 X92.95 Y93.855 
G1 X93.637 Y93.012 
G1 X94.372 Y92.212 
G1 X94.027 Y91.878 F6000
G92 
G1 X94.549 Y91.363 
G1 X95.09 Y90.87 
G1 X95.948 Y90.161 
G1 X96.846 Y89.503 
G1 X97.458 Y89.101 
G1 X98.085 Y88.722 
G1 X99.064 Y88.194 
G1 X100.074 Y87.725 
G1 X100.752 Y87.449 
G1 X101.441 Y87.2 
G1 X102.505 Y86.873 
G1 X103.587 Y86.61 
G1 X104.306 Y86.472 
G1 X105.036 Y86.361 
G1 X105.754 Y86.281 
G1 X107.501 Y86.201 
G1 X108.473 Y86.226 
G1 X109.455 Y86.303 
G1 X110.43 Y86.432 
G1 X111.398 Y86.611 
G1 X112.355 Y86.841 
G1 X113.299 Y87.121 
G1 X114.227 Y87.449 
G1 X115.136 Y87.826 
G1 X116.024 Y88.249 
G1 X116.889 Y88.719 
G1 X117.728 Y89.233 
G1 X118.54 Y89.791 
G1 X119.32 Y90.39 
G1 X120.069 Y91.029 
G1 X120.783 Y91.707 
G1 X121.454 Y92.414 
G1 X122.094 Y93.162 
G1 X122.693 Y93.943 
G1 X123.251 Y94.754 
G1 X123.766 Y95.593 
G1 X124.236 Y96.457 
G1 X124.66 Y97.346 
G1 X125.037 Y98.254 
G1 X125.366 Y99.182 
G1 X125.646 Y100.126 
G1 X125.876 Y101.083 
G1 X126.056 Y102.05 
G1 X126.185 Y103.026 
G1 X126.263 Y104.007 
G1 X126.288 Y104.975 
G1 X126.184 Y106.981 
G1 X126.058 Y107.936 
G1 X125.879 Y108.904 
G1 X125.65 Y109.861 
G1 X125.37 Y110.805 
G1 X125.042 Y111.733 
G1 X124.666 Y112.642 
G1 X124.242 Y113.531 
G1 X123.773 Y114.396 
G1 X123.255 Y115.242 
G1 X122.983 Y115.648 
G1 X122.706 Y116.04 
G1 X122.102 Y116.827 
G1 X121.463 Y117.576 
G1 X120.78 Y118.296 
G1 X120.436 Y118.632 
G1 X119.699 Y119.295 
G1 X118.934 Y119.915 
G1 X118.138 Y120.493 
G1 X117.312 Y121.029 
G1 X116.46 Y121.521 
G1 X115.583 Y121.968 
G1 X114.677 Y122.372 
G1 X114.234 Y122.548 
G1 X113.299 Y122.879 
G1 X112.355 Y123.159 
G1 X111.398 Y123.389 
G1 X110.43 Y123.568 
G1 X109.447 Y123.698 
G1 X108.965 Y123.742 
G1 X108.481 Y123.774 
G1 X107.529 Y123.799 
G1 X104.021 Y123.476 
G1 X103.34 Y123.336 
G1 X102.628 Y123.16 
G1 X101.68 Y122.879 
G1 X100.752 Y122.551 
G1 X99.839 Y122.173 
G1 X99.178 Y121.863 
G1 X98.304 Y121.403 
G1 X97.458 Y120.899 
G1 X96.636 Y120.35 
G1 X96.048 Y119.917 
G1 X95.28 Y119.295 
G1 X94.549 Y118.637 
G1 X93.854 Y117.942 
G1 X93.196 Y117.211 
G1 X92.574 Y116.443 
G1 X92.141 Y115.855 
G1 X91.591 Y115.034 
G1 X91.086 Y114.185 
G1 X90.742 Y113.54 
G1 X90.316 Y112.648 
G1 X89.939 Y111.739 
G1 X89.609 Y110.808 
G1 X89.397 Y110.109 
G1 X89.154 Y109.151 
G1 X88.96 Y108.175 
G1 X88.931 Y107.999 
G1 X88.713 Y104.096 
G1 X88.793 Y103.03 
G1 X88.884 Y102.303 
G1 X89.004 Y101.575 
G1 X89.152 Y100.858 
G1 X89.431 Y99.774 
G1 X89.648 Y99.075 
G1 X89.892 Y98.384 
G1 X90.315 Y97.355 
G1 X90.797 Y96.351 
G1 X91.147 Y95.708 
G1 X91.521 Y95.079 
G1 X92.14 Y94.146 
G1 X92.57 Y93.561 
G1 X93.274 Y92.698 
G1 X94.027 Y91.878 
G1 X93.681 Y91.545 F6000
G92 
G1 X94.218 Y91.015 
G1 X94.775 Y90.507 
G1 X95.653 Y89.782 
G1 X96.572 Y89.109 
G1 X97.201 Y88.695 
G1 X97.847 Y88.305 
G1 X98.849 Y87.765 
G1 X99.882 Y87.285 
G1 X100.58 Y87.001 
G1 X101.289 Y86.744 
G1 X102.378 Y86.41 
G1 X103.485 Y86.141 
G1 X104.224 Y85.999 
G1 X104.973 Y85.885 
G1 X105.716 Y85.802 
G1 X107.496 Y85.72 
G1 X108.499 Y85.747 
G1 X109.505 Y85.826 
G1 X110.506 Y85.958 
G1 X111.498 Y86.142 
G1 X112.479 Y86.377 
G1 X113.447 Y86.664 
G1 X114.399 Y87.001 
G1 X115.331 Y87.387 
G1 X116.242 Y87.822 
G1 X117.129 Y88.303 
G1 X117.99 Y88.831 
G1 X118.822 Y89.402 
G1 X119.623 Y90.017 
G1 X120.39 Y90.672 
G1 X121.122 Y91.367 
G1 X121.811 Y92.092 
G1 X122.467 Y92.86 
G1 X123.082 Y93.66 
G1 X123.654 Y94.492 
G1 X124.181 Y95.352 
G1 X124.664 Y96.239 
G1 X125.098 Y97.15 
G1 X125.485 Y98.082 
G1 X125.823 Y99.034 
G1 X126.11 Y100.001 
G1 X126.346 Y100.983 
G1 X126.53 Y101.975 
G1 X126.662 Y102.976 
G1 X126.742 Y103.982 
G1 X126.769 Y104.981 
G1 X126.662 Y107.025 
G1 X126.533 Y108.011 
G1 X126.349 Y109.004 
G1 X126.113 Y109.986 
G1 X125.827 Y110.953 
G1 X125.49 Y111.905 
G1 X125.104 Y112.838 
G1 X124.67 Y113.749 
G1 X124.189 Y114.636 
G1 X123.659 Y115.501 
G1 X123.378 Y115.921 
G1 X123.093 Y116.325 
G1 X122.476 Y117.129 
G1 X121.82 Y117.897 
G1 X121.122 Y118.633 
G1 X120.764 Y118.982 
G1 X120.011 Y119.66 
G1 X119.226 Y120.296 
G1 X118.41 Y120.889 
G1 X117.563 Y121.439 
G1 X116.689 Y121.943 
G1 X115.79 Y122.402 
G1 X114.863 Y122.814 
G1 X114.403 Y122.998 
G1 X113.447 Y123.336 
G1 X112.479 Y123.623 
G1 X111.498 Y123.858 
G1 X110.506 Y124.042 
G1 X109.5 Y124.175 
G1 X109.002 Y124.22 
G1 X108.503 Y124.253 
G1 X107.513 Y124.279 
G1 X103.951 Y123.952 
G1 X103.235 Y123.805 
G1 X102.502 Y123.623 
G1 X101.532 Y123.336 
G1 X100.58 Y122.999 
G1 X99.645 Y122.612 
G1 X98.964 Y122.293 
G1 X98.069 Y121.822 
G1 X97.202 Y121.305 
G1 X96.36 Y120.743 
G1 X95.755 Y120.297 
G1 X94.968 Y119.66 
G1 X94.218 Y118.985 
G1 X93.506 Y118.273 
G1 X92.831 Y117.523 
G1 X92.194 Y116.737 
G1 X91.748 Y116.131 
G1 X91.185 Y115.29 
G1 X90.668 Y114.42 
G1 X90.313 Y113.757 
G1 X89.878 Y112.844 
G1 X89.491 Y111.911 
G1 X89.153 Y110.958 
G1 X88.935 Y110.238 
G1 X88.686 Y109.257 
G1 X88.487 Y108.26 
G1 X88.453 Y108.052 
G1 X88.232 Y104.091 
G1 X88.316 Y102.982 
G1 X88.409 Y102.235 
G1 X88.532 Y101.487 
G1 X88.684 Y100.75 
G1 X88.969 Y99.643 
G1 X89.192 Y98.923 
G1 X89.444 Y98.213 
G1 X89.876 Y97.159 
G1 X90.37 Y96.133 
G1 X90.729 Y95.471 
G1 X91.115 Y94.823 
G1 X91.746 Y93.871 
G1 X92.191 Y93.267 
G1 X92.911 Y92.384 
G1 X93.681 Y91.545 
G1 X93.335 Y91.212 F6000
G92 
G1 X93.888 Y90.667 
G1 X94.46 Y90.144 
G1 X95.358 Y89.402 
G1 X96.298 Y88.715 
G1 X96.945 Y88.288 
G1 X97.609 Y87.888 
G1 X98.634 Y87.335 
G1 X99.69 Y86.844 
G1 X100.408 Y86.552 
G1 X101.137 Y86.289 
G1 X102.251 Y85.947 
G1 X103.382 Y85.672 
G1 X104.143 Y85.525 
G1 X104.91 Y85.409 
G1 X105.678 Y85.323 
G1 X107.492 Y85.24 
G1 X108.524 Y85.267 
G1 X109.555 Y85.348 
G1 X110.581 Y85.483 
G1 X111.598 Y85.672 
G1 X112.604 Y85.913 
G1 X113.596 Y86.207 
G1 X114.571 Y86.553 
G1 X115.527 Y86.948 
G1 X116.46 Y87.394 
G1 X117.37 Y87.887 
G1 X118.251 Y88.428 
G1 X119.104 Y89.014 
G1 X119.925 Y89.644 
G1 X120.711 Y90.316 
G1 X121.462 Y91.028 
G1 X122.167 Y91.771 
G1 X122.84 Y92.558 
G1 X123.47 Y93.378 
G1 X124.056 Y94.23 
G1 X124.597 Y95.112 
G1 X125.091 Y96.021 
G1 X125.537 Y96.954 
G1 X125.933 Y97.91 
G1 X126.279 Y98.885 
G1 X126.573 Y99.877 
G1 X126.815 Y100.883 
G1 X127.004 Y101.9 
G1 X127.14 Y102.925 
G1 X127.222 Y103.957 
G1 X127.249 Y104.987 
G1 X127.141 Y107.069 
G1 X127.007 Y108.087 
G1 X126.819 Y109.104 
G1 X126.577 Y110.11 
G1 X126.284 Y111.102 
G1 X125.939 Y112.077 
G1 X125.543 Y113.033 
G1 X125.098 Y113.967 
G1 X124.604 Y114.876 
G1 X124.063 Y115.759 
G1 X123.774 Y116.192 
G1 X123.479 Y116.609 
G1 X122.849 Y117.432 
G1 X122.177 Y118.218 
G1 X121.464 Y118.97 
G1 X121.093 Y119.332 
G1 X120.322 Y120.026 
G1 X119.519 Y120.677 
G1 X118.682 Y121.285 
G1 X117.814 Y121.848 
G1 X116.918 Y122.365 
G1 X115.996 Y122.835 
G1 X115.05 Y123.256 
G1 X114.572 Y123.447 
G1 X113.596 Y123.793 
G1 X112.604 Y124.087 
G1 X111.598 Y124.328 
G1 X110.581 Y124.517 
G1 X109.553 Y124.652 
G1 X109.04 Y124.699 
G1 X108.525 Y124.733 
G1 X107.497 Y124.76 
G1 X103.88 Y124.427 
G1 X103.129 Y124.273 
G1 X102.376 Y124.087 
G1 X101.383 Y123.793 
G1 X100.408 Y123.447 
G1 X99.452 Y123.051 
G1 X98.751 Y122.723 
G1 X97.834 Y122.24 
G1 X96.945 Y121.711 
G1 X96.085 Y121.136 
G1 X95.461 Y120.677 
G1 X94.657 Y120.026 
G1 X93.888 Y119.333 
G1 X93.158 Y118.604 
G1 X92.466 Y117.835 
G1 X91.814 Y117.03 
G1 X91.355 Y116.407 
G1 X90.779 Y115.546 
G1 X90.25 Y114.657 
G1 X89.885 Y113.974 
G1 X89.439 Y113.039 
G1 X89.043 Y112.083 
G1 X88.697 Y111.108 
G1 X88.472 Y110.367 
G1 X88.217 Y109.363 
G1 X88.015 Y108.346 
G1 X87.975 Y108.105 
G1 X87.751 Y104.086 
G1 X87.838 Y102.935 
G1 X87.934 Y102.166 
G1 X88.06 Y101.4 
G1 X88.216 Y100.641 
G1 X88.507 Y99.512 
G1 X88.737 Y98.772 
G1 X88.995 Y98.042 
G1 X89.437 Y96.964 
G1 X89.942 Y95.914 
G1 X90.312 Y95.233 
G1 X90.708 Y94.567 
G1 X91.353 Y93.596 
G1 X91.811 Y92.973 
G1 X92.548 Y92.07 
G1 X93.335 Y91.212 
G1 X93.462 Y95.366 F6000
G92 
G1 X97.876 Y90.952 
G1 X98.405 Y90.603 
G1 X98.965 Y90.265 
G1 X99.564 Y89.942 
G1 X92.418 Y97.088 
G1 X92.379 Y97.16 
G1 X91.938 Y98.077 
G1 X91.82 Y98.365 
G1 X100.865 Y89.32 
G1 X101.389 Y89.107 
G1 X101.965 Y88.899 
G1 X91.391 Y99.473 
G1 X91.334 Y99.634 
G1 X91.14 Y100.259 
G1 X91.09 Y100.453 
G1 X102.947 Y88.595 
G1 X102.976 Y88.586 
G1 X103.847 Y88.374 
G1 X90.862 Y101.36 
G1 X90.751 Y101.898 
G1 X90.701 Y102.199 
G1 X104.691 Y88.21 
G1 X105.267 Y88.122 
G1 X105.481 Y88.098 
G1 X90.588 Y102.991 
G1 X90.561 Y103.207 
G1 X90.521 Y103.737 
G1 X106.221 Y88.037 
G1 X106.932 Y88.005 
G1 X90.51 Y104.427 
G1 X90.546 Y105.07 
G1 X107.635 Y87.981 
G1 X108.296 Y87.998 
G1 X90.582 Y105.713 
G1 X90.618 Y106.356 
G1 X108.93 Y88.044 
G1 X109.269 Y88.07 
G1 X109.546 Y88.107 
G1 X90.654 Y106.999 
G1 X90.689 Y107.642 
G1 X110.145 Y88.186 
G1 X110.153 Y88.187 
G1 X110.718 Y88.291 
G1 X90.781 Y108.229 
G1 X90.887 Y108.759 
G1 X90.895 Y108.793 
G1 X111.279 Y88.409 
G1 X111.827 Y88.541 
G1 X91.033 Y109.334 
G1 X91.109 Y109.632 
G1 X91.18 Y109.867 
G1 X112.354 Y88.693 
G1 X112.75 Y88.81 
G1 X112.872 Y88.853 
G1 X91.343 Y110.382 
G1 X91.52 Y110.884 
G1 X113.373 Y89.031 
G1 X113.59 Y89.108 
G1 X113.862 Y89.22 
G1 X91.71 Y111.373 
G1 X91.909 Y111.853 
G1 X114.342 Y89.419 
G1 X114.413 Y89.449 
G1 X114.805 Y89.635 
G1 X92.125 Y112.315 
G1 X92.327 Y112.739 
G1 X92.346 Y112.774 
G1 X115.263 Y89.857 
G1 X115.702 Y90.096 
G1 X92.582 Y113.216 
G1 X92.633 Y113.311 
G1 X92.832 Y113.645 
G1 X116.136 Y90.341 
G1 X116.557 Y90.599 
G1 X93.085 Y114.071 
G1 X93.094 Y114.085 
G1 X93.356 Y114.478 
G1 X116.969 Y90.866 
G1 X117.371 Y91.143 
G1 X93.63 Y114.883 
G1 X93.918 Y115.274 
G1 X117.761 Y91.432 
G1 X118.145 Y91.726 
G1 X94.219 Y115.652 
G1 X94.522 Y116.027 
G1 X118.513 Y92.036 
G1 X118.88 Y92.349 
G1 X94.843 Y116.386 
G1 X95.143 Y116.719 
G1 X95.166 Y116.742 
G1 X119.228 Y92.68 
G1 X119.527 Y92.963 
G1 X119.574 Y93.013 
G1 X95.505 Y117.081 
G1 X95.772 Y117.348 
G1 X95.848 Y117.417 
G1 X119.904 Y93.361 
G1 X120.134 Y93.603 
G1 X120.229 Y93.715 
G1 X96.205 Y117.739 
G1 X96.434 Y117.944 
G1 X96.569 Y118.054 
G1 X120.542 Y94.081 
G1 X120.714 Y94.281 
G1 X120.847 Y94.455 
G1 X96.944 Y118.357 
G1 X97.134 Y118.511 
G1 X97.327 Y118.653 
G1 X121.142 Y94.839 
G1 X121.257 Y94.988 
G1 X121.426 Y95.234 
G1 X97.72 Y118.939 
G1 X98.127 Y119.211 
G1 X121.702 Y95.636 
G1 X121.761 Y95.722 
G1 X121.964 Y96.053 
G1 X98.54 Y119.477 
G1 X98.966 Y119.73 
G1 X122.222 Y96.473 
G1 X122.228 Y96.482 
G1 X122.462 Y96.913 
G1 X99.401 Y119.973 
G1 X99.846 Y120.207 
G1 X122.697 Y97.356 
G1 X122.916 Y97.816 
G1 X100.303 Y120.429 
G1 X100.557 Y120.547 
G1 X100.774 Y120.637 
G1 X123.127 Y98.284 
G1 X123.326 Y98.764 
G1 X101.254 Y120.836 
G1 X101.389 Y120.892 
G1 X101.749 Y121.02 
G1 X123.509 Y99.26 
G1 X123.677 Y99.732 
G1 X123.685 Y99.762 
G1 X102.251 Y121.196 
G1 X102.775 Y121.351 
G1 X123.841 Y100.285 
G1 X123.93 Y100.586 
G1 X123.986 Y100.819 
G1 X103.307 Y121.498 
G1 X103.733 Y121.604 
G1 X103.855 Y121.629 
G1 X124.118 Y101.366 
G1 X124.139 Y101.453 
G1 X124.228 Y101.935 
G1 X104.432 Y121.731 
G1 X105.054 Y121.788 
G1 X124.326 Y102.516 
G1 X124.405 Y103.115 
G1 X105.676 Y121.845 
G1 X106.297 Y121.902 
G1 X124.46 Y103.739 
G1 X124.489 Y104.101 
G1 X124.496 Y104.382 
G1 X106.919 Y121.959 
G1 X107.541 Y122.016 
G1 X124.506 Y105.051 
G1 X124.469 Y105.767 
G1 X108.232 Y122.004 
G1 X108.4 Y121.999 
G1 X108.826 Y121.971 
G1 X108.955 Y121.959 
G1 X124.432 Y106.483 
G1 X124.414 Y106.819 
G1 X124.359 Y107.234 
G1 X109.723 Y121.87 
G1 X110.153 Y121.813 
G1 X110.528 Y121.744 
G1 X124.233 Y108.039 
G1 X124.141 Y108.535 
G1 X124.055 Y108.896 
G1 X111.386 Y121.565 
G1 X111.895 Y121.443 
G1 X112.31 Y121.32 
G1 X123.81 Y109.82 
G1 X123.681 Y110.256 
G1 X123.477 Y110.832 
G1 X113.321 Y120.988 
G1 X113.608 Y120.886 
G1 X113.986 Y120.735 
G1 X114.466 Y120.521 
G1 X123.02 Y111.968 
G1 X122.659 Y112.725 
G1 X122.323 Y113.343 
G1 X115.835 Y119.832 
G1 X116.384 Y119.514 
G1 X117.131 Y119.029 
G1 X117.806 Y118.539 
G1 X121.004 Y115.341 
G1 X120.721 Y115.71 
G1 X120.143 Y116.387 
G1 X119.516 Y117.049 
G1 X119.222 Y117.335 
G1 X118.545 Y117.944 
G1 X117.852 Y118.505 
G1 X117.806 Y118.539 
G92 
; G1
