;FLAVOR:UltiGCode
;TIME:1095      
;MATERIAL:1924      
;MATERIAL2:0         

;Layer count: 103
;LAYER:19
G0 F12000 X173.67 Y139.60 Z2.20
;TYPE:WALL-INNER
G92 E680
G1 F3000 X164.87 Y139.60 E685.58660
G1 X164.87 Y137.26 E685.68040
G1 X173.67 Y137.25 E686.03240
G1 X173.67 Y139.60 E686.12628
G0 F12000 X174.07 Y139.82
;TYPE:WALL-OUTER
G1 F3000 X174.01 Y140.00 E686.13389
G1 X164.52 Y140.00 E686.51377
G1 X164.47 Y139.82 E686.52141
G1 X164.47 Y136.86 E686.63985
G1 X174.07 Y136.85 E687.02385
G1 X174.07 Y139.82 E687.14241
G0 F12000 X173.54 Y139.00
;TYPE:FILL
G1 F4500 X173.06 Y139.48 E687.16990
G0 F12000 X172.49 Y139.48
G1 F4500 X173.54 Y138.43 E687.22941
G0 F12000 X173.30 Y138.11
G1 F4500 X171.93 Y139.48 E687.30703
G0 F12000 X171.36 Y139.48
G1 F4500 X172.73 Y138.11 E687.38464
G0 F12000 X172.81 Y138.03
G1 F4500 X173.47 Y137.38 E687.42169
G0 F12000 X173.55 Y137.86
G1 F4500 X173.38 Y138.03 E687.43114
G0 F12000 X172.90 Y137.38
G1 F4500 X172.25 Y138.03 E687.46822
G0 F12000 X172.17 Y138.11
G1 F4500 X170.80 Y139.48 E687.54586
G0 F12000 X170.23 Y139.48
G1 F4500 X171.60 Y138.11 E687.62347
G0 F12000 X171.68 Y138.03
G1 F4500 X172.34 Y137.38 E687.66055
G0 F12000 X171.77 Y137.38
G1 F4500 X171.12 Y138.03 E687.69760
G0 F12000 X171.04 Y138.11
G1 F4500 X169.66 Y139.48 E687.77522
G0 F12000 X169.10 Y139.48
G1 F4500 X170.47 Y138.11 E687.85286
G0 F12000 X170.55 Y138.03
G1 F4500 X171.21 Y137.38 E687.88994
G0 F12000 X171.31 Y137.38
G1 F4500 X172.60 Y138.67 E687.96311
G0 F12000 X170.64 Y137.38
G1 F4500 X169.98 Y138.03 E688.00019
G0 F12000 X169.91 Y138.11
G1 F4500 X168.53 Y139.48 E688.07783
G0 F12000 X167.97 Y139.48
G1 F4500 X169.34 Y138.11 E688.15544
G0 F12000 X169.42 Y138.03
G1 F4500 X170.07 Y137.38 E688.19249
G0 F12000 X169.51 Y137.38
G1 F4500 X168.85 Y138.03 E688.22963
G0 F12000 X168.78 Y138.11
G1 F4500 X167.40 Y139.48 E688.30727
G0 F12000 X166.84 Y139.48
G1 F4500 X168.21 Y138.11 E688.38491
G0 F12000 X168.29 Y138.03
G1 F4500 X168.94 Y137.38 E688.42202
G0 F12000 X168.38 Y137.38
G1 F4500 X167.72 Y138.03 E688.45913
G0 F12000 X167.64 Y138.11
G1 F4500 X166.27 Y139.48 E688.53674
G0 F12000 X165.71 Y139.48
G1 F4500 X167.08 Y138.11 E688.61438
G0 F12000 X167.16 Y138.03
G1 F4500 X167.81 Y137.38 E688.65149
G0 F12000 X168.02 Y137.38
G1 F4500 X166.72 Y138.67 E688.72475
G0 F12000 X166.51 Y138.11
G1 F4500 X165.14 Y139.48 E688.80239
G0 F12000 X164.99 Y139.07
G1 F4500 X165.95 Y138.11 E688.85669
G0 F12000 X166.02 Y138.03
G1 F4500 X166.68 Y137.38 E688.89380
G0 F12000 X167.25 Y137.38
G1 F4500 X166.59 Y138.03 E688.93091
G0 F12000 X166.11 Y137.38
G1 F4500 X165.46 Y138.03 E688.96802
G0 F12000 X165.38 Y138.11
G1 F4500 X164.99 Y138.55 E688.99028
G1 X165.02 Y138.30 E688.99457
G1 X165.55 Y137.38 E689.03724
G10
G0 F12000 X164.87 Y142.87
;TYPE:WALL-INNER
G11
G1 F3000 X173.67 Y142.87 E689.38924
G1 X173.67 Y179.72 E690.86312
G1 X164.87 Y179.72 E691.21512
G1 X164.87 Y142.87 E692.68900
G0 F12000 X164.47 Y142.66
;TYPE:WALL-OUTER
G1 F3000 X164.50 Y142.59 E692.69218
G1 X164.52 Y142.47 E692.69707
G1 X174.01 Y142.47 E693.07643
G1 X174.04 Y142.59 E693.08136
G1 X174.07 Y142.66 E693.08461
G1 X174.07 Y179.99 E694.57749
G1 X174.02 Y180.12 E694.58297
G1 X164.52 Y180.12 E694.96317
G1 X164.47 Y179.97 E694.96917
G1 X164.47 Y142.66 E696.46169
G0 F12000 X164.99 Y143.59
;TYPE:FILL
G1 F4500 X165.59 Y142.99 E696.49603
G0 F12000 X166.16 Y142.99
G1 F4500 X164.99 Y144.16 E696.56233
G0 F12000 X165.34 Y144.37
G1 F4500 X166.72 Y142.99 E696.64076
G0 F12000 X167.29 Y142.99
G1 F4500 X165.90 Y144.37 E696.71919
G0 F12000 X166.47 Y144.37
G1 F4500 X167.85 Y142.99 E696.79760
G0 F12000 X168.42 Y142.99
G1 F4500 X167.03 Y144.37 E696.87603
G0 F12000 X167.60 Y144.37
G1 F4500 X168.99 Y142.99 E696.95446
G0 F12000 X169.55 Y142.99
G1 F4500 X168.17 Y144.37 E697.03287
G0 F12000 X168.73 Y144.37
G1 F4500 X170.12 Y142.99 E697.11130
G0 F12000 X170.68 Y142.99
G1 F4500 X169.30 Y144.37 E697.18973
G0 F12000 X169.86 Y144.37
G1 F4500 X171.25 Y142.99 E697.26813
G0 F12000 X171.81 Y142.99
G1 F4500 X170.43 Y144.37 E697.34657
G0 F12000 X170.99 Y144.37
G1 F4500 X172.38 Y142.99 E697.42500
G0 F12000 X172.95 Y142.99
G1 F4500 X171.56 Y144.37 E697.50343
G0 F12000 X172.13 Y144.37
G1 F4500 X173.51 Y142.99 E697.58183
G0 F12000 X173.55 Y143.52
G1 F4500 X172.69 Y144.37 E697.63017
G0 F12000 X173.26 Y144.37
G1 F4500 X173.55 Y144.09 E697.64652
G0 F12000 X173.54 Y146.93
G1 F4500 X164.99 Y155.49 E698.13069
G0 F12000 X164.99 Y153.67
G1 F4500 X173.55 Y162.24 E698.61497
G0 F12000 X173.54 Y162.01
G1 F4500 X164.99 Y170.57 E699.09912
G0 F12000 X164.99 Y168.76
G1 F4500 X173.55 Y177.32 E699.58334
G0 F12000 X173.54 Y177.09
G1 F4500 X171.62 Y179.02 E699.69241
G0 F12000 X171.41 Y178.46
G1 F4500 X170.28 Y179.59 E699.75650
G0 F12000 X169.72 Y179.59
G1 F4500 X170.85 Y178.46 E699.82059
G0 F12000 X170.28 Y178.46
G1 F4500 X169.15 Y179.59 E699.88468
G0 F12000 X168.58 Y179.59
G1 F4500 X169.72 Y178.46 E699.94878
G0 F12000 X169.15 Y178.46
G1 F4500 X168.02 Y179.59 E700.01284
G0 F12000 X167.45 Y179.59
G1 F4500 X168.59 Y178.46 E700.07693
G0 F12000 X168.02 Y178.46
G1 F4500 X166.89 Y179.59 E700.14102
G0 F12000 X166.32 Y179.59
G1 F4500 X167.45 Y178.46 E700.20509
G0 F12000 X166.89 Y178.46
G1 F4500 X165.76 Y179.59 E700.26918
G0 F12000 X165.19 Y179.59
G1 F4500 X166.32 Y178.46 E700.33327
G0 F12000 X165.76 Y178.46
G1 F4500 X164.99 Y179.23 E700.37686
G0 F12000 X164.99 Y178.67
G1 F4500 X165.19 Y178.46 E700.38845
G0 F12000 X164.99 Y178.11
G1 F4500 X173.54 Y169.55 E700.87260
G0 F12000 X173.55 Y169.78
G1 F4500 X164.99 Y161.22 E701.35688
G0 F12000 X164.99 Y163.03
G1 F4500 X173.54 Y154.47 E701.84102
G0 F12000 X173.55 Y154.69
G1 F4500 X164.99 Y146.13 E702.32530
G0 F12000 X164.99 Y147.95
G1 F4500 X169.12 Y143.81 E702.55910
G0 F12000 X170.21 Y143.81
G1 F4500 X173.55 Y147.15 E702.74804
G0 F12000 X164.99 Y176.30
G1 F4500 X167.71 Y179.02 E702.90208
G0 F12000 X170.85 Y179.59
G1 F4500 X171.98 Y178.46 E702.96617
G0 F12000 X172.55 Y178.46
G1 F4500 X171.41 Y179.59 E703.03026
G0 F12000 X171.98 Y179.59
G1 F4500 X173.11 Y178.46 E703.09435
G0 F12000 X173.55 Y178.59
G1 F4500 X172.54 Y179.59 E703.15104
G0 F12000 X173.11 Y179.59
G1 F4500 X173.55 Y179.16 E703.17570
G10
G0 F12000 X173.67 Y182.75
;TYPE:WALL-INNER
G11
G1 F3000 X173.67 Y184.71 E703.25410
G1 X164.87 Y184.71 E703.60610
G1 X164.87 Y182.75 E703.68458
G1 X173.67 Y182.75 E704.03658
G0 F12000 X174.07 Y182.45
;TYPE:WALL-OUTER
G1 F3000 X174.07 Y185.11 E704.14314
G1 X164.47 Y185.11 E704.52714
G1 X164.47 Y182.45 E704.63366
G1 X164.50 Y182.35 E704.63789
G1 X174.03 Y182.35 E705.01893
G1 X174.07 Y182.45 E705.02304
G0 F12000 X173.55 Y183.12
;TYPE:FILL
G1 F4500 X172.68 Y183.98 E705.07186
G0 F12000 X172.63 Y184.04
G1 F4500 X172.07 Y184.31 E705.10325
G1 X171.50 Y184.31 E705.13466
G1 X170.93 Y184.31 E705.16602
G1 X170.37 Y184.31 E705.19737
G1 X169.80 Y184.31 E705.22873
G1 X169.24 Y184.31 E705.26014
G1 X168.67 Y184.31 E705.29150
G1 X168.10 Y184.31 E705.32286
G1 X167.54 Y184.31 E705.35421
G1 X166.97 Y184.31 E705.38557
G1 X166.41 Y184.59 E705.41058
G0 F12000 X166.04 Y184.59
G1 F4500 X167.22 Y183.42 E705.47699
G0 F12000 X167.00 Y182.87
G1 F4500 X165.90 Y183.98 E705.53975
G0 F12000 X165.84 Y184.04
G1 F4500 X165.13 Y184.46 E705.57112
G1 X165.27 Y184.04 E705.58880
G0 F12000 X165.33 Y183.98
G1 F4500 X166.44 Y182.87 E705.65153
G0 F12000 X165.87 Y182.87
G1 F4500 X164.99 Y183.76 E705.70165
G0 F12000 X164.99 Y183.84
G1 F4500 X165.74 Y184.59 E705.74434
G0 F12000 X165.85 Y184.59
G1 F4500 X166.40 Y184.04 E705.77573
G0 F12000 X166.46 Y183.98
G1 F4500 X167.57 Y182.87 E705.83847
G0 F12000 X168.14 Y182.87
G1 F4500 X167.03 Y183.98 E705.90120
G0 F12000 X167.59 Y183.98
G1 F4500 X168.70 Y182.87 E705.96396
G0 F12000 X169.27 Y182.87
G1 F4500 X168.16 Y183.98 E706.02670
G0 F12000 X168.72 Y183.98
G1 F4500 X169.83 Y182.87 E706.08943
G0 F12000 X170.40 Y182.87
G1 F4500 X169.29 Y183.98 E706.15222
G0 F12000 X169.85 Y183.98
G1 F4500 X170.96 Y182.87 E706.21501
G0 F12000 X171.53 Y182.87
G1 F4500 X170.42 Y183.98 E706.27780
G0 F12000 X170.99 Y183.98
G1 F4500 X172.10 Y182.87 E706.34060
G0 F12000 X172.11 Y183.42
G1 F4500 X173.28 Y184.59 E706.40684
G0 F12000 X173.20 Y184.59
G1 F4500 X173.40 Y184.11 E706.42628
G1 X173.37 Y183.86 E706.44315
G1 X172.64 Y184.59 E706.48459
G0 F12000 X172.12 Y183.98
G1 F4500 X173.23 Y182.87 E706.54738
G0 F12000 X172.66 Y182.87
G1 F4500 X171.55 Y183.98 E706.61020
G0 F12000 X165.31 Y182.87
G1 F4500 X164.99 Y183.19 E706.62835
