; G-Code generated by Simplify3D(R) Version 4.1.2
; Dec 15, 2020 at 6:02:33 PM
; Settings Summary
;   processName,Process1
;   applyToModels,Minidoumbek
;   profileName,PLA-1.75mm-N80 (modified)
;   profileVersion,2020-07-06 14:17:30
;   baseProfile,Ultimaker 2 (modified)
;   printMaterial,PLA
;   printQuality,Medium
;   printExtruders,
;   extruderName,Primary Extruder
;   extruderToolheadNumber,0
;   extruderDiameter,0.8
;   extruderAutoWidth,0
;   extruderWidth,0.8
;   extrusionMultiplier,1.05
;   extruderUseRetract,1
;   extruderRetractionDistance,4
;   extruderExtraRestartDistance,0
;   extruderRetractionZLift,0
;   extruderRetractionSpeed,2400
;   extruderUseCoasting,0
;   extruderCoastingDistance,0.2
;   extruderUseWipe,0
;   extruderWipeDistance,5
;   primaryExtruder,0
;   layerHeight,0.25
;   topSolidLayers,0
;   bottomSolidLayers,1
;   perimeterOutlines,2
;   printPerimetersInsideOut,1
;   startPointOption,2
;   startPointOriginX,0
;   startPointOriginY,0
;   sequentialIslands,0
;   spiralVaseMode,0
;   firstLayerHeightPercentage,80
;   firstLayerWidthPercentage,100
;   firstLayerUnderspeed,1
;   useRaft,0
;   raftExtruder,0
;   raftTopLayers,3
;   raftBaseLayers,2
;   raftOffset,3
;   raftSeparationDistance,0.14
;   raftTopInfill,100
;   aboveRaftSpeedMultiplier,0.3
;   useSkirt,1
;   skirtExtruder,0
;   skirtLayers,1
;   skirtOutlines,3
;   skirtOffset,0
;   usePrimePillar,0
;   primePillarExtruder,999
;   primePillarWidth,12
;   primePillarLocation,7
;   primePillarSpeedMultiplier,1
;   useOozeShield,0
;   oozeShieldExtruder,999
;   oozeShieldOffset,2
;   oozeShieldOutlines,1
;   oozeShieldSidewallShape,1
;   oozeShieldSidewallAngle,30
;   oozeShieldSpeedMultiplier,1
;   infillExtruder,0
;   internalInfillPattern,Rectilinear
;   externalInfillPattern,Rectilinear
;   infillPercentage,0
;   outlineOverlapPercentage,30
;   infillExtrusionWidthPercentage,100
;   minInfillLength,1
;   infillLayerInterval,1
;   internalInfillAngles,45,-45
;   overlapInternalInfillAngles,0
;   externalInfillAngles,45
;   generateSupport,0
;   supportExtruder,0
;   supportInfillPercentage,8
;   supportExtraInflation,0
;   supportBaseLayers,0
;   denseSupportExtruder,0
;   denseSupportLayers,0
;   denseSupportInfillPercentage,70
;   supportLayerInterval,1
;   supportHorizontalPartOffset,0.75
;   supportUpperSeparationLayers,1
;   supportLowerSeparationLayers,1
;   supportType,0
;   supportGridSpacing,4
;   maxOverhangAngle,60
;   supportAngles,45
;   temperatureName,Primary Extruder,Heated Build Platform
;   temperatureNumber,0,1
;   temperatureSetpointCount,1,1
;   temperatureSetpointLayers,1,1
;   temperatureSetpointTemperatures,205,60
;   temperatureStabilizeAtStartup,1,1
;   temperatureHeatedBed,0,1
;   fanLayers,1,2,3,4,5
;   fanSpeeds,0,25,50,75,100
;   blipFanToFullPower,1
;   adjustSpeedForCooling,1
;   minSpeedLayerTime,5
;   minCoolingSpeedSlowdown,25
;   increaseFanForCooling,0
;   minFanLayerTime,10
;   maxCoolingFanSpeed,30
;   increaseFanForBridging,0
;   bridgingFanSpeed,45
;   use5D,1
;   relativeEdistances,0
;   allowEaxisZeroing,1
;   independentExtruderAxes,0
;   includeM10123,0
;   stickySupport,1
;   applyToolheadOffsets,0
;   gcodeXoffset,0
;   gcodeYoffset,0
;   gcodeZoffset,0
;   overrideMachineDefinition,1
;   machineTypeOverride,0
;   strokeXoverride,225
;   strokeYoverride,225
;   strokeZoverride,212
;   originOffsetXoverride,0
;   originOffsetYoverride,0
;   originOffsetZoverride,0
;   homeXdirOverride,-1
;   homeYdirOverride,-1
;   homeZdirOverride,-1
;   flipXoverride,1
;   flipYoverride,-1
;   flipZoverride,1
;   toolheadOffsets,0,0|0,0|0,0|0,0|0,0|0,0
;   overrideFirmwareConfiguration,1
;   firmwareTypeOverride,RepRap (Marlin/Repetier/Sprinter)
;   GPXconfigOverride,r2
;   baudRateOverride,250000
;   overridePrinterModels,1
;   printerModelsOverride
;   startingGcode,M907 E1400 ; increase extruder current,G28 ; home all axes,; purging:,G1 X5 Y6 F[travel_speed]  ; move to front near the clamp,G1 Z5 F2400                 ; lower head,G92 E0                           ; reset E,G1 E50 F150                  ; extrude 50mm make a blob,G92 E0                           ; reset E,G1 Z15 F60                    ; higher (hopeing blob will stay on bed),G1 E-5 F2400                  ; retract,G1 X200 Z0 F[travel_speed]  ; move away,G1 E0 F[retract_speed]     ; unretract
;   layerChangeGcode,
;   retractionGcode,
;   toolChangeGcode,
;   endingGcode,G28 X0 ; home the X-axis,M104 S0 ; turn off heaters,M140 S0 ; turn off bed,M84 ; disable motors,M107 ; fan off
;   exportFileFormat,gcode
;   celebration,0
;   celebrationSong,Random Song
;   postProcessing,
;   defaultSpeed,4500
;   outlineUnderspeed,1
;   solidInfillUnderspeed,1
;   supportUnderspeed,1
;   rapidXYspeed,15000
;   rapidZspeed,3000
;   minBridgingArea,5
;   bridgingExtraInflation,0
;   bridgingExtrusionMultiplier,1
;   bridgingSpeedMultiplier,1
;   useFixedBridgingAngle,0
;   fixedBridgingAngle,0
;   applyBridgingToPerimeters,0
;   filamentDiameters,1.75|1.75|1.75|1.75|1.75|1.75
;   filamentPricesPerKg,25|25|25|25|25|25
;   filamentDensities,1.25|1.25|1.25|1.25|1.25|1.25
;   useMinPrintHeight,0
;   minPrintHeight,0
;   useMaxPrintHeight,0
;   maxPrintHeight,0
;   useDiaphragm,0
;   diaphragmLayerInterval,200
;   robustSlicing,1
;   mergeAllIntoSolid,0
;   onlyRetractWhenCrossingOutline,1
;   retractBetweenLayers,0
;   useRetractionMinTravel,1
;   retractionMinTravel,0.02
;   retractWhileWiping,0
;   onlyWipeOutlines,1
;   avoidCrossingOutline,0
;   maxMovementDetourFactor,3
;   toolChangeRetractionDistance,12
;   toolChangeExtraRestartDistance,-0.5
;   toolChangeRetractionSpeed,600
;   externalThinWallType,0
;   internalThinWallType,1
;   thinWallAllowedOverlapPercentage,10
;   singleExtrusionMinLength,0.5
;   singleExtrusionMinPrintingWidthPercentage,50
;   singleExtrusionMaxPrintingWidthPercentage,200
;   singleExtrusionEndpointExtension,0.2
;   horizontalSizeCompensation,0
G90
M82
M106 S0
M140 S60
M190 S60
M104 S205 T0
M109 S205 T0
M907 E1400 ; increase extruder current
G28 ; home all axes
; purging:
G1 X5 Y6 F15000  ; move to front near the clamp
G1 Z5 F2400                 ; lower head
G92 E0                           ; reset E
G1 E50 F150                  ; extrude 50mm make a blob
G92 E0                           ; reset E
G1 Z15 F60                    ; higher (hopeing blob will stay on bed)
G1 E-5 F2400                  ; retract
G1 X200 Z0 F15000  ; move away
G1 E0 F2400     ; unretract
; process Process1
; layer 1, Z = 0.200
T0
G92 E0.0000
G1 E-4.0000 F2400
; feature skirt
; tool H0.200 W0.800
G1 Z0.200 F3000
G1 X83.214 Y85.269 F15000
G1 E0.0000 F2400
G92 E0.0000
G1 X96.825 Y98.249 E0.0834 F4500
G1 X95.061 Y100.492 E0.3326
G1 X94.886 Y100.739 E0.3590
G1 X93.614 Y102.877 E0.5762
G1 X92.867 Y104.508 E0.7328
G1 X92.219 Y104.225 E0.7945
G1 X92.632 Y103.231 E0.8885
G1 X92.878 Y102.692 E0.9402
G1 X93.630 Y101.366 E1.0733
G1 X94.408 Y100.115 E1.2019
G1 X94.740 Y99.622 E1.2538
G1 X95.148 Y99.112 E1.3108
G1 X95.804 Y98.183 E1.4101
G1 X96.960 Y97.055 E1.5511
G1 X97.462 Y97.537 E1.6119
G1 X92.449 Y105.499 F15000
G92 E0.0000
G1 X92.354 Y105.927 E0.0383 F4500
G1 X92.060 Y106.787 E0.1176
G1 X91.397 Y106.588 E0.1780
G1 X91.545 Y106.012 E0.2300
G1 X91.803 Y105.310 E0.2953
G1 X92.449 Y105.499 E0.3541
G1 X92.094 Y118.351 F15000
G92 E0.0000
G1 X92.711 Y120.062 E0.1588 F4500
G1 X92.047 Y120.313 E0.2207
G1 X91.625 Y119.244 E0.3211
G1 X91.432 Y118.564 E0.3827
G1 X92.094 Y118.351 E0.4435
G1 X92.830 Y120.427 F15000
G92 E0.0000
G1 X94.238 Y123.276 E0.2775 F4500
G1 X95.104 Y124.629 E0.4177
G1 X95.165 Y124.704 E0.4262
G1 X95.472 Y125.258 E0.4815
G1 X94.897 Y125.621 E0.5409
G1 X94.546 Y125.129 E0.5937
G1 X93.926 Y124.198 E0.6913
G1 X93.195 Y122.931 E0.8190
G1 X92.798 Y122.282 E0.8855
G1 X92.201 Y120.700 E1.0331
G1 X92.830 Y120.427 E1.0930
G1 X96.222 Y126.147 F15000
G92 E0.0000
G1 X97.922 Y127.905 E0.2135 F4500
G1 X98.861 Y128.733 E0.3228
G1 X100.546 Y129.986 E0.5061
G1 X100.120 Y130.563 E0.5688
G1 X99.080 Y129.802 E0.6813
G1 X98.034 Y129.075 E0.7925
G1 X97.415 Y128.428 E0.8707
G1 X97.092 Y128.125 E0.9093
G1 X95.936 Y126.888 E1.0572
G1 X95.706 Y126.607 E1.0889
G1 X96.222 Y126.147 E1.1492
G1 X102.130 Y130.991 F15000
G92 E0.0000
G1 X104.030 Y131.942 E0.1855 F4500
G1 X105.796 Y132.622 E0.3507
G1 X107.157 Y133.078 E0.4760
G1 X106.955 Y133.747 E0.5371
G1 X106.419 Y133.602 E0.5855
G1 X105.463 Y133.263 E0.6741
G1 X104.285 Y132.846 E0.7832
G1 X103.287 Y132.434 E0.8774
G1 X101.802 Y131.616 E1.0255
G1 X102.130 Y130.991 E1.0872
G92 E0.0000
G1 E-4.0000 F2400
G1 X120.331 Y132.203 F15000
G1 E0.0000 F2400
G92 E0.0000
G1 X121.056 Y131.919 E0.0683 F4500
G1 X123.208 Y130.824 E0.2791
G1 X125.544 Y129.318 E0.5217
G1 X125.941 Y129.886 E0.5822
G1 X125.222 Y130.431 E0.6610
G1 X123.708 Y131.452 E0.8204
G1 X123.068 Y131.799 E0.8840
G1 X122.508 Y132.061 E0.9380
G1 X122.022 Y132.331 E0.9866
G1 X121.114 Y132.656 E1.0708
G1 X121.005 Y132.712 E1.0814
G1 X120.589 Y132.870 E1.1203
G1 X120.331 Y132.203 E1.1827
G1 X126.274 Y128.697 F15000
G92 E0.0000
G1 X128.146 Y126.838 E0.2304 F4500
G1 X129.570 Y125.065 E0.4289
G1 X130.381 Y124.004 E0.5455
G1 X130.946 Y124.396 E0.6056
G1 X130.696 Y124.794 E0.6466
G1 X129.781 Y126.006 E0.7792
G1 X128.965 Y126.981 E0.8902
G1 X128.634 Y127.346 E0.9332
G1 X127.712 Y128.362 E1.0530
G1 X127.368 Y128.718 E1.0962
G1 X126.710 Y129.205 E1.1677
G1 X126.274 Y128.697 E1.2262
G1 X132.128 Y120.441 F15000
G92 E0.0000
G1 X132.996 Y117.956 E0.2298 F4500
G1 X133.662 Y118.166 E0.2908
G1 X133.325 Y119.362 E0.3994
G1 X132.785 Y120.689 E0.5244
G1 X132.128 Y120.441 E0.5857
G1 X133.662 Y113.581 F15000
G92 E0.0000
G1 X133.721 Y112.727 E0.0747 F4500
G1 X134.406 Y112.740 E0.1345
G1 X134.418 Y113.130 E0.1686
G1 X134.373 Y113.638 E0.2131
G1 X133.662 Y113.581 E0.2753
G1 X133.649 Y111.322 F15000
G92 E0.0000
G1 X133.571 Y109.841 E0.1294 F4500
G1 X134.273 Y109.789 E0.1909
G1 X134.333 Y110.407 E0.2451
G1 X134.360 Y111.292 E0.3224
G1 X133.649 Y111.322 E0.3846
G1 X133.574 Y109.604 F15000
G92 E0.0000
G1 X133.194 Y107.830 E0.1584 F4500
G1 X133.891 Y107.675 E0.2208
G1 X134.198 Y109.006 E0.3401
G1 X134.246 Y109.500 E0.3834
G1 X133.574 Y109.604 E0.4427
G1 X133.124 Y107.492 F15000
G92 E0.0000
G1 X132.384 Y105.095 E0.2191 F4500
G1 X133.040 Y104.866 E0.2797
G1 X133.207 Y105.295 E0.3199
G1 X133.592 Y106.488 E0.4293
G1 X133.801 Y107.302 E0.5027
G1 X133.124 Y107.492 E0.5640
G1 X132.266 Y104.817 F15000
G92 E0.0000
G1 X131.281 Y102.727 E0.2018 F4500
G1 X131.908 Y102.411 E0.2630
G1 X132.492 Y103.501 E0.3710
G1 X132.907 Y104.538 E0.4685
G1 X132.266 Y104.817 E0.5295
G1 X126.885 Y96.905 F15000
G92 E0.0000
G1 X125.862 Y96.060 E0.1159 F4500
G1 X126.308 Y95.506 E0.1780
G1 X126.951 Y96.011 E0.2494
G1 X127.346 Y96.381 E0.2966
G1 X126.885 Y96.905 E0.3576
; feature outer perimeter
G1 X127.473 Y95.404 F15000
G92 E0.0000
G1 X128.493 Y96.358 E0.1220 F4500
G1 X129.180 Y97.028 E0.2058
G1 X129.808 Y97.704 E0.2863
G1 X131.035 Y99.298 E0.4619
G1 X131.391 Y99.834 E0.5181
G1 X131.774 Y100.466 E0.5827
G1 X133.218 Y103.163 E0.8497
G1 X133.866 Y104.781 E1.0019
G1 X133.961 Y105.027 E1.0249
G1 X134.361 Y106.265 E1.1386
G1 X134.622 Y107.285 E1.2304
G1 X134.989 Y108.877 E1.3731
G1 X135.131 Y110.356 E1.5029
G1 X135.219 Y113.153 E1.7472
G1 X134.976 Y115.873 E1.9855
G1 X134.627 Y117.693 E2.1473
G1 X134.082 Y119.622 E2.3224
G1 X132.900 Y122.531 E2.5965
G1 X132.011 Y124.167 E2.7591
G1 X131.697 Y124.705 E2.8135
G1 X131.355 Y125.248 E2.8695
G1 X130.407 Y126.504 E3.0069
G1 X129.568 Y127.506 E3.1210
G1 X128.296 Y128.909 E3.2863
G1 X127.897 Y129.321 E3.3364
G1 X127.117 Y129.899 E3.4212
G1 X126.397 Y130.544 E3.5056
G1 X125.688 Y131.082 E3.5833
G1 X124.124 Y132.137 E3.7480
G1 X123.428 Y132.514 E3.8171
G1 X122.872 Y132.774 E3.8707
G1 X122.353 Y133.063 E3.9225
G1 X121.432 Y133.392 E4.0080
G1 X121.329 Y133.444 E4.0180
G1 X119.787 Y134.029 E4.1620
G1 X117.351 Y134.699 E4.3826
G1 X115.285 Y135.056 E4.5656
G1 X114.205 Y135.179 E4.6605
G1 X113.630 Y135.229 E4.7109
G1 X112.726 Y135.231 E4.7898
G1 X110.284 Y135.115 E5.0033
G1 X108.342 Y134.830 E5.1746
G1 X106.970 Y134.580 E5.2964
G1 X106.180 Y134.366 E5.3678
G1 X103.998 Y133.593 E5.5699
G1 X102.941 Y133.157 E5.6698
G1 X100.877 Y132.020 E5.8755
G1 X99.894 Y131.389 E5.9775
G1 X98.616 Y130.453 E6.1158
G1 X97.511 Y129.687 E6.2332
G1 X96.851 Y128.997 E6.3166
G1 X96.525 Y128.690 E6.3556
G1 X95.334 Y127.415 E6.5080
G1 X94.245 Y126.086 E6.6580
G1 X93.887 Y125.583 E6.7119
G1 X93.246 Y124.620 E6.8129
G1 X92.507 Y123.340 E6.9420
G1 X92.076 Y122.635 E7.0141
G1 X91.483 Y121.063 E7.1608
G1 X90.866 Y119.501 E7.3074
G1 X90.409 Y117.895 E7.4532
G1 X90.293 Y117.328 E7.5037
G1 X90.104 Y116.257 E7.5986
G1 X89.851 Y114.175 E7.7818
G1 X89.800 Y112.040 E7.9682
G1 X89.924 Y110.094 E8.1385
G1 X90.190 Y108.283 E8.2983
G1 X90.464 Y107.007 E8.4122
G1 X90.780 Y105.774 E8.5233
G1 X91.322 Y104.299 E8.6606
G1 X91.898 Y102.910 E8.7918
G1 X92.165 Y102.327 E8.8478
G1 X92.942 Y100.957 E8.9853
G1 X93.737 Y99.680 E9.1167
G1 X94.095 Y99.148 E9.1727
G1 X94.509 Y98.631 E9.2304
G1 X95.193 Y97.662 E9.3340
G1 X96.618 Y96.271 E9.5079
G1 X98.028 Y95.003 E9.6735
G1 X99.507 Y93.877 E9.8357
G1 X101.100 Y92.860 E10.0008
G1 X102.319 Y92.197 E10.1219
G1 X105.084 Y90.993 E10.3852
G1 X105.878 Y90.679 E10.4598
G1 X106.328 Y90.562 E10.5004
G1 X106.828 Y90.488 E10.5445
G1 X107.552 Y90.330 E10.6092
G1 X109.715 Y89.964 E10.8007
G1 X110.984 Y89.789 E10.9126
G1 X111.895 Y89.756 E10.9921
G1 X113.030 Y89.788 E11.0913
G1 X114.519 Y89.877 E11.2215
G1 X116.360 Y90.116 E11.3836
G1 X118.902 Y90.709 E11.6115
G1 X120.802 Y91.353 E11.7866
G1 X122.874 Y92.283 E11.9850
G1 X123.993 Y92.865 E12.0951
G1 X124.259 Y93.022 E12.1220
G1 X125.663 Y93.980 E12.2705
G1 X127.473 Y95.404 E12.4714
G1 X126.799 Y97.872 F15000
G92 E0.0000
G1 X124.657 Y96.101 E0.2426 F4500
G1 X123.569 Y95.354 E0.3578
G1 X121.450 Y94.176 E0.5695
G1 X118.359 Y92.968 E0.8593
G1 X116.344 Y92.456 E1.0408
G1 X115.107 Y92.202 E1.1510
G1 X113.432 Y92.057 E1.2978
G1 X112.447 Y92.053 E1.3838
G1 X111.404 Y92.078 E1.4749
G1 X109.932 Y92.267 E1.6045
G1 X107.228 Y92.788 E1.8449
G1 X104.467 Y93.743 E2.1000
G1 X101.530 Y95.304 E2.3903
G1 X100.157 Y96.255 E2.5362
G1 X98.833 Y97.278 E2.6822
G1 X98.321 Y97.777 E2.7447
G1 X97.438 Y98.764 E2.8603
G1 X95.703 Y100.970 E3.1053
G1 X95.558 Y101.175 E3.1272
G1 X94.323 Y103.250 E3.3380
G1 X93.627 Y104.768 E3.4838
G1 X93.165 Y105.967 E3.5960
G1 X93.125 Y106.144 E3.6119
G1 X92.746 Y107.255 E3.7144
G1 X92.560 Y107.938 E3.7762
G1 X92.430 Y108.634 E3.8380
G1 X92.168 Y110.835 E4.0315
G1 X92.109 Y112.134 E4.1451
G1 X92.152 Y114.005 E4.3084
G1 X92.185 Y114.274 E4.3321
G1 X92.242 Y115.118 E4.4060
G1 X92.285 Y115.500 E4.4396
G1 X92.536 Y116.986 E4.5711
G1 X92.767 Y117.858 E4.6499
G1 X93.612 Y120.203 E4.8675
G1 X94.936 Y122.882 E5.1284
G1 X95.754 Y124.160 E5.2609
G1 X95.831 Y124.256 E5.2716
G1 X96.221 Y124.959 E5.3418
G1 X96.678 Y125.469 E5.4016
G1 X98.475 Y127.326 E5.6272
G1 X99.365 Y128.111 E5.7308
G1 X101.404 Y129.627 E5.9527
G1 X102.388 Y130.226 E6.0533
G1 X104.354 Y131.210 E6.2451
G1 X106.067 Y131.869 E6.4054
G1 X107.529 Y132.359 E6.5400
G1 X108.417 Y132.547 E6.6193
G1 X109.118 Y132.630 E6.6810
G1 X110.496 Y132.915 E6.8038
G1 X111.393 Y132.930 E6.8821
G1 X112.009 Y132.968 E6.9360
G1 X112.897 Y132.957 E7.0135
G1 X115.028 Y132.860 E7.1998
G1 X116.397 Y132.541 E7.3225
G1 X117.087 Y132.441 E7.3834
G1 X117.987 Y132.270 E7.4633
G1 X120.754 Y131.175 E7.7232
G1 X122.809 Y130.129 E7.9244
G1 X124.881 Y128.793 E8.1398
G1 X125.601 Y128.238 E8.2191
G1 X127.550 Y126.302 E8.4590
G1 X128.940 Y124.571 E8.6528
G1 X129.842 Y123.391 E8.7825
G1 X130.682 Y121.922 E8.9302
G1 X131.248 Y120.576 E9.0577
G1 X131.394 Y120.119 E9.0996
G1 X132.399 Y117.239 E9.3659
G1 X132.483 Y116.806 E9.4044
G1 X132.753 Y115.124 E9.5532
G1 X132.921 Y112.708 E9.7646
G1 X132.757 Y109.612 E10.0353
G1 X132.340 Y107.663 E10.2093
G1 X131.614 Y105.310 E10.4243
G1 X130.283 Y102.484 E10.6970
G1 X129.580 Y101.209 E10.8241
G1 X128.595 Y99.846 E10.9709
G1 X127.506 Y98.574 E11.1171
G1 X126.799 Y97.872 E11.2042
