; from https://github.com/MarlinFirmware/Marlin/issues/17342
M106 S10 B0.1
M117 P1 - 1.0 Moves
G1 X0 Y0 F3600
G4 S4
G1 X1 Y1.5707
G1 X2 Y3.141
G1 X3 Y4.7102
G1 X4 Y6.2781
G1 X5 Y7.844
G1 X6 Y9.4076
G1 X7 Y10.9682
G1 X8 Y12.5256
G1 X9 Y14.0791
G1 X10 Y15.6283
G1 X11 Y17.1728
G1 X12 Y18.712
G1 X13 Y20.2456
G1 X14 Y21.773
G1 X15 Y23.2937
G1 X16 Y24.8073
G1 X17 Y26.3134
G1 X18 Y27.8115
G1 X19 Y29.3011
G1 X20 Y30.7818
G1 X21 Y32.2531
G1 X22 Y33.7146
G1 X23 Y35.1658
G1 X24 Y36.6063
G1 X25 Y38.0356
G1 X26 Y39.4534
G1 X27 Y40.8591
G1 X28 Y42.2524
G1 X29 Y43.6328
G1 X30 Y45
G1 X31 Y46.3534
G1 X32 Y47.6927
G1 X33 Y49.0175
G1 X34 Y50.3273
G1 X35 Y51.6218
G1 X36 Y52.9006
G1 X37 Y54.1633
G1 X38 Y55.4095
G1 X39 Y56.6388
G1 X40 Y57.8508
G1 X41 Y59.0453
G1 X42 Y60.2217
G1 X43 Y61.3798
G1 X44 Y62.5192
G1 X45 Y63.6396
G1 X46 Y64.7405
G1 X47 Y65.8218
G1 X48 Y66.883
G1 X49 Y67.9238
G1 X50 Y68.944
G1 X51 Y69.9431
G1 X52 Y70.9209
G1 X53 Y71.8772
G1 X54 Y72.8115
G1 X55 Y73.7236
G1 X56 Y74.6133
G1 X57 Y75.4803
G1 X58 Y76.3243
G1 X59 Y77.145
G1 X60 Y77.9422
G1 X61 Y78.7157
G1 X62 Y79.4652
G1 X63 Y80.1905
G1 X64 Y80.8914
G1 X65 Y81.5677
G1 X66 Y82.2191
G1 X67 Y82.8454
G1 X68 Y83.4465
G1 X69 Y84.0222
G1 X70 Y84.5723
G1 X71 Y85.0966
G1 X72 Y85.5951
G1 X73 Y86.0674
G1 X74 Y86.5135
G1 X75 Y86.9333
G1 X76 Y87.3266
G1 X77 Y87.6933
G1 X78 Y88.0333
G1 X79 Y88.3464
G1 X80 Y88.6327
G1 X81 Y88.8919
G1 X82 Y89.1241
G1 X83 Y89.3291
G1 X84 Y89.507
G1 X85 Y89.6575
G1 X86 Y89.7808
G1 X87 Y89.8767
G1 X88 Y89.9452
G1 X89 Y89.9863
G1 X90 Y90
M117 P2 - 0.1 Moves
G1 X0 Y0 F3600
G4 S4
G1 X0.1 Y0.1571
G1 X0.2 Y0.3142
G1 X0.3 Y0.4712
G1 X0.4 Y0.6283
G1 X0.5 Y0.7854
G1 X0.6 Y0.9425
G1 X0.7 Y1.0995
G1 X0.8 Y1.2566
G1 X0.9 Y1.4137
G1 X1 Y1.5707
G1 X1.1 Y1.7278
G1 X1.2 Y1.8848
G1 X1.3 Y2.0419
G1 X1.4 Y2.1989
G1 X1.5 Y2.3559
G1 X1.6 Y2.5129
G1 X1.7 Y2.67
G1 X1.8 Y2.827
G1 X1.9 Y2.984
G1 X2 Y3.141
G1 X2.1 Y3.2979
G1 X2.2 Y3.4549
G1 X2.3 Y3.6119
G1 X2.4 Y3.7688
G1 X2.5 Y3.9257
G1 X2.6 Y4.0827
G1 X2.7 Y4.2396
G1 X2.8 Y4.3965
G1 X2.9 Y4.5534
G1 X3 Y4.7102
G1 X3.1 Y4.8671
G1 X3.2 Y5.0239
G1 X3.3 Y5.1808
G1 X3.4 Y5.3376
G1 X3.5 Y5.4944
G1 X3.6 Y5.6511
G1 X3.7 Y5.8079
G1 X3.8 Y5.9646
G1 X3.9 Y6.1214
G1 X4 Y6.2781
G1 X4.1 Y6.4348
G1 X4.2 Y6.5914
G1 X4.3 Y6.7481
G1 X4.4 Y6.9047
G1 X4.5 Y7.0613
G1 X4.6 Y7.2179
G1 X4.7 Y7.3745
G1 X4.8 Y7.531
G1 X4.9 Y7.6875
G1 X5 Y7.844
G1 X5.1 Y8.0005
G1 X5.2 Y8.1569
G1 X5.3 Y8.3133
G1 X5.4 Y8.4697
G1 X5.5 Y8.6261
G1 X5.6 Y8.7825
G1 X5.7 Y8.9388
G1 X5.8 Y9.0951
G1 X5.9 Y9.2513
G1 X6 Y9.4076
G1 X6.1 Y9.5638
G1 X6.2 Y9.7199
G1 X6.3 Y9.8761
G1 X6.4 Y10.0322
G1 X6.5 Y10.1883
G1 X6.6 Y10.3443
G1 X6.7 Y10.5004
G1 X6.8 Y10.6563
G1 X6.9 Y10.8123
G1 X7 Y10.9682
G1 X7.1 Y11.1241
G1 X7.2 Y11.28
G1 X7.3 Y11.4358
G1 X7.4 Y11.5916
G1 X7.5 Y11.7473
G1 X7.6 Y11.9031
G1 X7.7 Y12.0587
G1 X7.8 Y12.2144
G1 X7.9 Y12.37
G1 X8 Y12.5256
G1 X8.1 Y12.6811
G1 X8.2 Y12.8366
G1 X8.3 Y12.992
G1 X8.4 Y13.1475
G1 X8.5 Y13.3028
G1 X8.6 Y13.4582
G1 X8.7 Y13.6135
G1 X8.8 Y13.7687
G1 X8.9 Y13.9239
G1 X9 Y14.0791
G1 X9.1 Y14.2342
G1 X9.2 Y14.3893
G1 X9.3 Y14.5443
G1 X9.4 Y14.6993
G1 X9.5 Y14.8543
G1 X9.6 Y15.0092
G1 X9.7 Y15.164
G1 X9.8 Y15.3188
G1 X9.9 Y15.4736
G1 X10 Y15.6283
G1 X10.1 Y15.783
G1 X10.2 Y15.9376
G1 X10.3 Y16.0922
G1 X10.4 Y16.2467
G1 X10.5 Y16.4012
G1 X10.6 Y16.5556
G1 X10.7 Y16.71
G1 X10.8 Y16.8643
G1 X10.9 Y17.0186
G1 X11 Y17.1728
G1 X11.1 Y17.327
G1 X11.2 Y17.4811
G1 X11.3 Y17.6351
G1 X11.4 Y17.7891
G1 X11.5 Y17.9431
G1 X11.6 Y18.097
G1 X11.7 Y18.2508
G1 X11.8 Y18.4046
G1 X11.9 Y18.5584
G1 X12 Y18.712
G1 X12.1 Y18.8657
G1 X12.2 Y19.0192
G1 X12.3 Y19.1727
G1 X12.4 Y19.3262
G1 X12.5 Y19.4795
G1 X12.6 Y19.6329
G1 X12.7 Y19.7861
G1 X12.8 Y19.9393
G1 X12.9 Y20.0925
G1 X13 Y20.2456
G1 X13.1 Y20.3986
G1 X13.2 Y20.5516
G1 X13.3 Y20.7045
G1 X13.4 Y20.8573
G1 X13.5 Y21.0101
G1 X13.6 Y21.1628
G1 X13.7 Y21.3154
G1 X13.8 Y21.468
G1 X13.9 Y21.6205
G1 X14 Y21.773
G1 X14.1 Y21.9253
G1 X14.2 Y22.0776
G1 X14.3 Y22.2299
G1 X14.4 Y22.3821
G1 X14.5 Y22.5342
G1 X14.6 Y22.6862
G1 X14.7 Y22.8382
G1 X14.8 Y22.9901
G1 X14.9 Y23.1419
G1 X15 Y23.2937
G1 X15.1 Y23.4454
G1 X15.2 Y23.597
G1 X15.3 Y23.7486
G1 X15.4 Y23.9
G1 X15.5 Y24.0514
G1 X15.6 Y24.2028
G1 X15.7 Y24.354
G1 X15.8 Y24.5052
G1 X15.9 Y24.6563
G1 X16 Y24.8073
G1 X16.1 Y24.9583
G1 X16.2 Y25.1092
G1 X16.3 Y25.26
G1 X16.4 Y25.4107
G1 X16.5 Y25.5614
G1 X16.6 Y25.7119
G1 X16.7 Y25.8624
G1 X16.8 Y26.0128
G1 X16.9 Y26.1632
G1 X17 Y26.3134
G1 X17.1 Y26.4636
G1 X17.2 Y26.6137
G1 X17.3 Y26.7637
G1 X17.4 Y26.9136
G1 X17.5 Y27.0635
G1 X17.6 Y27.2133
G1 X17.7 Y27.363
G1 X17.8 Y27.5126
G1 X17.9 Y27.6621
G1 X18 Y27.8115
G1 X18.1 Y27.9609
G1 X18.2 Y28.1101
G1 X18.3 Y28.2593
G1 X18.4 Y28.4084
G1 X18.5 Y28.5574
G1 X18.6 Y28.7063
G1 X18.7 Y28.8551
G1 X18.8 Y29.0039
G1 X18.9 Y29.1525
G1 X19 Y29.3011
G1 X19.1 Y29.4496
G1 X19.2 Y29.598
G1 X19.3 Y29.7463
G1 X19.4 Y29.8945
G1 X19.5 Y30.0426
G1 X19.6 Y30.1906
G1 X19.7 Y30.3385
G1 X19.8 Y30.4864
G1 X19.9 Y30.6341
G1 X20 Y30.7818
G1 X20.1 Y30.9293
G1 X20.2 Y31.0768
G1 X20.3 Y31.2242
G1 X20.4 Y31.3715
G1 X20.5 Y31.5186
G1 X20.6 Y31.6657
G1 X20.7 Y31.8127
G1 X20.8 Y31.9596
G1 X20.9 Y32.1064
G1 X21 Y32.2531
G1 X21.1 Y32.3997
G1 X21.2 Y32.5462
G1 X21.3 Y32.6926
G1 X21.4 Y32.8389
G1 X21.5 Y32.9851
G1 X21.6 Y33.1312
G1 X21.7 Y33.2772
G1 X21.8 Y33.4231
G1 X21.9 Y33.5689
G1 X22 Y33.7146
G1 X22.1 Y33.8602
G1 X22.2 Y34.0056
G1 X22.3 Y34.151
G1 X22.4 Y34.2963
G1 X22.5 Y34.4415
G1 X22.6 Y34.5866
G1 X22.7 Y34.7315
G1 X22.8 Y34.8764
G1 X22.9 Y35.0211
G1 X23 Y35.1658
G1 X23.1 Y35.3103
G1 X23.2 Y35.4547
G1 X23.3 Y35.5991
G1 X23.4 Y35.7433
G1 X23.5 Y35.8874
G1 X23.6 Y36.0314
G1 X23.7 Y36.1753
G1 X23.8 Y36.319
G1 X23.9 Y36.4627
G1 X24 Y36.6063
G1 X24.1 Y36.7497
G1 X24.2 Y36.893
G1 X24.3 Y37.0363
G1 X24.4 Y37.1794
G1 X24.5 Y37.3224
G1 X24.6 Y37.4652
G1 X24.7 Y37.608
G1 X24.8 Y37.7507
G1 X24.9 Y37.8932
G1 X25 Y38.0356
G1 X25.1 Y38.1779
G1 X25.2 Y38.3201
G1 X25.3 Y38.4622
G1 X25.4 Y38.6041
G1 X25.5 Y38.746
G1 X25.6 Y38.8877
G1 X25.7 Y39.0293
G1 X25.8 Y39.1708
G1 X25.9 Y39.3121
G1 X26 Y39.4534
G1 X26.1 Y39.5945
G1 X26.2 Y39.7355
G1 X26.3 Y39.8764
G1 X26.4 Y40.0171
G1 X26.5 Y40.1578
G1 X26.6 Y40.2983
G1 X26.7 Y40.4387
G1 X26.8 Y40.5789
G1 X26.9 Y40.7191
G1 X27 Y40.8591
G1 X27.1 Y40.999
G1 X27.2 Y41.1388
G1 X27.3 Y41.2784
G1 X27.4 Y41.4179
G1 X27.5 Y41.5573
G1 X27.6 Y41.6966
G1 X27.7 Y41.8358
G1 X27.8 Y41.9748
G1 X27.9 Y42.1137
G1 X28 Y42.2524
G1 X28.1 Y42.391
G1 X28.2 Y42.5295
G1 X28.3 Y42.6679
G1 X28.4 Y42.8061
G1 X28.5 Y42.9443
G1 X28.6 Y43.0822
G1 X28.7 Y43.2201
G1 X28.8 Y43.3578
G1 X28.9 Y43.4954
G1 X29 Y43.6328
G1 X29.1 Y43.7702
G1 X29.2 Y43.9073
G1 X29.3 Y44.0444
G1 X29.4 Y44.1813
G1 X29.5 Y44.3181
G1 X29.6 Y44.4547
G1 X29.7 Y44.5912
G1 X29.8 Y44.7276
G1 X29.9 Y44.8639
G1 X30 Y45
G1 X30.1 Y45.1359
G1 X30.2 Y45.2718
G1 X30.3 Y45.4075
G1 X30.4 Y45.543
G1 X30.5 Y45.6784
G1 X30.6 Y45.8137
G1 X30.7 Y45.9488
G1 X30.8 Y46.0838
G1 X30.9 Y46.2187
G1 X31 Y46.3534
G1 X31.1 Y46.488
G1 X31.2 Y46.6224
G1 X31.3 Y46.7567
G1 X31.4 Y46.8908
G1 X31.5 Y47.0248
G1 X31.6 Y47.1587
G1 X31.7 Y47.2924
G1 X31.8 Y47.426
G1 X31.9 Y47.5594
G1 X32 Y47.6927
G1 X32.1 Y47.8258
G1 X32.2 Y47.9588
G1 X32.3 Y48.0917
G1 X32.4 Y48.2244
G1 X32.5 Y48.3569
G1 X32.6 Y48.4893
G1 X32.7 Y48.6216
G1 X32.8 Y48.7537
G1 X32.9 Y48.8857
G1 X33 Y49.0175
G1 X33.1 Y49.1491
G1 X33.2 Y49.2807
G1 X33.3 Y49.412
G1 X33.4 Y49.5432
G1 X33.5 Y49.6743
G1 X33.6 Y49.8052
G1 X33.7 Y49.936
G1 X33.8 Y50.0666
G1 X33.9 Y50.197
G1 X34 Y50.3273
G1 X34.1 Y50.4575
G1 X34.2 Y50.5875
G1 X34.3 Y50.7173
G1 X34.4 Y50.847
G1 X34.5 Y50.9765
G1 X34.6 Y51.1059
G1 X34.7 Y51.2351
G1 X34.8 Y51.3642
G1 X34.9 Y51.4931
G1 X35 Y51.6218
G1 X35.1 Y51.7504
G1 X35.2 Y51.8789
G1 X35.3 Y52.0071
G1 X35.4 Y52.1353
G1 X35.5 Y52.2632
G1 X35.6 Y52.391
G1 X35.7 Y52.5187
G1 X35.8 Y52.6462
G1 X35.9 Y52.7735
G1 X36 Y52.9006
G1 X36.1 Y53.0276
G1 X36.2 Y53.1545
G1 X36.3 Y53.2811
G1 X36.4 Y53.4077
G1 X36.5 Y53.534
G1 X36.6 Y53.6602
G1 X36.7 Y53.7862
G1 X36.8 Y53.9121
G1 X36.9 Y54.0378
G1 X37 Y54.1633
G1 X37.1 Y54.2887
G1 X37.2 Y54.4139
G1 X37.3 Y54.5389
G1 X37.4 Y54.6638
G1 X37.5 Y54.7885
G1 X37.6 Y54.913
G1 X37.7 Y55.0374
G1 X37.8 Y55.1616
G1 X37.9 Y55.2856
G1 X38 Y55.4095
G1 X38.1 Y55.5332
G1 X38.2 Y55.6567
G1 X38.3 Y55.7801
G1 X38.4 Y55.9033
G1 X38.5 Y56.0263
G1 X38.6 Y56.1491
G1 X38.7 Y56.2718
G1 X38.8 Y56.3943
G1 X38.9 Y56.5166
G1 X39 Y56.6388
G1 X39.1 Y56.7608
G1 X39.2 Y56.8826
G1 X39.3 Y57.0042
G1 X39.4 Y57.1257
G1 X39.5 Y57.247
G1 X39.6 Y57.3681
G1 X39.7 Y57.4891
G1 X39.8 Y57.6098
G1 X39.9 Y57.7304
G1 X40 Y57.8508
G1 X40.1 Y57.9711
G1 X40.2 Y58.0912
G1 X40.3 Y58.211
G1 X40.4 Y58.3308
G1 X40.5 Y58.4503
G1 X40.6 Y58.5696
G1 X40.7 Y58.6888
G1 X40.8 Y58.8078
G1 X40.9 Y58.9266
G1 X41 Y59.0453
G1 X41.1 Y59.1637
G1 X41.2 Y59.282
G1 X41.3 Y59.4001
G1 X41.4 Y59.518
G1 X41.5 Y59.6358
G1 X41.6 Y59.7533
G1 X41.7 Y59.8707
G1 X41.8 Y59.9879
G1 X41.9 Y60.1049
G1 X42 Y60.2217
G1 X42.1 Y60.3384
G1 X42.2 Y60.4548
G1 X42.3 Y60.5711
G1 X42.4 Y60.6872
G1 X42.5 Y60.8031
G1 X42.6 Y60.9188
G1 X42.7 Y61.0343
G1 X42.8 Y61.1497
G1 X42.9 Y61.2648
G1 X43 Y61.3798
G1 X43.1 Y61.4946
G1 X43.2 Y61.6092
G1 X43.3 Y61.7236
G1 X43.4 Y61.8378
G1 X43.5 Y61.9519
G1 X43.6 Y62.0657
G1 X43.7 Y62.1794
G1 X43.8 Y62.2928
G1 X43.9 Y62.4061
G1 X44 Y62.5192
G1 X44.1 Y62.6321
G1 X44.2 Y62.7448
G1 X44.3 Y62.8573
G1 X44.4 Y62.9697
G1 X44.5 Y63.0818
G1 X44.6 Y63.1937
G1 X44.7 Y63.3055
G1 X44.8 Y63.417
G1 X44.9 Y63.5284
G1 X45 Y63.6396
G1 X45.1 Y63.7505
G1 X45.2 Y63.8613
G1 X45.3 Y63.9719
G1 X45.4 Y64.0823
G1 X45.5 Y64.1925
G1 X45.6 Y64.3025
G1 X45.7 Y64.4123
G1 X45.8 Y64.5219
G1 X45.9 Y64.6313
G1 X46 Y64.7405
G1 X46.1 Y64.8496
G1 X46.2 Y64.9584
G1 X46.3 Y65.067
G1 X46.4 Y65.1754
G1 X46.5 Y65.2837
G1 X46.6 Y65.3917
G1 X46.7 Y65.4995
G1 X46.8 Y65.6071
G1 X46.9 Y65.7146
G1 X47 Y65.8218
G1 X47.1 Y65.9288
G1 X47.2 Y66.0356
G1 X47.3 Y66.1423
G1 X47.4 Y66.2487
G1 X47.5 Y66.3549
G1 X47.6 Y66.4609
G1 X47.7 Y66.5668
G1 X47.8 Y66.6724
G1 X47.9 Y66.7778
G1 X48 Y66.883
G1 X48.1 Y66.988
G1 X48.2 Y67.0928
G1 X48.3 Y67.1974
G1 X48.4 Y67.3018
G1 X48.5 Y67.406
G1 X48.6 Y67.51
G1 X48.7 Y67.6137
G1 X48.8 Y67.7173
G1 X48.9 Y67.8207
G1 X49 Y67.9238
G1 X49.1 Y68.0268
G1 X49.2 Y68.1295
G1 X49.3 Y68.232
G1 X49.4 Y68.3344
G1 X49.5 Y68.4365
G1 X49.6 Y68.5384
G1 X49.7 Y68.6401
G1 X49.8 Y68.7416
G1 X49.9 Y68.8429
G1 X50 Y68.944
G1 X50.1 Y69.0448
G1 X50.2 Y69.1455
G1 X50.3 Y69.2459
G1 X50.4 Y69.3461
G1 X50.5 Y69.4462
G1 X50.6 Y69.546
G1 X50.7 Y69.6456
G1 X50.8 Y69.745
G1 X50.9 Y69.8441
G1 X51 Y69.9431
G1 X51.1 Y70.0418
G1 X51.2 Y70.1404
G1 X51.3 Y70.2387
G1 X51.4 Y70.3368
G1 X51.5 Y70.4347
G1 X51.6 Y70.5324
G1 X51.7 Y70.6298
G1 X51.8 Y70.7271
G1 X51.9 Y70.8241
G1 X52 Y70.9209
G1 X52.1 Y71.0175
G1 X52.2 Y71.1139
G1 X52.3 Y71.2101
G1 X52.4 Y71.306
G1 X52.5 Y71.4018
G1 X52.6 Y71.4973
G1 X52.7 Y71.5926
G1 X52.8 Y71.6877
G1 X52.9 Y71.7825
G1 X53 Y71.8772
G1 X53.1 Y71.9716
G1 X53.2 Y72.0658
G1 X53.3 Y72.1598
G1 X53.4 Y72.2535
G1 X53.5 Y72.3471
G1 X53.6 Y72.4404
G1 X53.7 Y72.5335
G1 X53.8 Y72.6264
G1 X53.9 Y72.719
G1 X54 Y72.8115
G1 X54.1 Y72.9037
G1 X54.2 Y72.9957
G1 X54.3 Y73.0875
G1 X54.4 Y73.179
G1 X54.5 Y73.2704
G1 X54.6 Y73.3615
G1 X54.7 Y73.4523
G1 X54.8 Y73.543
G1 X54.9 Y73.6334
G1 X55 Y73.7236
G1 X55.1 Y73.8136
G1 X55.2 Y73.9034
G1 X55.3 Y73.9929
G1 X55.4 Y74.0822
G1 X55.5 Y74.1713
G1 X55.6 Y74.2602
G1 X55.7 Y74.3488
G1 X55.8 Y74.4372
G1 X55.9 Y74.5254
G1 X56 Y74.6133
G1 X56.1 Y74.7011
G1 X56.2 Y74.7886
G1 X56.3 Y74.8758
G1 X56.4 Y74.9629
G1 X56.5 Y75.0497
G1 X56.6 Y75.1363
G1 X56.7 Y75.2226
G1 X56.8 Y75.3087
G1 X56.9 Y75.3946
G1 X57 Y75.4803
G1 X57.1 Y75.5657
G1 X57.2 Y75.651
G1 X57.3 Y75.7359
G1 X57.4 Y75.8207
G1 X57.5 Y75.9052
G1 X57.6 Y75.9895
G1 X57.7 Y76.0735
G1 X57.8 Y76.1573
G1 X57.9 Y76.2409
G1 X58 Y76.3243
G1 X58.1 Y76.4074
G1 X58.2 Y76.4903
G1 X58.3 Y76.573
G1 X58.4 Y76.6554
G1 X58.5 Y76.7376
G1 X58.6 Y76.8195
G1 X58.7 Y76.9013
G1 X58.8 Y76.9827
G1 X58.9 Y77.064
G1 X59 Y77.145
G1 X59.1 Y77.2258
G1 X59.2 Y77.3064
G1 X59.3 Y77.3867
G1 X59.4 Y77.4667
G1 X59.5 Y77.5466
G1 X59.6 Y77.6262
G1 X59.7 Y77.7056
G1 X59.8 Y77.7847
G1 X59.9 Y77.8636
G1 X60 Y77.9422
G1 X60.1 Y78.0207
G1 X60.2 Y78.0989
G1 X60.3 Y78.1768
G1 X60.4 Y78.2545
G1 X60.5 Y78.332
G1 X60.6 Y78.4092
G1 X60.7 Y78.4862
G1 X60.8 Y78.5629
G1 X60.9 Y78.6395
G1 X61 Y78.7157
G1 X61.1 Y78.7918
G1 X61.2 Y78.8676
G1 X61.3 Y78.9431
G1 X61.4 Y79.0184
G1 X61.5 Y79.0935
G1 X61.6 Y79.1683
G1 X61.7 Y79.2429
G1 X61.8 Y79.3173
G1 X61.9 Y79.3914
G1 X62 Y79.4652
G1 X62.1 Y79.5389
G1 X62.2 Y79.6122
G1 X62.3 Y79.6854
G1 X62.4 Y79.7583
G1 X62.5 Y79.8309
G1 X62.6 Y79.9033
G1 X62.7 Y79.9755
G1 X62.8 Y80.0474
G1 X62.9 Y80.1191
G1 X63 Y80.1905
G1 X63.1 Y80.2617
G1 X63.2 Y80.3327
G1 X63.3 Y80.4034
G1 X63.4 Y80.4738
G1 X63.5 Y80.5441
G1 X63.6 Y80.614
G1 X63.7 Y80.6837
G1 X63.8 Y80.7532
G1 X63.9 Y80.8224
G1 X64 Y80.8914
G1 X64.1 Y80.9602
G1 X64.2 Y81.0287
G1 X64.3 Y81.0969
G1 X64.4 Y81.1649
G1 X64.5 Y81.2326
G1 X64.6 Y81.3001
G1 X64.7 Y81.3674
G1 X64.8 Y81.4344
G1 X64.9 Y81.5012
G1 X65 Y81.5677
G1 X65.1 Y81.6339
G1 X65.2 Y81.6999
G1 X65.3 Y81.7657
G1 X65.4 Y81.8312
G1 X65.5 Y81.8965
G1 X65.6 Y81.9615
G1 X65.7 Y82.0263
G1 X65.8 Y82.0908
G1 X65.9 Y82.155
G1 X66 Y82.2191
G1 X66.1 Y82.2828
G1 X66.2 Y82.3463
G1 X66.3 Y82.4096
G1 X66.4 Y82.4726
G1 X66.5 Y82.5354
G1 X66.6 Y82.5979
G1 X66.7 Y82.6601
G1 X66.8 Y82.7221
G1 X66.9 Y82.7839
G1 X67 Y82.8454
G1 X67.1 Y82.9067
G1 X67.2 Y82.9676
G1 X67.3 Y83.0284
G1 X67.4 Y83.0889
G1 X67.5 Y83.1491
G1 X67.6 Y83.2091
G1 X67.7 Y83.2688
G1 X67.8 Y83.3283
G1 X67.9 Y83.3875
G1 X68 Y83.4465
G1 X68.1 Y83.5052
G1 X68.2 Y83.5637
G1 X68.3 Y83.6219
G1 X68.4 Y83.6799
G1 X68.5 Y83.7375
G1 X68.6 Y83.795
G1 X68.7 Y83.8522
G1 X68.8 Y83.9091
G1 X68.9 Y83.9658
G1 X69 Y84.0222
G1 X69.1 Y84.0784
G1 X69.2 Y84.1343
G1 X69.3 Y84.1899
G1 X69.4 Y84.2453
G1 X69.5 Y84.3005
G1 X69.6 Y84.3553
G1 X69.7 Y84.41
G1 X69.8 Y84.4643
G1 X69.9 Y84.5185
G1 X70 Y84.5723
G1 X70.1 Y84.6259
G1 X70.2 Y84.6792
G1 X70.3 Y84.7323
G1 X70.4 Y84.7851
G1 X70.5 Y84.8377
G1 X70.6 Y84.89
G1 X70.7 Y84.9421
G1 X70.8 Y84.9938
G1 X70.9 Y85.0454
G1 X71 Y85.0966
G1 X71.1 Y85.1477
G1 X71.2 Y85.1984
G1 X71.3 Y85.2489
G1 X71.4 Y85.2991
G1 X71.5 Y85.3491
G1 X71.6 Y85.3988
G1 X71.7 Y85.4483
G1 X71.8 Y85.4975
G1 X71.9 Y85.5464
G1 X72 Y85.5951
G1 X72.1 Y85.6435
G1 X72.2 Y85.6916
G1 X72.3 Y85.7395
G1 X72.4 Y85.7871
G1 X72.5 Y85.8345
G1 X72.6 Y85.8816
G1 X72.7 Y85.9284
G1 X72.8 Y85.975
G1 X72.9 Y86.0213
G1 X73 Y86.0674
G1 X73.1 Y86.1132
G1 X73.2 Y86.1587
G1 X73.3 Y86.204
G1 X73.4 Y86.249
G1 X73.5 Y86.2937
G1 X73.6 Y86.3382
G1 X73.7 Y86.3824
G1 X73.8 Y86.4264
G1 X73.9 Y86.4701
G1 X74 Y86.5135
G1 X74.1 Y86.5567
G1 X74.2 Y86.5996
G1 X74.3 Y86.6422
G1 X74.4 Y86.6846
G1 X74.5 Y86.7267
G1 X74.6 Y86.7686
G1 X74.7 Y86.8101
G1 X74.8 Y86.8515
G1 X74.9 Y86.8925
G1 X75 Y86.9333
G1 X75.1 Y86.9738
G1 X75.2 Y87.0141
G1 X75.3 Y87.0541
G1 X75.4 Y87.0938
G1 X75.5 Y87.1333
G1 X75.6 Y87.1725
G1 X75.7 Y87.2114
G1 X75.8 Y87.2501
G1 X75.9 Y87.2885
G1 X76 Y87.3266
G1 X76.1 Y87.3645
G1 X76.2 Y87.4021
G1 X76.3 Y87.4394
G1 X76.4 Y87.4765
G1 X76.5 Y87.5133
G1 X76.6 Y87.5498
G1 X76.7 Y87.5861
G1 X76.8 Y87.6221
G1 X76.9 Y87.6578
G1 X77 Y87.6933
G1 X77.1 Y87.7285
G1 X77.2 Y87.7634
G1 X77.3 Y87.7981
G1 X77.4 Y87.8325
G1 X77.5 Y87.8666
G1 X77.6 Y87.9005
G1 X77.7 Y87.9341
G1 X77.8 Y87.9674
G1 X77.9 Y88.0005
G1 X78 Y88.0333
G1 X78.1 Y88.0658
G1 X78.2 Y88.098
G1 X78.3 Y88.13
G1 X78.4 Y88.1618
G1 X78.5 Y88.1932
G1 X78.6 Y88.2244
G1 X78.7 Y88.2553
G1 X78.8 Y88.2859
G1 X78.9 Y88.3163
G1 X79 Y88.3464
G1 X79.1 Y88.3763
G1 X79.2 Y88.4058
G1 X79.3 Y88.4351
G1 X79.4 Y88.4642
G1 X79.5 Y88.4929
G1 X79.6 Y88.5214
G1 X79.7 Y88.5496
G1 X79.8 Y88.5776
G1 X79.9 Y88.6053
G1 X80 Y88.6327
G1 X80.1 Y88.6598
G1 X80.2 Y88.6867
G1 X80.3 Y88.7133
G1 X80.4 Y88.7396
G1 X80.5 Y88.7657
G1 X80.6 Y88.7915
G1 X80.7 Y88.817
G1 X80.8 Y88.8422
G1 X80.9 Y88.8672
G1 X81 Y88.8919
G1 X81.1 Y88.9164
G1 X81.2 Y88.9405
G1 X81.3 Y88.9644
G1 X81.4 Y88.9881
G1 X81.5 Y89.0114
G1 X81.6 Y89.0345
G1 X81.7 Y89.0573
G1 X81.8 Y89.0798
G1 X81.9 Y89.1021
G1 X82 Y89.1241
G1 X82.1 Y89.1458
G1 X82.2 Y89.1673
G1 X82.3 Y89.1885
G1 X82.4 Y89.2094
G1 X82.5 Y89.23
G1 X82.6 Y89.2504
G1 X82.7 Y89.2705
G1 X82.8 Y89.2903
G1 X82.9 Y89.3099
G1 X83 Y89.3291
G1 X83.1 Y89.3481
G1 X83.2 Y89.3669
G1 X83.3 Y89.3853
G1 X83.4 Y89.4035
G1 X83.5 Y89.4215
G1 X83.6 Y89.4391
G1 X83.7 Y89.4565
G1 X83.8 Y89.4736
G1 X83.9 Y89.4904
G1 X84 Y89.507
G1 X84.1 Y89.5232
G1 X84.2 Y89.5393
G1 X84.3 Y89.555
G1 X84.4 Y89.5705
G1 X84.5 Y89.5856
G1 X84.6 Y89.6006
G1 X84.7 Y89.6152
G1 X84.8 Y89.6296
G1 X84.9 Y89.6437
G1 X85 Y89.6575
G1 X85.1 Y89.6711
G1 X85.2 Y89.6843
G1 X85.3 Y89.6974
G1 X85.4 Y89.7101
G1 X85.5 Y89.7226
G1 X85.6 Y89.7347
G1 X85.7 Y89.7467
G1 X85.8 Y89.7583
G1 X85.9 Y89.7697
G1 X86 Y89.7808
G1 X86.1 Y89.7916
G1 X86.2 Y89.8021
G1 X86.3 Y89.8124
G1 X86.4 Y89.8224
G1 X86.5 Y89.8321
G1 X86.6 Y89.8416
G1 X86.7 Y89.8508
G1 X86.8 Y89.8597
G1 X86.9 Y89.8683
G1 X87 Y89.8767
G1 X87.1 Y89.8847
G1 X87.2 Y89.8925
G1 X87.3 Y89.9001
G1 X87.4 Y89.9073
G1 X87.5 Y89.9143
G1 X87.6 Y89.921
G1 X87.7 Y89.9275
G1 X87.8 Y89.9337
G1 X87.9 Y89.9396
G1 X88 Y89.9452
G1 X88.1 Y89.9505
G1 X88.2 Y89.9556
G1 X88.3 Y89.9604
G1 X88.4 Y89.9649
G1 X88.5 Y89.9692
G1 X88.6 Y89.9731
G1 X88.7 Y89.9768
G1 X88.8 Y89.9803
G1 X88.9 Y89.9834
G1 X89 Y89.9863
G1 X89.1 Y89.9889
G1 X89.2 Y89.9912
G1 X89.3 Y89.9933
G1 X89.4 Y89.9951
G1 X89.5 Y89.9966
G1 X89.6 Y89.9978
G1 X89.7 Y89.9988
G1 X89.8 Y89.9995
G1 X89.9 Y89.9999
G1 X90 Y90
M117 P3 - 0.01 Moves
G1 X0 Y0 F3600
; G4 S4
G1 X0.01 Y0.0157
G1 X0.02 Y0.0314
G1 X0.03 Y0.0471
G1 X0.04 Y0.0628
G1 X0.05 Y0.0785
G1 X0.06 Y0.0942
G1 X0.07 Y0.11
G1 X0.08 Y0.1257
G1 X0.09 Y0.1414
G1 X0.1 Y0.1571
G1 X0.11 Y0.1728
G1 X0.12 Y0.1885
G1 X0.13 Y0.2042
G1 X0.14 Y0.2199
G1 X0.15 Y0.2356
G1 X0.16 Y0.2513
G1 X0.17 Y0.267
G1 X0.18 Y0.2827
G1 X0.19 Y0.2985
G1 X0.2 Y0.3142
G1 X0.21 Y0.3299
G1 X0.22 Y0.3456
G1 X0.23 Y0.3613
G1 X0.24 Y0.377
G1 X0.25 Y0.3927
G1 X0.26 Y0.4084
G1 X0.27 Y0.4241
G1 X0.28 Y0.4398
G1 X0.29 Y0.4555
G1 X0.3 Y0.4712
G1 X0.31 Y0.4869
G1 X0.32 Y0.5027
G1 X0.33 Y0.5184
G1 X0.34 Y0.5341
G1 X0.35 Y0.5498
G1 X0.36 Y0.5655
G1 X0.37 Y0.5812
G1 X0.38 Y0.5969
G1 X0.39 Y0.6126
G1 X0.4 Y0.6283
G1 X0.41 Y0.644
G1 X0.42 Y0.6597
G1 X0.43 Y0.6754
G1 X0.44 Y0.6911
G1 X0.45 Y0.7069
G1 X0.46 Y0.7226
G1 X0.47 Y0.7383
G1 X0.48 Y0.754
G1 X0.49 Y0.7697
G1 X0.5 Y0.7854
G1 X0.51 Y0.8011
G1 X0.52 Y0.8168
G1 X0.53 Y0.8325
G1 X0.54 Y0.8482
G1 X0.55 Y0.8639
G1 X0.56 Y0.8796
G1 X0.57 Y0.8953
G1 X0.58 Y0.911
G1 X0.59 Y0.9268
G1 X0.6 Y0.9425
G1 X0.61 Y0.9582
G1 X0.62 Y0.9739
G1 X0.63 Y0.9896
G1 X0.64 Y1.0053
G1 X0.65 Y1.021
G1 X0.66 Y1.0367
G1 X0.67 Y1.0524
G1 X0.68 Y1.0681
G1 X0.69 Y1.0838
G1 X0.7 Y1.0995
G1 X0.71 Y1.1152
G1 X0.72 Y1.1309
G1 X0.73 Y1.1466
G1 X0.74 Y1.1624
G1 X0.75 Y1.1781
G1 X0.76 Y1.1938
G1 X0.77 Y1.2095
G1 X0.78 Y1.2252
G1 X0.79 Y1.2409
G1 X0.8 Y1.2566
G1 X0.81 Y1.2723
G1 X0.82 Y1.288
G1 X0.83 Y1.3037
G1 X0.84 Y1.3194
G1 X0.85 Y1.3351
G1 X0.86 Y1.3508
G1 X0.87 Y1.3665
G1 X0.88 Y1.3822
G1 X0.89 Y1.398
G1 X0.9 Y1.4137
G1 X0.91 Y1.4294
G1 X0.92 Y1.4451
G1 X0.93 Y1.4608
G1 X0.94 Y1.4765
G1 X0.95 Y1.4922
G1 X0.96 Y1.5079
G1 X0.97 Y1.5236
G1 X0.98 Y1.5393
G1 X0.99 Y1.555
G1 X1 Y1.5707
G1 X1.01 Y1.5864
G1 X1.02 Y1.6021
G1 X1.03 Y1.6178
G1 X1.04 Y1.6335
G1 X1.05 Y1.6492
G1 X1.06 Y1.6649
G1 X1.07 Y1.6807
G1 X1.08 Y1.6964
G1 X1.09 Y1.7121
G1 X1.1 Y1.7278
G1 X1.11 Y1.7435
G1 X1.12 Y1.7592
G1 X1.13 Y1.7749
G1 X1.14 Y1.7906
G1 X1.15 Y1.8063
G1 X1.16 Y1.822
G1 X1.17 Y1.8377
G1 X1.18 Y1.8534
G1 X1.19 Y1.8691
G1 X1.2 Y1.8848
G1 X1.21 Y1.9005
G1 X1.22 Y1.9162
G1 X1.23 Y1.9319
G1 X1.24 Y1.9476
G1 X1.25 Y1.9633
G1 X1.26 Y1.979
G1 X1.27 Y1.9947
G1 X1.28 Y2.0105
G1 X1.29 Y2.0262
G1 X1.3 Y2.0419
G1 X1.31 Y2.0576
G1 X1.32 Y2.0733
G1 X1.33 Y2.089
G1 X1.34 Y2.1047
G1 X1.35 Y2.1204
G1 X1.36 Y2.1361
G1 X1.37 Y2.1518
G1 X1.38 Y2.1675
G1 X1.39 Y2.1832
G1 X1.4 Y2.1989
G1 X1.41 Y2.2146
G1 X1.42 Y2.2303
G1 X1.43 Y2.246
G1 X1.44 Y2.2617
G1 X1.45 Y2.2774
G1 X1.46 Y2.2931
G1 X1.47 Y2.3088
G1 X1.48 Y2.3245
G1 X1.49 Y2.3402
G1 X1.5 Y2.3559
G1 X1.51 Y2.3716
G1 X1.52 Y2.3873
G1 X1.53 Y2.403
G1 X1.54 Y2.4187
G1 X1.55 Y2.4344
G1 X1.56 Y2.4501
G1 X1.57 Y2.4658
G1 X1.58 Y2.4815
G1 X1.59 Y2.4972
G1 X1.6 Y2.5129
G1 X1.61 Y2.5286
G1 X1.62 Y2.5443
G1 X1.63 Y2.5601
G1 X1.64 Y2.5758
G1 X1.65 Y2.5915
G1 X1.66 Y2.6072
G1 X1.67 Y2.6229
G1 X1.68 Y2.6386
G1 X1.69 Y2.6543
G1 X1.7 Y2.67
G1 X1.71 Y2.6857
G1 X1.72 Y2.7014
G1 X1.73 Y2.7171
G1 X1.74 Y2.7328
G1 X1.75 Y2.7485
G1 X1.76 Y2.7642
G1 X1.77 Y2.7799
G1 X1.78 Y2.7956
G1 X1.79 Y2.8113
G1 X1.8 Y2.827
G1 X1.81 Y2.8427
G1 X1.82 Y2.8584
G1 X1.83 Y2.8741
G1 X1.84 Y2.8898
G1 X1.85 Y2.9055
G1 X1.86 Y2.9212
G1 X1.87 Y2.9369
G1 X1.88 Y2.9526
G1 X1.89 Y2.9683
G1 X1.9 Y2.984
G1 X1.91 Y2.9997
G1 X1.92 Y3.0154
G1 X1.93 Y3.0311
G1 X1.94 Y3.0468
G1 X1.95 Y3.0625
G1 X1.96 Y3.0782
G1 X1.97 Y3.0939
G1 X1.98 Y3.1096
G1 X1.99 Y3.1253
G1 X2 Y3.141
G1 X2.01 Y3.1567
G1 X2.02 Y3.1723
G1 X2.03 Y3.188
G1 X2.04 Y3.2037
G1 X2.05 Y3.2194
G1 X2.06 Y3.2351
G1 X2.07 Y3.2508
G1 X2.08 Y3.2665
G1 X2.09 Y3.2822
G1 X2.1 Y3.2979
G1 X2.11 Y3.3136
G1 X2.12 Y3.3293
G1 X2.13 Y3.345
G1 X2.14 Y3.3607
G1 X2.15 Y3.3764
G1 X2.16 Y3.3921
G1 X2.17 Y3.4078
G1 X2.18 Y3.4235
G1 X2.19 Y3.4392
G1 X2.2 Y3.4549
G1 X2.21 Y3.4706
G1 X2.22 Y3.4863
G1 X2.23 Y3.502
G1 X2.24 Y3.5177
G1 X2.25 Y3.5334
G1 X2.26 Y3.5491
G1 X2.27 Y3.5648
G1 X2.28 Y3.5805
G1 X2.29 Y3.5962
G1 X2.3 Y3.6119
G1 X2.31 Y3.6276
G1 X2.32 Y3.6432
G1 X2.33 Y3.6589
G1 X2.34 Y3.6746
G1 X2.35 Y3.6903
G1 X2.36 Y3.706
G1 X2.37 Y3.7217
G1 X2.38 Y3.7374
G1 X2.39 Y3.7531
G1 X2.4 Y3.7688
G1 X2.41 Y3.7845
G1 X2.42 Y3.8002
G1 X2.43 Y3.8159
G1 X2.44 Y3.8316
G1 X2.45 Y3.8473
G1 X2.46 Y3.863
G1 X2.47 Y3.8787
G1 X2.48 Y3.8944
G1 X2.49 Y3.91
G1 X2.5 Y3.9257
G1 X2.51 Y3.9414
G1 X2.52 Y3.9571
G1 X2.53 Y3.9728
G1 X2.54 Y3.9885
G1 X2.55 Y4.0042
G1 X2.56 Y4.0199
G1 X2.57 Y4.0356
G1 X2.58 Y4.0513
G1 X2.59 Y4.067
G1 X2.6 Y4.0827
G1 X2.61 Y4.0984
G1 X2.62 Y4.114
G1 X2.63 Y4.1297
G1 X2.64 Y4.1454
G1 X2.65 Y4.1611
G1 X2.66 Y4.1768
G1 X2.67 Y4.1925
G1 X2.68 Y4.2082
G1 X2.69 Y4.2239
G1 X2.7 Y4.2396
G1 X2.71 Y4.2553
G1 X2.72 Y4.271
G1 X2.73 Y4.2866
G1 X2.74 Y4.3023
G1 X2.75 Y4.318
G1 X2.76 Y4.3337
G1 X2.77 Y4.3494
G1 X2.78 Y4.3651
G1 X2.79 Y4.3808
G1 X2.8 Y4.3965
G1 X2.81 Y4.4122
G1 X2.82 Y4.4279
G1 X2.83 Y4.4435
G1 X2.84 Y4.4592
G1 X2.85 Y4.4749
G1 X2.86 Y4.4906
G1 X2.87 Y4.5063
G1 X2.88 Y4.522
G1 X2.89 Y4.5377
G1 X2.9 Y4.5534
G1 X2.91 Y4.569
G1 X2.92 Y4.5847
G1 X2.93 Y4.6004
G1 X2.94 Y4.6161
G1 X2.95 Y4.6318
G1 X2.96 Y4.6475
G1 X2.97 Y4.6632
G1 X2.98 Y4.6789
G1 X2.99 Y4.6945
G1 X3 Y4.7102
G1 X3.01 Y4.7259
G1 X3.02 Y4.7416
G1 X3.03 Y4.7573
G1 X3.04 Y4.773
G1 X3.05 Y4.7887
G1 X3.06 Y4.8043
G1 X3.07 Y4.82
G1 X3.08 Y4.8357
G1 X3.09 Y4.8514
G1 X3.1 Y4.8671
G1 X3.11 Y4.8828
G1 X3.12 Y4.8985
G1 X3.13 Y4.9141
G1 X3.14 Y4.9298
G1 X3.15 Y4.9455
G1 X3.16 Y4.9612
G1 X3.17 Y4.9769
G1 X3.18 Y4.9926
G1 X3.19 Y5.0082
G1 X3.2 Y5.0239
G1 X3.21 Y5.0396
G1 X3.22 Y5.0553
G1 X3.23 Y5.071
G1 X3.24 Y5.0867
G1 X3.25 Y5.1023
G1 X3.26 Y5.118
G1 X3.27 Y5.1337
G1 X3.28 Y5.1494
G1 X3.29 Y5.1651
G1 X3.3 Y5.1808
G1 X3.31 Y5.1964
G1 X3.32 Y5.2121
G1 X3.33 Y5.2278
G1 X3.34 Y5.2435
G1 X3.35 Y5.2592
G1 X3.36 Y5.2748
G1 X3.37 Y5.2905
G1 X3.38 Y5.3062
G1 X3.39 Y5.3219
G1 X3.4 Y5.3376
G1 X3.41 Y5.3532
G1 X3.42 Y5.3689
G1 X3.43 Y5.3846
G1 X3.44 Y5.4003
G1 X3.45 Y5.416
G1 X3.46 Y5.4316
G1 X3.47 Y5.4473
G1 X3.48 Y5.463
G1 X3.49 Y5.4787
G1 X3.5 Y5.4944
G1 X3.51 Y5.51
G1 X3.52 Y5.5257
G1 X3.53 Y5.5414
G1 X3.54 Y5.5571
G1 X3.55 Y5.5728
G1 X3.56 Y5.5884
G1 X3.57 Y5.6041
G1 X3.58 Y5.6198
G1 X3.59 Y5.6355
G1 X3.6 Y5.6511
G1 X3.61 Y5.6668
G1 X3.62 Y5.6825
G1 X3.63 Y5.6982
G1 X3.64 Y5.7138
G1 X3.65 Y5.7295
G1 X3.66 Y5.7452
G1 X3.67 Y5.7609
G1 X3.68 Y5.7766
G1 X3.69 Y5.7922
G1 X3.7 Y5.8079
G1 X3.71 Y5.8236
G1 X3.72 Y5.8393
G1 X3.73 Y5.8549
G1 X3.74 Y5.8706
G1 X3.75 Y5.8863
G1 X3.76 Y5.902
G1 X3.77 Y5.9176
G1 X3.78 Y5.9333
G1 X3.79 Y5.949
G1 X3.8 Y5.9646
G1 X3.81 Y5.9803
G1 X3.82 Y5.996
G1 X3.83 Y6.0117
G1 X3.84 Y6.0273
G1 X3.85 Y6.043
G1 X3.86 Y6.0587
G1 X3.87 Y6.0744
G1 X3.88 Y6.09
G1 X3.89 Y6.1057
G1 X3.9 Y6.1214
G1 X3.91 Y6.137
G1 X3.92 Y6.1527
G1 X3.93 Y6.1684
G1 X3.94 Y6.1841
G1 X3.95 Y6.1997
G1 X3.96 Y6.2154
G1 X3.97 Y6.2311
G1 X3.98 Y6.2467
G1 X3.99 Y6.2624
G1 X4 Y6.2781
G1 X4.01 Y6.2937
G1 X4.02 Y6.3094
G1 X4.03 Y6.3251
G1 X4.04 Y6.3408
G1 X4.05 Y6.3564
G1 X4.06 Y6.3721
G1 X4.07 Y6.3878
G1 X4.08 Y6.4034
G1 X4.09 Y6.4191
G1 X4.1 Y6.4348
G1 X4.11 Y6.4504
G1 X4.12 Y6.4661
G1 X4.13 Y6.4818
G1 X4.14 Y6.4974
G1 X4.15 Y6.5131
G1 X4.16 Y6.5288
G1 X4.17 Y6.5444
G1 X4.18 Y6.5601
G1 X4.19 Y6.5758
G1 X4.2 Y6.5914
G1 X4.21 Y6.6071
G1 X4.22 Y6.6228
G1 X4.23 Y6.6384
G1 X4.24 Y6.6541
G1 X4.25 Y6.6698
G1 X4.26 Y6.6854
G1 X4.27 Y6.7011
G1 X4.28 Y6.7168
G1 X4.29 Y6.7324
G1 X4.3 Y6.7481
G1 X4.31 Y6.7637
G1 X4.32 Y6.7794
G1 X4.33 Y6.7951
G1 X4.34 Y6.8107
G1 X4.35 Y6.8264
G1 X4.36 Y6.8421
G1 X4.37 Y6.8577
G1 X4.38 Y6.8734
G1 X4.39 Y6.889
G1 X4.4 Y6.9047
G1 X4.41 Y6.9204
G1 X4.42 Y6.936
G1 X4.43 Y6.9517
G1 X4.44 Y6.9674
G1 X4.45 Y6.983
G1 X4.46 Y6.9987
G1 X4.47 Y7.0143
G1 X4.48 Y7.03
G1 X4.49 Y7.0457
G1 X4.5 Y7.0613
G1 X4.51 Y7.077
G1 X4.52 Y7.0926
G1 X4.53 Y7.1083
G1 X4.54 Y7.1239
G1 X4.55 Y7.1396
G1 X4.56 Y7.1553
G1 X4.57 Y7.1709
G1 X4.58 Y7.1866
G1 X4.59 Y7.2022
G1 X4.6 Y7.2179
G1 X4.61 Y7.2336
G1 X4.62 Y7.2492
G1 X4.63 Y7.2649
G1 X4.64 Y7.2805
G1 X4.65 Y7.2962
G1 X4.66 Y7.3118
G1 X4.67 Y7.3275
G1 X4.68 Y7.3431
G1 X4.69 Y7.3588
G1 X4.7 Y7.3745
G1 X4.71 Y7.3901
G1 X4.72 Y7.4058
G1 X4.73 Y7.4214
G1 X4.74 Y7.4371
G1 X4.75 Y7.4527
G1 X4.76 Y7.4684
G1 X4.77 Y7.484
G1 X4.78 Y7.4997
G1 X4.79 Y7.5153
G1 X4.8 Y7.531
G1 X4.81 Y7.5467
G1 X4.82 Y7.5623
G1 X4.83 Y7.578
G1 X4.84 Y7.5936
G1 X4.85 Y7.6093
G1 X4.86 Y7.6249
G1 X4.87 Y7.6406
G1 X4.88 Y7.6562
G1 X4.89 Y7.6719
G1 X4.9 Y7.6875
G1 X4.91 Y7.7032
G1 X4.92 Y7.7188
G1 X4.93 Y7.7345
G1 X4.94 Y7.7501
G1 X4.95 Y7.7658
G1 X4.96 Y7.7814
G1 X4.97 Y7.7971
G1 X4.98 Y7.8127
G1 X4.99 Y7.8284
G1 X5 Y7.844
G1 X5.01 Y7.8597
G1 X5.02 Y7.8753
G1 X5.03 Y7.891
G1 X5.04 Y7.9066
G1 X5.05 Y7.9222
G1 X5.06 Y7.9379
G1 X5.07 Y7.9535
G1 X5.08 Y7.9692
G1 X5.09 Y7.9848
G1 X5.1 Y8.0005
G1 X5.11 Y8.0161
G1 X5.12 Y8.0318
G1 X5.13 Y8.0474
G1 X5.14 Y8.0631
G1 X5.15 Y8.0787
G1 X5.16 Y8.0944
G1 X5.17 Y8.11
G1 X5.18 Y8.1256
G1 X5.19 Y8.1413
G1 X5.2 Y8.1569
G1 X5.21 Y8.1726
G1 X5.22 Y8.1882
G1 X5.23 Y8.2039
G1 X5.24 Y8.2195
G1 X5.25 Y8.2351
G1 X5.26 Y8.2508
G1 X5.27 Y8.2664
G1 X5.28 Y8.2821
G1 X5.29 Y8.2977
G1 X5.3 Y8.3133
G1 X5.31 Y8.329
G1 X5.32 Y8.3446
G1 X5.33 Y8.3603
G1 X5.34 Y8.3759
G1 X5.35 Y8.3915
G1 X5.36 Y8.4072
G1 X5.37 Y8.4228
G1 X5.38 Y8.4385
G1 X5.39 Y8.4541
G1 X5.4 Y8.4697
G1 X5.41 Y8.4854
G1 X5.42 Y8.501
G1 X5.43 Y8.5167
G1 X5.44 Y8.5323
G1 X5.45 Y8.5479
G1 X5.46 Y8.5636
G1 X5.47 Y8.5792
G1 X5.48 Y8.5948
G1 X5.49 Y8.6105
G1 X5.5 Y8.6261
G1 X5.51 Y8.6417
G1 X5.52 Y8.6574
G1 X5.53 Y8.673
G1 X5.54 Y8.6887
G1 X5.55 Y8.7043
G1 X5.56 Y8.7199
G1 X5.57 Y8.7356
G1 X5.58 Y8.7512
G1 X5.59 Y8.7668
G1 X5.6 Y8.7825
G1 X5.61 Y8.7981
G1 X5.62 Y8.8137
G1 X5.63 Y8.8294
G1 X5.64 Y8.845
G1 X5.65 Y8.8606
G1 X5.66 Y8.8762
G1 X5.67 Y8.8919
G1 X5.68 Y8.9075
G1 X5.69 Y8.9231
G1 X5.7 Y8.9388
G1 X5.71 Y8.9544
G1 X5.72 Y8.97
G1 X5.73 Y8.9857
G1 X5.74 Y9.0013
G1 X5.75 Y9.0169
G1 X5.76 Y9.0325
G1 X5.77 Y9.0482
G1 X5.78 Y9.0638
G1 X5.79 Y9.0794
G1 X5.8 Y9.0951
G1 X5.81 Y9.1107
G1 X5.82 Y9.1263
G1 X5.83 Y9.1419
G1 X5.84 Y9.1576
G1 X5.85 Y9.1732
G1 X5.86 Y9.1888
G1 X5.87 Y9.2044
G1 X5.88 Y9.2201
G1 X5.89 Y9.2357
G1 X5.9 Y9.2513
G1 X5.91 Y9.2669
G1 X5.92 Y9.2826
G1 X5.93 Y9.2982
G1 X5.94 Y9.3138
G1 X5.95 Y9.3294
G1 X5.96 Y9.3451
G1 X5.97 Y9.3607
G1 X5.98 Y9.3763
G1 X5.99 Y9.3919
G1 X6 Y9.4076
G1 X6.01 Y9.4232
G1 X6.02 Y9.4388
G1 X6.03 Y9.4544
G1 X6.04 Y9.47
G1 X6.05 Y9.4857
G1 X6.06 Y9.5013
G1 X6.07 Y9.5169
G1 X6.08 Y9.5325
G1 X6.09 Y9.5481
G1 X6.1 Y9.5638
G1 X6.11 Y9.5794
G1 X6.12 Y9.595
G1 X6.13 Y9.6106
G1 X6.14 Y9.6262
G1 X6.15 Y9.6418
G1 X6.16 Y9.6575
G1 X6.17 Y9.6731
G1 X6.18 Y9.6887
G1 X6.19 Y9.7043
G1 X6.2 Y9.7199
G1 X6.21 Y9.7355
G1 X6.22 Y9.7512
G1 X6.23 Y9.7668
G1 X6.24 Y9.7824
G1 X6.25 Y9.798
G1 X6.26 Y9.8136
G1 X6.27 Y9.8292
G1 X6.28 Y9.8449
G1 X6.29 Y9.8605
G1 X6.3 Y9.8761
G1 X6.31 Y9.8917
G1 X6.32 Y9.9073
G1 X6.33 Y9.9229
G1 X6.34 Y9.9385
G1 X6.35 Y9.9541
G1 X6.36 Y9.9698
G1 X6.37 Y9.9854
G1 X6.38 Y10.001
G1 X6.39 Y10.0166
G1 X6.4 Y10.0322
G1 X6.41 Y10.0478
G1 X6.42 Y10.0634
G1 X6.43 Y10.079
G1 X6.44 Y10.0946
G1 X6.45 Y10.1102
G1 X6.46 Y10.1259
G1 X6.47 Y10.1415
G1 X6.48 Y10.1571
G1 X6.49 Y10.1727
G1 X6.5 Y10.1883
G1 X6.51 Y10.2039
G1 X6.52 Y10.2195
G1 X6.53 Y10.2351
G1 X6.54 Y10.2507
G1 X6.55 Y10.2663
G1 X6.56 Y10.2819
G1 X6.57 Y10.2975
G1 X6.58 Y10.3131
G1 X6.59 Y10.3287
G1 X6.6 Y10.3443
G1 X6.61 Y10.3599
G1 X6.62 Y10.3755
G1 X6.63 Y10.3911
G1 X6.64 Y10.4067
G1 X6.65 Y10.4224
G1 X6.66 Y10.438
G1 X6.67 Y10.4536
G1 X6.68 Y10.4692
G1 X6.69 Y10.4848
G1 X6.7 Y10.5004
G1 X6.71 Y10.516
G1 X6.72 Y10.5316
G1 X6.73 Y10.5472
G1 X6.74 Y10.5628
G1 X6.75 Y10.5784
G1 X6.76 Y10.594
G1 X6.77 Y10.6096
G1 X6.78 Y10.6252
G1 X6.79 Y10.6408
G1 X6.8 Y10.6563
G1 X6.81 Y10.6719
G1 X6.82 Y10.6875
G1 X6.83 Y10.7031
G1 X6.84 Y10.7187
G1 X6.85 Y10.7343
G1 X6.86 Y10.7499
G1 X6.87 Y10.7655
G1 X6.88 Y10.7811
G1 X6.89 Y10.7967
G1 X6.9 Y10.8123
G1 X6.91 Y10.8279
G1 X6.92 Y10.8435
G1 X6.93 Y10.8591
G1 X6.94 Y10.8747
G1 X6.95 Y10.8903
G1 X6.96 Y10.9059
G1 X6.97 Y10.9215
G1 X6.98 Y10.937
G1 X6.99 Y10.9526
G1 X7 Y10.9682
G1 X7.01 Y10.9838
G1 X7.02 Y10.9994
G1 X7.03 Y11.015
G1 X7.04 Y11.0306
G1 X7.05 Y11.0462
G1 X7.06 Y11.0618
G1 X7.07 Y11.0774
G1 X7.08 Y11.0929
G1 X7.09 Y11.1085
G1 X7.1 Y11.1241
G1 X7.11 Y11.1397
G1 X7.12 Y11.1553
G1 X7.13 Y11.1709
G1 X7.14 Y11.1865
G1 X7.15 Y11.2021
G1 X7.16 Y11.2176
G1 X7.17 Y11.2332
G1 X7.18 Y11.2488
G1 X7.19 Y11.2644
G1 X7.2 Y11.28
G1 X7.21 Y11.2956
G1 X7.22 Y11.3111
G1 X7.23 Y11.3267
G1 X7.24 Y11.3423
G1 X7.25 Y11.3579
G1 X7.26 Y11.3735
G1 X7.27 Y11.3891
G1 X7.28 Y11.4046
G1 X7.29 Y11.4202
G1 X7.3 Y11.4358
G1 X7.31 Y11.4514
G1 X7.32 Y11.467
G1 X7.33 Y11.4825
G1 X7.34 Y11.4981
G1 X7.35 Y11.5137
G1 X7.36 Y11.5293
G1 X7.37 Y11.5449
G1 X7.38 Y11.5604
G1 X7.39 Y11.576
G1 X7.4 Y11.5916
G1 X7.41 Y11.6072
G1 X7.42 Y11.6227
G1 X7.43 Y11.6383
G1 X7.44 Y11.6539
G1 X7.45 Y11.6695
G1 X7.46 Y11.6851
G1 X7.47 Y11.7006
G1 X7.48 Y11.7162
G1 X7.49 Y11.7318
G1 X7.5 Y11.7473
G1 X7.51 Y11.7629
G1 X7.52 Y11.7785
G1 X7.53 Y11.7941
G1 X7.54 Y11.8096
G1 X7.55 Y11.8252
G1 X7.56 Y11.8408
G1 X7.57 Y11.8564
G1 X7.58 Y11.8719
G1 X7.59 Y11.8875
G1 X7.6 Y11.9031
G1 X7.61 Y11.9186
G1 X7.62 Y11.9342
G1 X7.63 Y11.9498
G1 X7.64 Y11.9653
G1 X7.65 Y11.9809
G1 X7.66 Y11.9965
G1 X7.67 Y12.012
G1 X7.68 Y12.0276
G1 X7.69 Y12.0432
G1 X7.7 Y12.0587
G1 X7.71 Y12.0743
G1 X7.72 Y12.0899
G1 X7.73 Y12.1054
G1 X7.74 Y12.121
G1 X7.75 Y12.1366
G1 X7.76 Y12.1521
G1 X7.77 Y12.1677
G1 X7.78 Y12.1833
G1 X7.79 Y12.1988
G1 X7.8 Y12.2144
G1 X7.81 Y12.23
G1 X7.82 Y12.2455
G1 X7.83 Y12.2611
G1 X7.84 Y12.2766
G1 X7.85 Y12.2922
G1 X7.86 Y12.3078
G1 X7.87 Y12.3233
G1 X7.88 Y12.3389
G1 X7.89 Y12.3544
G1 X7.9 Y12.37
G1 X7.91 Y12.3856
G1 X7.92 Y12.4011
G1 X7.93 Y12.4167
G1 X7.94 Y12.4322
G1 X7.95 Y12.4478
G1 X7.96 Y12.4633
G1 X7.97 Y12.4789
G1 X7.98 Y12.4945
G1 X7.99 Y12.51
G1 X8 Y12.5256
G1 X8.01 Y12.5411
G1 X8.02 Y12.5567
G1 X8.03 Y12.5722
G1 X8.04 Y12.5878
G1 X8.05 Y12.6033
G1 X8.06 Y12.6189
G1 X8.07 Y12.6344
G1 X8.08 Y12.65
G1 X8.09 Y12.6655
G1 X8.1 Y12.6811
G1 X8.11 Y12.6967
G1 X8.12 Y12.7122
G1 X8.13 Y12.7278
G1 X8.14 Y12.7433
G1 X8.15 Y12.7589
G1 X8.16 Y12.7744
G1 X8.17 Y12.7899
G1 X8.18 Y12.8055
G1 X8.19 Y12.821
G1 X8.2 Y12.8366
G1 X8.21 Y12.8521
G1 X8.22 Y12.8677
G1 X8.23 Y12.8832
G1 X8.24 Y12.8988
G1 X8.25 Y12.9143
G1 X8.26 Y12.9299
G1 X8.27 Y12.9454
G1 X8.28 Y12.961
G1 X8.29 Y12.9765
G1 X8.3 Y12.992
G1 X8.31 Y13.0076
G1 X8.32 Y13.0231
G1 X8.33 Y13.0387
G1 X8.34 Y13.0542
G1 X8.35 Y13.0698
G1 X8.36 Y13.0853
G1 X8.37 Y13.1008
G1 X8.38 Y13.1164
G1 X8.39 Y13.1319
G1 X8.4 Y13.1475
G1 X8.41 Y13.163
G1 X8.42 Y13.1785
G1 X8.43 Y13.1941
G1 X8.44 Y13.2096
G1 X8.45 Y13.2252
G1 X8.46 Y13.2407
G1 X8.47 Y13.2562
G1 X8.48 Y13.2718
G1 X8.49 Y13.2873
G1 X8.5 Y13.3028
G1 X8.51 Y13.3184
G1 X8.52 Y13.3339
G1 X8.53 Y13.3494
G1 X8.54 Y13.365
G1 X8.55 Y13.3805
G1 X8.56 Y13.396
G1 X8.57 Y13.4116
G1 X8.58 Y13.4271
G1 X8.59 Y13.4426
G1 X8.6 Y13.4582
G1 X8.61 Y13.4737
G1 X8.62 Y13.4892
G1 X8.63 Y13.5048
G1 X8.64 Y13.5203
G1 X8.65 Y13.5358
G1 X8.66 Y13.5514
G1 X8.67 Y13.5669
G1 X8.68 Y13.5824
G1 X8.69 Y13.5979
G1 X8.7 Y13.6135
G1 X8.71 Y13.629
G1 X8.72 Y13.6445
G1 X8.73 Y13.66
G1 X8.74 Y13.6756
G1 X8.75 Y13.6911
G1 X8.76 Y13.7066
G1 X8.77 Y13.7221
G1 X8.78 Y13.7377
G1 X8.79 Y13.7532
G1 X8.8 Y13.7687
G1 X8.81 Y13.7842
G1 X8.82 Y13.7998
G1 X8.83 Y13.8153
G1 X8.84 Y13.8308
G1 X8.85 Y13.8463
G1 X8.86 Y13.8618
G1 X8.87 Y13.8774
G1 X8.88 Y13.8929
G1 X8.89 Y13.9084
G1 X8.9 Y13.9239
G1 X8.91 Y13.9394
G1 X8.92 Y13.955
G1 X8.93 Y13.9705
G1 X8.94 Y13.986
G1 X8.95 Y14.0015
G1 X8.96 Y14.017
G1 X8.97 Y14.0325
G1 X8.98 Y14.0481
G1 X8.99 Y14.0636
G1 X9 Y14.0791
G1 X9.01 Y14.0946
G1 X9.02 Y14.1101
G1 X9.03 Y14.1256
G1 X9.04 Y14.1411
G1 X9.05 Y14.1567
G1 X9.06 Y14.1722
G1 X9.07 Y14.1877
G1 X9.08 Y14.2032
G1 X9.09 Y14.2187
G1 X9.1 Y14.2342
G1 X9.11 Y14.2497
G1 X9.12 Y14.2652
G1 X9.13 Y14.2807
G1 X9.14 Y14.2963
G1 X9.15 Y14.3118
G1 X9.16 Y14.3273
G1 X9.17 Y14.3428
G1 X9.18 Y14.3583
G1 X9.19 Y14.3738
G1 X9.2 Y14.3893
G1 X9.21 Y14.4048
G1 X9.22 Y14.4203
G1 X9.23 Y14.4358
G1 X9.24 Y14.4513
G1 X9.25 Y14.4668
G1 X9.26 Y14.4823
G1 X9.27 Y14.4978
G1 X9.28 Y14.5133
G1 X9.29 Y14.5288
G1 X9.3 Y14.5443
G1 X9.31 Y14.5598
G1 X9.32 Y14.5753
G1 X9.33 Y14.5908
G1 X9.34 Y14.6063
G1 X9.35 Y14.6218
G1 X9.36 Y14.6373
G1 X9.37 Y14.6528
G1 X9.38 Y14.6683
G1 X9.39 Y14.6838
G1 X9.4 Y14.6993
G1 X9.41 Y14.7148
G1 X9.42 Y14.7303
G1 X9.43 Y14.7458
G1 X9.44 Y14.7613
G1 X9.45 Y14.7768
G1 X9.46 Y14.7923
G1 X9.47 Y14.8078
G1 X9.48 Y14.8233
G1 X9.49 Y14.8388
G1 X9.5 Y14.8543
G1 X9.51 Y14.8698
G1 X9.52 Y14.8853
G1 X9.53 Y14.9007
G1 X9.54 Y14.9162
G1 X9.55 Y14.9317
G1 X9.56 Y14.9472
G1 X9.57 Y14.9627
G1 X9.58 Y14.9782
G1 X9.59 Y14.9937
G1 X9.6 Y15.0092
G1 X9.61 Y15.0247
G1 X9.62 Y15.0401
G1 X9.63 Y15.0556
G1 X9.64 Y15.0711
G1 X9.65 Y15.0866
G1 X9.66 Y15.1021
G1 X9.67 Y15.1176
G1 X9.68 Y15.1331
G1 X9.69 Y15.1485
G1 X9.7 Y15.164
G1 X9.71 Y15.1795
G1 X9.72 Y15.195
G1 X9.73 Y15.2105
G1 X9.74 Y15.226
G1 X9.75 Y15.2414
G1 X9.76 Y15.2569
G1 X9.77 Y15.2724
G1 X9.78 Y15.2879
G1 X9.79 Y15.3034
G1 X9.8 Y15.3188
G1 X9.81 Y15.3343
G1 X9.82 Y15.3498
G1 X9.83 Y15.3653
G1 X9.84 Y15.3808
G1 X9.85 Y15.3962
G1 X9.86 Y15.4117
G1 X9.87 Y15.4272
G1 X9.88 Y15.4427
G1 X9.89 Y15.4581
G1 X9.9 Y15.4736
G1 X9.91 Y15.4891
G1 X9.92 Y15.5046
G1 X9.93 Y15.52
G1 X9.94 Y15.5355
G1 X9.95 Y15.551
G1 X9.96 Y15.5664
G1 X9.97 Y15.5819
G1 X9.98 Y15.5974
G1 X9.99 Y15.6129
G1 X10 Y15.6283
G1 X10.01 Y15.6438
G1 X10.02 Y15.6593
G1 X10.03 Y15.6747
G1 X10.04 Y15.6902
G1 X10.05 Y15.7057
G1 X10.06 Y15.7211
G1 X10.07 Y15.7366
G1 X10.08 Y15.7521
G1 X10.09 Y15.7675
G1 X10.1 Y15.783
G1 X10.11 Y15.7985
G1 X10.12 Y15.8139
G1 X10.13 Y15.8294
G1 X10.14 Y15.8448
G1 X10.15 Y15.8603
G1 X10.16 Y15.8758
G1 X10.17 Y15.8912
G1 X10.18 Y15.9067
G1 X10.19 Y15.9222
G1 X10.2 Y15.9376
G1 X10.21 Y15.9531
G1 X10.22 Y15.9685
G1 X10.23 Y15.984
G1 X10.24 Y15.9994
G1 X10.25 Y16.0149
G1 X10.26 Y16.0304
G1 X10.27 Y16.0458
G1 X10.28 Y16.0613
G1 X10.29 Y16.0767
G1 X10.3 Y16.0922
G1 X10.31 Y16.1076
G1 X10.32 Y16.1231
G1 X10.33 Y16.1385
G1 X10.34 Y16.154
G1 X10.35 Y16.1695
G1 X10.36 Y16.1849
G1 X10.37 Y16.2004
G1 X10.38 Y16.2158
G1 X10.39 Y16.2313
G1 X10.4 Y16.2467
G1 X10.41 Y16.2622
G1 X10.42 Y16.2776
G1 X10.43 Y16.2931
G1 X10.44 Y16.3085
G1 X10.45 Y16.324
G1 X10.46 Y16.3394
G1 X10.47 Y16.3548
G1 X10.48 Y16.3703
G1 X10.49 Y16.3857
G1 X10.5 Y16.4012
G1 X10.51 Y16.4166
G1 X10.52 Y16.4321
G1 X10.53 Y16.4475
G1 X10.54 Y16.463
G1 X10.55 Y16.4784
G1 X10.56 Y16.4938
G1 X10.57 Y16.5093
G1 X10.58 Y16.5247
G1 X10.59 Y16.5402
G1 X10.6 Y16.5556
G1 X10.61 Y16.571
G1 X10.62 Y16.5865
G1 X10.63 Y16.6019
G1 X10.64 Y16.6174
G1 X10.65 Y16.6328
G1 X10.66 Y16.6482
G1 X10.67 Y16.6637
G1 X10.68 Y16.6791
G1 X10.69 Y16.6945
G1 X10.7 Y16.71
G1 X10.71 Y16.7254
G1 X10.72 Y16.7409
G1 X10.73 Y16.7563
G1 X10.74 Y16.7717
G1 X10.75 Y16.7871
G1 X10.76 Y16.8026
G1 X10.77 Y16.818
G1 X10.78 Y16.8334
G1 X10.79 Y16.8489
G1 X10.8 Y16.8643
G1 X10.81 Y16.8797
G1 X10.82 Y16.8952
G1 X10.83 Y16.9106
G1 X10.84 Y16.926
G1 X10.85 Y16.9414
G1 X10.86 Y16.9569
G1 X10.87 Y16.9723
G1 X10.88 Y16.9877
G1 X10.89 Y17.0032
G1 X10.9 Y17.0186
G1 X10.91 Y17.034
G1 X10.92 Y17.0494
G1 X10.93 Y17.0648
G1 X10.94 Y17.0803
G1 X10.95 Y17.0957
G1 X10.96 Y17.1111
G1 X10.97 Y17.1265
G1 X10.98 Y17.142
G1 X10.99 Y17.1574
G1 X11 Y17.1728
G1 X11.01 Y17.1882
G1 X11.02 Y17.2036
G1 X11.03 Y17.2191
G1 X11.04 Y17.2345
G1 X11.05 Y17.2499
G1 X11.06 Y17.2653
G1 X11.07 Y17.2807
G1 X11.08 Y17.2961
G1 X11.09 Y17.3115
G1 X11.1 Y17.327
G1 X11.11 Y17.3424
G1 X11.12 Y17.3578
G1 X11.13 Y17.3732
G1 X11.14 Y17.3886
G1 X11.15 Y17.404
G1 X11.16 Y17.4194
G1 X11.17 Y17.4348
G1 X11.18 Y17.4503
G1 X11.19 Y17.4657
G1 X11.2 Y17.4811
G1 X11.21 Y17.4965
G1 X11.22 Y17.5119
G1 X11.23 Y17.5273
G1 X11.24 Y17.5427
G1 X11.25 Y17.5581
G1 X11.26 Y17.5735
G1 X11.27 Y17.5889
G1 X11.28 Y17.6043
G1 X11.29 Y17.6197
G1 X11.3 Y17.6351
G1 X11.31 Y17.6505
G1 X11.32 Y17.6659
G1 X11.33 Y17.6813
G1 X11.34 Y17.6967
G1 X11.35 Y17.7121
G1 X11.36 Y17.7275
G1 X11.37 Y17.7429
G1 X11.38 Y17.7583
G1 X11.39 Y17.7737
G1 X11.4 Y17.7891
G1 X11.41 Y17.8045
G1 X11.42 Y17.8199
G1 X11.43 Y17.8353
G1 X11.44 Y17.8507
G1 X11.45 Y17.8661
G1 X11.46 Y17.8815
G1 X11.47 Y17.8969
G1 X11.48 Y17.9123
G1 X11.49 Y17.9277
G1 X11.5 Y17.9431
G1 X11.51 Y17.9585
G1 X11.52 Y17.9739
G1 X11.53 Y17.9893
G1 X11.54 Y18.0047
G1 X11.55 Y18.0201
G1 X11.56 Y18.0354
G1 X11.57 Y18.0508
G1 X11.58 Y18.0662
G1 X11.59 Y18.0816
G1 X11.6 Y18.097
G1 X11.61 Y18.1124
G1 X11.62 Y18.1278
G1 X11.63 Y18.1432
G1 X11.64 Y18.1585
G1 X11.65 Y18.1739
G1 X11.66 Y18.1893
G1 X11.67 Y18.2047
G1 X11.68 Y18.2201
G1 X11.69 Y18.2355
G1 X11.7 Y18.2508
G1 X11.71 Y18.2662
G1 X11.72 Y18.2816
G1 X11.73 Y18.297
G1 X11.74 Y18.3124
G1 X11.75 Y18.3277
G1 X11.76 Y18.3431
G1 X11.77 Y18.3585
G1 X11.78 Y18.3739
G1 X11.79 Y18.3893
G1 X11.8 Y18.4046
G1 X11.81 Y18.42
G1 X11.82 Y18.4354
G1 X11.83 Y18.4508
G1 X11.84 Y18.4661
G1 X11.85 Y18.4815
G1 X11.86 Y18.4969
G1 X11.87 Y18.5122
G1 X11.88 Y18.5276
G1 X11.89 Y18.543
G1 X11.9 Y18.5584
G1 X11.91 Y18.5737
G1 X11.92 Y18.5891
G1 X11.93 Y18.6045
G1 X11.94 Y18.6198
G1 X11.95 Y18.6352
G1 X11.96 Y18.6506
G1 X11.97 Y18.6659
G1 X11.98 Y18.6813
G1 X11.99 Y18.6967
G1 X12 Y18.712
G1 X12.01 Y18.7274
G1 X12.02 Y18.7428
G1 X12.03 Y18.7581
G1 X12.04 Y18.7735
G1 X12.05 Y18.7889
G1 X12.06 Y18.8042
G1 X12.07 Y18.8196
G1 X12.08 Y18.8349
G1 X12.09 Y18.8503
G1 X12.1 Y18.8657
G1 X12.11 Y18.881
G1 X12.12 Y18.8964
G1 X12.13 Y18.9117
G1 X12.14 Y18.9271
G1 X12.15 Y18.9424
G1 X12.16 Y18.9578
G1 X12.17 Y18.9732
G1 X12.18 Y18.9885
G1 X12.19 Y19.0039
G1 X12.2 Y19.0192
G1 X12.21 Y19.0346
G1 X12.22 Y19.0499
G1 X12.23 Y19.0653
G1 X12.24 Y19.0806
G1 X12.25 Y19.096
G1 X12.26 Y19.1113
G1 X12.27 Y19.1267
G1 X12.28 Y19.142
G1 X12.29 Y19.1574
G1 X12.3 Y19.1727
G1 X12.31 Y19.1881
G1 X12.32 Y19.2034
G1 X12.33 Y19.2188
G1 X12.34 Y19.2341
G1 X12.35 Y19.2494
G1 X12.36 Y19.2648
G1 X12.37 Y19.2801
G1 X12.38 Y19.2955
G1 X12.39 Y19.3108
G1 X12.4 Y19.3262
G1 X12.41 Y19.3415
G1 X12.42 Y19.3568
G1 X12.43 Y19.3722
G1 X12.44 Y19.3875
G1 X12.45 Y19.4029
G1 X12.46 Y19.4182
G1 X12.47 Y19.4335
G1 X12.48 Y19.4489
G1 X12.49 Y19.4642
G1 X12.5 Y19.4795
G1 X12.51 Y19.4949
G1 X12.52 Y19.5102
G1 X12.53 Y19.5256
G1 X12.54 Y19.5409
G1 X12.55 Y19.5562
G1 X12.56 Y19.5716
G1 X12.57 Y19.5869
G1 X12.58 Y19.6022
G1 X12.59 Y19.6175
G1 X12.6 Y19.6329
G1 X12.61 Y19.6482
G1 X12.62 Y19.6635
G1 X12.63 Y19.6789
G1 X12.64 Y19.6942
G1 X12.65 Y19.7095
G1 X12.66 Y19.7248
G1 X12.67 Y19.7402
G1 X12.68 Y19.7555
G1 X12.69 Y19.7708
G1 X12.7 Y19.7861
G1 X12.71 Y19.8015
G1 X12.72 Y19.8168
G1 X12.73 Y19.8321
G1 X12.74 Y19.8474
G1 X12.75 Y19.8628
G1 X12.76 Y19.8781
G1 X12.77 Y19.8934
G1 X12.78 Y19.9087
G1 X12.79 Y19.924
G1 X12.8 Y19.9393
G1 X12.81 Y19.9547
G1 X12.82 Y19.97
G1 X12.83 Y19.9853
G1 X12.84 Y20.0006
G1 X12.85 Y20.0159
G1 X12.86 Y20.0312
G1 X12.87 Y20.0466
G1 X12.88 Y20.0619
G1 X12.89 Y20.0772
G1 X12.9 Y20.0925
G1 X12.91 Y20.1078
G1 X12.92 Y20.1231
G1 X12.93 Y20.1384
G1 X12.94 Y20.1537
G1 X12.95 Y20.169
G1 X12.96 Y20.1844
G1 X12.97 Y20.1997
G1 X12.98 Y20.215
G1 X12.99 Y20.2303
G1 X13 Y20.2456
G1 X13.01 Y20.2609
G1 X13.02 Y20.2762
G1 X13.03 Y20.2915
G1 X13.04 Y20.3068
G1 X13.05 Y20.3221
G1 X13.06 Y20.3374
G1 X13.07 Y20.3527
G1 X13.08 Y20.368
G1 X13.09 Y20.3833
G1 X13.1 Y20.3986
G1 X13.11 Y20.4139
G1 X13.12 Y20.4292
G1 X13.13 Y20.4445
G1 X13.14 Y20.4598
G1 X13.15 Y20.4751
G1 X13.16 Y20.4904
G1 X13.17 Y20.5057
G1 X13.18 Y20.521
G1 X13.19 Y20.5363
G1 X13.2 Y20.5516
G1 X13.21 Y20.5669
G1 X13.22 Y20.5821
G1 X13.23 Y20.5974
G1 X13.24 Y20.6127
G1 X13.25 Y20.628
G1 X13.26 Y20.6433
G1 X13.27 Y20.6586
G1 X13.28 Y20.6739
G1 X13.29 Y20.6892
G1 X13.3 Y20.7045
G1 X13.31 Y20.7197
G1 X13.32 Y20.735
G1 X13.33 Y20.7503
G1 X13.34 Y20.7656
G1 X13.35 Y20.7809
G1 X13.36 Y20.7962
G1 X13.37 Y20.8115
G1 X13.38 Y20.8267
G1 X13.39 Y20.842
G1 X13.4 Y20.8573
G1 X13.41 Y20.8726
G1 X13.42 Y20.8879
G1 X13.43 Y20.9031
G1 X13.44 Y20.9184
G1 X13.45 Y20.9337
G1 X13.46 Y20.949
G1 X13.47 Y20.9642
G1 X13.48 Y20.9795
G1 X13.49 Y20.9948
G1 X13.5 Y21.0101
G1 X13.51 Y21.0253
G1 X13.52 Y21.0406
G1 X13.53 Y21.0559
G1 X13.54 Y21.0712
G1 X13.55 Y21.0864
G1 X13.56 Y21.1017
G1 X13.57 Y21.117
G1 X13.58 Y21.1322
G1 X13.59 Y21.1475
G1 X13.6 Y21.1628
G1 X13.61 Y21.178
G1 X13.62 Y21.1933
G1 X13.63 Y21.2086
G1 X13.64 Y21.2238
G1 X13.65 Y21.2391
G1 X13.66 Y21.2544
G1 X13.67 Y21.2696
G1 X13.68 Y21.2849
G1 X13.69 Y21.3002
G1 X13.7 Y21.3154
G1 X13.71 Y21.3307
G1 X13.72 Y21.3459
G1 X13.73 Y21.3612
G1 X13.74 Y21.3765
G1 X13.75 Y21.3917
G1 X13.76 Y21.407
G1 X13.77 Y21.4222
G1 X13.78 Y21.4375
G1 X13.79 Y21.4527
G1 X13.8 Y21.468
G1 X13.81 Y21.4832
G1 X13.82 Y21.4985
G1 X13.83 Y21.5138
G1 X13.84 Y21.529
G1 X13.85 Y21.5443
G1 X13.86 Y21.5595
G1 X13.87 Y21.5748
G1 X13.88 Y21.59
G1 X13.89 Y21.6053
G1 X13.9 Y21.6205
G1 X13.91 Y21.6358
G1 X13.92 Y21.651
G1 X13.93 Y21.6662
G1 X13.94 Y21.6815
G1 X13.95 Y21.6967
G1 X13.96 Y21.712
G1 X13.97 Y21.7272
G1 X13.98 Y21.7425
G1 X13.99 Y21.7577
G1 X14 Y21.773
G1 X14.01 Y21.7882
G1 X14.02 Y21.8034
G1 X14.03 Y21.8187
G1 X14.04 Y21.8339
G1 X14.05 Y21.8492
G1 X14.06 Y21.8644
G1 X14.07 Y21.8796
G1 X14.08 Y21.8949
G1 X14.09 Y21.9101
G1 X14.1 Y21.9253
G1 X14.11 Y21.9406
G1 X14.12 Y21.9558
G1 X14.13 Y21.971
G1 X14.14 Y21.9863
G1 X14.15 Y22.0015
G1 X14.16 Y22.0167
G1 X14.17 Y22.032
G1 X14.18 Y22.0472
G1 X14.19 Y22.0624
G1 X14.2 Y22.0776
G1 X14.21 Y22.0929
G1 X14.22 Y22.1081
G1 X14.23 Y22.1233
G1 X14.24 Y22.1386
G1 X14.25 Y22.1538
G1 X14.26 Y22.169
G1 X14.27 Y22.1842
G1 X14.28 Y22.1994
G1 X14.29 Y22.2147
G1 X14.3 Y22.2299
G1 X14.31 Y22.2451
G1 X14.32 Y22.2603
G1 X14.33 Y22.2756
G1 X14.34 Y22.2908
G1 X14.35 Y22.306
G1 X14.36 Y22.3212
G1 X14.37 Y22.3364
G1 X14.38 Y22.3516
G1 X14.39 Y22.3669
G1 X14.4 Y22.3821
G1 X14.41 Y22.3973
G1 X14.42 Y22.4125
G1 X14.43 Y22.4277
G1 X14.44 Y22.4429
G1 X14.45 Y22.4581
G1 X14.46 Y22.4733
G1 X14.47 Y22.4886
G1 X14.48 Y22.5038
G1 X14.49 Y22.519
G1 X14.5 Y22.5342
G1 X14.51 Y22.5494
G1 X14.52 Y22.5646
G1 X14.53 Y22.5798
G1 X14.54 Y22.595
G1 X14.55 Y22.6102
G1 X14.56 Y22.6254
G1 X14.57 Y22.6406
G1 X14.58 Y22.6558
G1 X14.59 Y22.671
G1 X14.6 Y22.6862
G1 X14.61 Y22.7014
G1 X14.62 Y22.7166
G1 X14.63 Y22.7318
G1 X14.64 Y22.747
G1 X14.65 Y22.7622
G1 X14.66 Y22.7774
G1 X14.67 Y22.7926
G1 X14.68 Y22.8078
G1 X14.69 Y22.823
G1 X14.7 Y22.8382
G1 X14.71 Y22.8534
G1 X14.72 Y22.8686
G1 X14.73 Y22.8838
G1 X14.74 Y22.899
G1 X14.75 Y22.9142
G1 X14.76 Y22.9293
G1 X14.77 Y22.9445
G1 X14.78 Y22.9597
G1 X14.79 Y22.9749
G1 X14.8 Y22.9901
G1 X14.81 Y23.0053
G1 X14.82 Y23.0205
G1 X14.83 Y23.0357
G1 X14.84 Y23.0508
G1 X14.85 Y23.066
G1 X14.86 Y23.0812
G1 X14.87 Y23.0964
G1 X14.88 Y23.1116
G1 X14.89 Y23.1268
G1 X14.9 Y23.1419
G1 X14.91 Y23.1571
G1 X14.92 Y23.1723
G1 X14.93 Y23.1875
G1 X14.94 Y23.2026
G1 X14.95 Y23.2178
G1 X14.96 Y23.233
G1 X14.97 Y23.2482
G1 X14.98 Y23.2633
G1 X14.99 Y23.2785
G1 X15 Y23.2937
G1 X15.01 Y23.3089
G1 X15.02 Y23.324
G1 X15.03 Y23.3392
G1 X15.04 Y23.3544
G1 X15.05 Y23.3695
G1 X15.06 Y23.3847
G1 X15.07 Y23.3999
G1 X15.08 Y23.4151
G1 X15.09 Y23.4302
G1 X15.1 Y23.4454
G1 X15.11 Y23.4606
G1 X15.12 Y23.4757
G1 X15.13 Y23.4909
G1 X15.14 Y23.506
G1 X15.15 Y23.5212
G1 X15.16 Y23.5364
G1 X15.17 Y23.5515
G1 X15.18 Y23.5667
G1 X15.19 Y23.5818
G1 X15.2 Y23.597
G1 X15.21 Y23.6122
G1 X15.22 Y23.6273
G1 X15.23 Y23.6425
G1 X15.24 Y23.6576
G1 X15.25 Y23.6728
G1 X15.26 Y23.6879
G1 X15.27 Y23.7031
G1 X15.28 Y23.7183
G1 X15.29 Y23.7334
G1 X15.3 Y23.7486
G1 X15.31 Y23.7637
G1 X15.32 Y23.7789
G1 X15.33 Y23.794
G1 X15.34 Y23.8092
G1 X15.35 Y23.8243
G1 X15.36 Y23.8394
G1 X15.37 Y23.8546
G1 X15.38 Y23.8697
G1 X15.39 Y23.8849
G1 X15.4 Y23.9
G1 X15.41 Y23.9152
G1 X15.42 Y23.9303
G1 X15.43 Y23.9455
G1 X15.44 Y23.9606
G1 X15.45 Y23.9757
G1 X15.46 Y23.9909
G1 X15.47 Y24.006
G1 X15.48 Y24.0212
G1 X15.49 Y24.0363
G1 X15.5 Y24.0514
G1 X15.51 Y24.0666
G1 X15.52 Y24.0817
G1 X15.53 Y24.0968
G1 X15.54 Y24.112
G1 X15.55 Y24.1271
G1 X15.56 Y24.1422
G1 X15.57 Y24.1574
G1 X15.58 Y24.1725
G1 X15.59 Y24.1876
G1 X15.6 Y24.2028
G1 X15.61 Y24.2179
G1 X15.62 Y24.233
G1 X15.63 Y24.2481
G1 X15.64 Y24.2633
G1 X15.65 Y24.2784
G1 X15.66 Y24.2935
G1 X15.67 Y24.3087
G1 X15.68 Y24.3238
G1 X15.69 Y24.3389
G1 X15.7 Y24.354
G1 X15.71 Y24.3691
G1 X15.72 Y24.3843
G1 X15.73 Y24.3994
G1 X15.74 Y24.4145
G1 X15.75 Y24.4296
G1 X15.76 Y24.4447
G1 X15.77 Y24.4599
G1 X15.78 Y24.475
G1 X15.79 Y24.4901
G1 X15.8 Y24.5052
G1 X15.81 Y24.5203
G1 X15.82 Y24.5354
G1 X15.83 Y24.5505
G1 X15.84 Y24.5657
G1 X15.85 Y24.5808
G1 X15.86 Y24.5959
G1 X15.87 Y24.611
G1 X15.88 Y24.6261
G1 X15.89 Y24.6412
G1 X15.9 Y24.6563
G1 X15.91 Y24.6714
G1 X15.92 Y24.6865
G1 X15.93 Y24.7016
G1 X15.94 Y24.7167
G1 X15.95 Y24.7318
G1 X15.96 Y24.7469
G1 X15.97 Y24.762
G1 X15.98 Y24.7771
G1 X15.99 Y24.7922
G1 X16 Y24.8073
G1 X16.01 Y24.8224
G1 X16.02 Y24.8375
G1 X16.03 Y24.8526
G1 X16.04 Y24.8677
G1 X16.05 Y24.8828
G1 X16.06 Y24.8979
G1 X16.07 Y24.913
G1 X16.08 Y24.9281
G1 X16.09 Y24.9432
G1 X16.1 Y24.9583
G1 X16.11 Y24.9734
G1 X16.12 Y24.9885
G1 X16.13 Y25.0036
G1 X16.14 Y25.0187
G1 X16.15 Y25.0337
G1 X16.16 Y25.0488
G1 X16.17 Y25.0639
G1 X16.18 Y25.079
G1 X16.19 Y25.0941
G1 X16.2 Y25.1092
G1 X16.21 Y25.1243
G1 X16.22 Y25.1393
G1 X16.23 Y25.1544
G1 X16.24 Y25.1695
G1 X16.25 Y25.1846
G1 X16.26 Y25.1997
G1 X16.27 Y25.2147
G1 X16.28 Y25.2298
G1 X16.29 Y25.2449
G1 X16.3 Y25.26
G1 X16.31 Y25.2751
G1 X16.32 Y25.2901
G1 X16.33 Y25.3052
G1 X16.34 Y25.3203
G1 X16.35 Y25.3354
G1 X16.36 Y25.3504
G1 X16.37 Y25.3655
G1 X16.38 Y25.3806
G1 X16.39 Y25.3956
G1 X16.4 Y25.4107
G1 X16.41 Y25.4258
G1 X16.42 Y25.4408
G1 X16.43 Y25.4559
G1 X16.44 Y25.471
G1 X16.45 Y25.486
G1 X16.46 Y25.5011
G1 X16.47 Y25.5162
G1 X16.48 Y25.5312
G1 X16.49 Y25.5463
G1 X16.5 Y25.5614
G1 X16.51 Y25.5764
G1 X16.52 Y25.5915
G1 X16.53 Y25.6065
G1 X16.54 Y25.6216
G1 X16.55 Y25.6367
G1 X16.56 Y25.6517
G1 X16.57 Y25.6668
G1 X16.58 Y25.6818
G1 X16.59 Y25.6969
G1 X16.6 Y25.7119
G1 X16.61 Y25.727
G1 X16.62 Y25.742
G1 X16.63 Y25.7571
G1 X16.64 Y25.7721
G1 X16.65 Y25.7872
G1 X16.66 Y25.8022
G1 X16.67 Y25.8173
G1 X16.68 Y25.8323
G1 X16.69 Y25.8474
G1 X16.7 Y25.8624
G1 X16.71 Y25.8775
G1 X16.72 Y25.8925
G1 X16.73 Y25.9076
G1 X16.74 Y25.9226
G1 X16.75 Y25.9376
G1 X16.76 Y25.9527
G1 X16.77 Y25.9677
G1 X16.78 Y25.9828
G1 X16.79 Y25.9978
G1 X16.8 Y26.0128
G1 X16.81 Y26.0279
G1 X16.82 Y26.0429
G1 X16.83 Y26.0579
G1 X16.84 Y26.073
G1 X16.85 Y26.088
G1 X16.86 Y26.1031
G1 X16.87 Y26.1181
G1 X16.88 Y26.1331
G1 X16.89 Y26.1481
G1 X16.9 Y26.1632
G1 X16.91 Y26.1782
G1 X16.92 Y26.1932
G1 X16.93 Y26.2083
G1 X16.94 Y26.2233
G1 X16.95 Y26.2383
G1 X16.96 Y26.2533
G1 X16.97 Y26.2684
G1 X16.98 Y26.2834
G1 X16.99 Y26.2984
G1 X17 Y26.3134
G1 X17.01 Y26.3285
G1 X17.02 Y26.3435
G1 X17.03 Y26.3585
G1 X17.04 Y26.3735
G1 X17.05 Y26.3885
G1 X17.06 Y26.4035
G1 X17.07 Y26.4186
G1 X17.08 Y26.4336
G1 X17.09 Y26.4486
G1 X17.1 Y26.4636
G1 X17.11 Y26.4786
G1 X17.12 Y26.4936
G1 X17.13 Y26.5086
G1 X17.14 Y26.5237
G1 X17.15 Y26.5387
G1 X17.16 Y26.5537
G1 X17.17 Y26.5687
G1 X17.18 Y26.5837
G1 X17.19 Y26.5987
G1 X17.2 Y26.6137
G1 X17.21 Y26.6287
G1 X17.22 Y26.6437
G1 X17.23 Y26.6587
G1 X17.24 Y26.6737
G1 X17.25 Y26.6887
G1 X17.26 Y26.7037
G1 X17.27 Y26.7187
G1 X17.28 Y26.7337
G1 X17.29 Y26.7487
G1 X17.3 Y26.7637
G1 X17.31 Y26.7787
G1 X17.32 Y26.7937
G1 X17.33 Y26.8087
G1 X17.34 Y26.8237
G1 X17.35 Y26.8387
G1 X17.36 Y26.8537
G1 X17.37 Y26.8687
G1 X17.38 Y26.8837
G1 X17.39 Y26.8987
G1 X17.4 Y26.9136
G1 X17.41 Y26.9286
G1 X17.42 Y26.9436
G1 X17.43 Y26.9586
G1 X17.44 Y26.9736
G1 X17.45 Y26.9886
G1 X17.46 Y27.0036
G1 X17.47 Y27.0186
G1 X17.48 Y27.0335
G1 X17.49 Y27.0485
G1 X17.5 Y27.0635
G1 X17.51 Y27.0785
G1 X17.52 Y27.0935
G1 X17.53 Y27.1084
G1 X17.54 Y27.1234
G1 X17.55 Y27.1384
G1 X17.56 Y27.1534
G1 X17.57 Y27.1683
G1 X17.58 Y27.1833
G1 X17.59 Y27.1983
G1 X17.6 Y27.2133
G1 X17.61 Y27.2282
G1 X17.62 Y27.2432
G1 X17.63 Y27.2582
G1 X17.64 Y27.2732
G1 X17.65 Y27.2881
G1 X17.66 Y27.3031
G1 X17.67 Y27.3181
G1 X17.68 Y27.333
G1 X17.69 Y27.348
G1 X17.7 Y27.363
G1 X17.71 Y27.3779
G1 X17.72 Y27.3929
G1 X17.73 Y27.4078
G1 X17.74 Y27.4228
G1 X17.75 Y27.4378
G1 X17.76 Y27.4527
G1 X17.77 Y27.4677
G1 X17.78 Y27.4826
G1 X17.79 Y27.4976
G1 X17.8 Y27.5126
G1 X17.81 Y27.5275
G1 X17.82 Y27.5425
G1 X17.83 Y27.5574
G1 X17.84 Y27.5724
G1 X17.85 Y27.5873
G1 X17.86 Y27.6023
G1 X17.87 Y27.6172
G1 X17.88 Y27.6322
G1 X17.89 Y27.6471
G1 X17.9 Y27.6621
G1 X17.91 Y27.677
G1 X17.92 Y27.692
G1 X17.93 Y27.7069
G1 X17.94 Y27.7219
G1 X17.95 Y27.7368
G1 X17.96 Y27.7517
G1 X17.97 Y27.7667
G1 X17.98 Y27.7816
G1 X17.99 Y27.7966
G1 X18 Y27.8115
G1 X18.01 Y27.8264
G1 X18.02 Y27.8414
G1 X18.03 Y27.8563
G1 X18.04 Y27.8713
G1 X18.05 Y27.8862
G1 X18.06 Y27.9011
G1 X18.07 Y27.9161
G1 X18.08 Y27.931
G1 X18.09 Y27.9459
G1 X18.1 Y27.9609
G1 X18.11 Y27.9758
G1 X18.12 Y27.9907
G1 X18.13 Y28.0056
G1 X18.14 Y28.0206
G1 X18.15 Y28.0355
G1 X18.16 Y28.0504
G1 X18.17 Y28.0653
G1 X18.18 Y28.0803
G1 X18.19 Y28.0952
G1 X18.2 Y28.1101
G1 X18.21 Y28.125
G1 X18.22 Y28.14
G1 X18.23 Y28.1549
G1 X18.24 Y28.1698
G1 X18.25 Y28.1847
G1 X18.26 Y28.1996
G1 X18.27 Y28.2146
G1 X18.28 Y28.2295
G1 X18.29 Y28.2444
G1 X18.3 Y28.2593
G1 X18.31 Y28.2742
G1 X18.32 Y28.2891
G1 X18.33 Y28.304
G1 X18.34 Y28.3189
G1 X18.35 Y28.3339
G1 X18.36 Y28.3488
G1 X18.37 Y28.3637
G1 X18.38 Y28.3786
G1 X18.39 Y28.3935
G1 X18.4 Y28.4084
G1 X18.41 Y28.4233
G1 X18.42 Y28.4382
G1 X18.43 Y28.4531
G1 X18.44 Y28.468
G1 X18.45 Y28.4829
G1 X18.46 Y28.4978
G1 X18.47 Y28.5127
G1 X18.48 Y28.5276
G1 X18.49 Y28.5425
G1 X18.5 Y28.5574
G1 X18.51 Y28.5723
G1 X18.52 Y28.5872
G1 X18.53 Y28.6021
G1 X18.54 Y28.617
G1 X18.55 Y28.6319
G1 X18.56 Y28.6468
G1 X18.57 Y28.6616
G1 X18.58 Y28.6765
G1 X18.59 Y28.6914
G1 X18.6 Y28.7063
G1 X18.61 Y28.7212
G1 X18.62 Y28.7361
G1 X18.63 Y28.751
G1 X18.64 Y28.7659
G1 X18.65 Y28.7807
G1 X18.66 Y28.7956
G1 X18.67 Y28.8105
G1 X18.68 Y28.8254
G1 X18.69 Y28.8403
G1 X18.7 Y28.8551
G1 X18.71 Y28.87
G1 X18.72 Y28.8849
G1 X18.73 Y28.8998
G1 X18.74 Y28.9147
G1 X18.75 Y28.9295
G1 X18.76 Y28.9444
G1 X18.77 Y28.9593
G1 X18.78 Y28.9741
G1 X18.79 Y28.989
G1 X18.8 Y29.0039
G1 X18.81 Y29.0188
G1 X18.82 Y29.0336
G1 X18.83 Y29.0485
G1 X18.84 Y29.0634
G1 X18.85 Y29.0782
G1 X18.86 Y29.0931
G1 X18.87 Y29.108
G1 X18.88 Y29.1228
G1 X18.89 Y29.1377
G1 X18.9 Y29.1525
G1 X18.91 Y29.1674
G1 X18.92 Y29.1823
G1 X18.93 Y29.1971
G1 X18.94 Y29.212
G1 X18.95 Y29.2268
G1 X18.96 Y29.2417
G1 X18.97 Y29.2565
G1 X18.98 Y29.2714
G1 X18.99 Y29.2863
G1 X19 Y29.3011
G1 X19.01 Y29.316
G1 X19.02 Y29.3308
G1 X19.03 Y29.3457
G1 X19.04 Y29.3605
G1 X19.05 Y29.3754
G1 X19.06 Y29.3902
G1 X19.07 Y29.4051
G1 X19.08 Y29.4199
G1 X19.09 Y29.4347
G1 X19.1 Y29.4496
G1 X19.11 Y29.4644
G1 X19.12 Y29.4793
G1 X19.13 Y29.4941
G1 X19.14 Y29.509
G1 X19.15 Y29.5238
G1 X19.16 Y29.5386
G1 X19.17 Y29.5535
G1 X19.18 Y29.5683
G1 X19.19 Y29.5831
G1 X19.2 Y29.598
G1 X19.21 Y29.6128
G1 X19.22 Y29.6276
G1 X19.23 Y29.6425
G1 X19.24 Y29.6573
G1 X19.25 Y29.6721
G1 X19.26 Y29.687
G1 X19.27 Y29.7018
G1 X19.28 Y29.7166
G1 X19.29 Y29.7314
G1 X19.3 Y29.7463
G1 X19.31 Y29.7611
G1 X19.32 Y29.7759
G1 X19.33 Y29.7907
G1 X19.34 Y29.8056
G1 X19.35 Y29.8204
G1 X19.36 Y29.8352
G1 X19.37 Y29.85
G1 X19.38 Y29.8648
G1 X19.39 Y29.8797
G1 X19.4 Y29.8945
G1 X19.41 Y29.9093
G1 X19.42 Y29.9241
G1 X19.43 Y29.9389
G1 X19.44 Y29.9537
G1 X19.45 Y29.9685
G1 X19.46 Y29.9834
G1 X19.47 Y29.9982
G1 X19.48 Y30.013
G1 X19.49 Y30.0278
G1 X19.5 Y30.0426
G1 X19.51 Y30.0574
G1 X19.52 Y30.0722
G1 X19.53 Y30.087
G1 X19.54 Y30.1018
G1 X19.55 Y30.1166
G1 X19.56 Y30.1314
G1 X19.57 Y30.1462
G1 X19.58 Y30.161
G1 X19.59 Y30.1758
G1 X19.6 Y30.1906
G1 X19.61 Y30.2054
G1 X19.62 Y30.2202
G1 X19.63 Y30.235
G1 X19.64 Y30.2498
G1 X19.65 Y30.2646
G1 X19.66 Y30.2794
G1 X19.67 Y30.2942
G1 X19.68 Y30.309
G1 X19.69 Y30.3238
G1 X19.7 Y30.3385
G1 X19.71 Y30.3533
G1 X19.72 Y30.3681
G1 X19.73 Y30.3829
G1 X19.74 Y30.3977
G1 X19.75 Y30.4125
G1 X19.76 Y30.4273
G1 X19.77 Y30.442
G1 X19.78 Y30.4568
G1 X19.79 Y30.4716
G1 X19.8 Y30.4864
G1 X19.81 Y30.5012
G1 X19.82 Y30.5159
G1 X19.83 Y30.5307
G1 X19.84 Y30.5455
G1 X19.85 Y30.5603
G1 X19.86 Y30.575
G1 X19.87 Y30.5898
G1 X19.88 Y30.6046
G1 X19.89 Y30.6194
G1 X19.9 Y30.6341
G1 X19.91 Y30.6489
G1 X19.92 Y30.6637
G1 X19.93 Y30.6784
G1 X19.94 Y30.6932
G1 X19.95 Y30.708
G1 X19.96 Y30.7227
G1 X19.97 Y30.7375
G1 X19.98 Y30.7523
G1 X19.99 Y30.767
G1 X20 Y30.7818
G1 X20.01 Y30.7965
G1 X20.02 Y30.8113
G1 X20.03 Y30.8261
G1 X20.04 Y30.8408
G1 X20.05 Y30.8556
G1 X20.06 Y30.8703
G1 X20.07 Y30.8851
G1 X20.08 Y30.8998
G1 X20.09 Y30.9146
G1 X20.1 Y30.9293
G1 X20.11 Y30.9441
G1 X20.12 Y30.9588
G1 X20.13 Y30.9736
G1 X20.14 Y30.9883
G1 X20.15 Y31.0031
G1 X20.16 Y31.0178
G1 X20.17 Y31.0326
G1 X20.18 Y31.0473
G1 X20.19 Y31.0621
G1 X20.2 Y31.0768
G1 X20.21 Y31.0916
G1 X20.22 Y31.1063
G1 X20.23 Y31.121
G1 X20.24 Y31.1358
G1 X20.25 Y31.1505
G1 X20.26 Y31.1652
G1 X20.27 Y31.18
G1 X20.28 Y31.1947
G1 X20.29 Y31.2095
G1 X20.3 Y31.2242
G1 X20.31 Y31.2389
G1 X20.32 Y31.2536
G1 X20.33 Y31.2684
G1 X20.34 Y31.2831
G1 X20.35 Y31.2978
G1 X20.36 Y31.3126
G1 X20.37 Y31.3273
G1 X20.38 Y31.342
G1 X20.39 Y31.3567
G1 X20.4 Y31.3715
G1 X20.41 Y31.3862
G1 X20.42 Y31.4009
G1 X20.43 Y31.4156
G1 X20.44 Y31.4303
G1 X20.45 Y31.4451
G1 X20.46 Y31.4598
G1 X20.47 Y31.4745
G1 X20.48 Y31.4892
G1 X20.49 Y31.5039
G1 X20.5 Y31.5186
G1 X20.51 Y31.5334
G1 X20.52 Y31.5481
G1 X20.53 Y31.5628
G1 X20.54 Y31.5775
G1 X20.55 Y31.5922
G1 X20.56 Y31.6069
G1 X20.57 Y31.6216
G1 X20.58 Y31.6363
G1 X20.59 Y31.651
G1 X20.6 Y31.6657
G1 X20.61 Y31.6804
G1 X20.62 Y31.6951
G1 X20.63 Y31.7098
G1 X20.64 Y31.7245
G1 X20.65 Y31.7392
G1 X20.66 Y31.7539
G1 X20.67 Y31.7686
G1 X20.68 Y31.7833
G1 X20.69 Y31.798
G1 X20.7 Y31.8127
G1 X20.71 Y31.8274
G1 X20.72 Y31.8421
G1 X20.73 Y31.8568
G1 X20.74 Y31.8715
G1 X20.75 Y31.8862
G1 X20.76 Y31.9009
G1 X20.77 Y31.9155
G1 X20.78 Y31.9302
G1 X20.79 Y31.9449
G1 X20.8 Y31.9596
G1 X20.81 Y31.9743
G1 X20.82 Y31.989
G1 X20.83 Y32.0036
G1 X20.84 Y32.0183
G1 X20.85 Y32.033
G1 X20.86 Y32.0477
G1 X20.87 Y32.0624
G1 X20.88 Y32.077
G1 X20.89 Y32.0917
G1 X20.9 Y32.1064
G1 X20.91 Y32.1211
G1 X20.92 Y32.1357
G1 X20.93 Y32.1504
G1 X20.94 Y32.1651
G1 X20.95 Y32.1798
G1 X20.96 Y32.1944
G1 X20.97 Y32.2091
G1 X20.98 Y32.2238
G1 X20.99 Y32.2384
G1 X21 Y32.2531
G1 X21.01 Y32.2678
G1 X21.02 Y32.2824
G1 X21.03 Y32.2971
G1 X21.04 Y32.3117
G1 X21.05 Y32.3264
G1 X21.06 Y32.3411
G1 X21.07 Y32.3557
G1 X21.08 Y32.3704
G1 X21.09 Y32.385
G1 X21.1 Y32.3997
G1 X21.11 Y32.4143
G1 X21.12 Y32.429
G1 X21.13 Y32.4436
G1 X21.14 Y32.4583
G1 X21.15 Y32.4729
G1 X21.16 Y32.4876
G1 X21.17 Y32.5022
G1 X21.18 Y32.5169
G1 X21.19 Y32.5315
G1 X21.2 Y32.5462
G1 X21.21 Y32.5608
G1 X21.22 Y32.5755
G1 X21.23 Y32.5901
G1 X21.24 Y32.6048
G1 X21.25 Y32.6194
G1 X21.26 Y32.634
G1 X21.27 Y32.6487
G1 X21.28 Y32.6633
G1 X21.29 Y32.6779
G1 X21.3 Y32.6926
G1 X21.31 Y32.7072
G1 X21.32 Y32.7219
G1 X21.33 Y32.7365
G1 X21.34 Y32.7511
G1 X21.35 Y32.7657
G1 X21.36 Y32.7804
G1 X21.37 Y32.795
G1 X21.38 Y32.8096
G1 X21.39 Y32.8243
G1 X21.4 Y32.8389
G1 X21.41 Y32.8535
G1 X21.42 Y32.8681
G1 X21.43 Y32.8828
G1 X21.44 Y32.8974
G1 X21.45 Y32.912
G1 X21.46 Y32.9266
G1 X21.47 Y32.9412
G1 X21.48 Y32.9559
G1 X21.49 Y32.9705
G1 X21.5 Y32.9851
G1 X21.51 Y32.9997
G1 X21.52 Y33.0143
G1 X21.53 Y33.0289
G1 X21.54 Y33.0435
G1 X21.55 Y33.0581
G1 X21.56 Y33.0728
G1 X21.57 Y33.0874
G1 X21.58 Y33.102
G1 X21.59 Y33.1166
G1 X21.6 Y33.1312
G1 X21.61 Y33.1458
G1 X21.62 Y33.1604
G1 X21.63 Y33.175
G1 X21.64 Y33.1896
G1 X21.65 Y33.2042
G1 X21.66 Y33.2188
G1 X21.67 Y33.2334
G1 X21.68 Y33.248
G1 X21.69 Y33.2626
G1 X21.7 Y33.2772
G1 X21.71 Y33.2918
G1 X21.72 Y33.3064
G1 X21.73 Y33.321
G1 X21.74 Y33.3356
G1 X21.75 Y33.3501
G1 X21.76 Y33.3647
G1 X21.77 Y33.3793
G1 X21.78 Y33.3939
G1 X21.79 Y33.4085
G1 X21.8 Y33.4231
G1 X21.81 Y33.4377
G1 X21.82 Y33.4522
G1 X21.83 Y33.4668
G1 X21.84 Y33.4814
G1 X21.85 Y33.496
G1 X21.86 Y33.5106
G1 X21.87 Y33.5251
G1 X21.88 Y33.5397
G1 X21.89 Y33.5543
G1 X21.9 Y33.5689
G1 X21.91 Y33.5834
G1 X21.92 Y33.598
G1 X21.93 Y33.6126
G1 X21.94 Y33.6272
G1 X21.95 Y33.6417
G1 X21.96 Y33.6563
G1 X21.97 Y33.6709
G1 X21.98 Y33.6854
G1 X21.99 Y33.7
G1 X22 Y33.7146
G1 X22.01 Y33.7291
G1 X22.02 Y33.7437
G1 X22.03 Y33.7583
G1 X22.04 Y33.7728
G1 X22.05 Y33.7874
G1 X22.06 Y33.8019
G1 X22.07 Y33.8165
G1 X22.08 Y33.831
G1 X22.09 Y33.8456
G1 X22.1 Y33.8602
G1 X22.11 Y33.8747
G1 X22.12 Y33.8893
G1 X22.13 Y33.9038
G1 X22.14 Y33.9184
G1 X22.15 Y33.9329
G1 X22.16 Y33.9475
G1 X22.17 Y33.962
G1 X22.18 Y33.9766
G1 X22.19 Y33.9911
G1 X22.2 Y34.0056
G1 X22.21 Y34.0202
G1 X22.22 Y34.0347
G1 X22.23 Y34.0493
G1 X22.24 Y34.0638
G1 X22.25 Y34.0783
G1 X22.26 Y34.0929
G1 X22.27 Y34.1074
G1 X22.28 Y34.122
G1 X22.29 Y34.1365
G1 X22.3 Y34.151
G1 X22.31 Y34.1656
G1 X22.32 Y34.1801
G1 X22.33 Y34.1946
G1 X22.34 Y34.2092
G1 X22.35 Y34.2237
G1 X22.36 Y34.2382
G1 X22.37 Y34.2527
G1 X22.38 Y34.2673
G1 X22.39 Y34.2818
G1 X22.4 Y34.2963
G1 X22.41 Y34.3108
G1 X22.42 Y34.3253
G1 X22.43 Y34.3399
G1 X22.44 Y34.3544
G1 X22.45 Y34.3689
G1 X22.46 Y34.3834
G1 X22.47 Y34.3979
G1 X22.48 Y34.4125
G1 X22.49 Y34.427
G1 X22.5 Y34.4415
G1 X22.51 Y34.456
G1 X22.52 Y34.4705
G1 X22.53 Y34.485
G1 X22.54 Y34.4995
G1 X22.55 Y34.514
G1 X22.56 Y34.5285
G1 X22.57 Y34.543
G1 X22.58 Y34.5575
G1 X22.59 Y34.572
G1 X22.6 Y34.5866
G1 X22.61 Y34.6011
G1 X22.62 Y34.6156
G1 X22.63 Y34.6301
G1 X22.64 Y34.6445
G1 X22.65 Y34.659
G1 X22.66 Y34.6735
G1 X22.67 Y34.688
G1 X22.68 Y34.7025
G1 X22.69 Y34.717
G1 X22.7 Y34.7315
G1 X22.71 Y34.746
G1 X22.72 Y34.7605
G1 X22.73 Y34.775
G1 X22.74 Y34.7895
G1 X22.75 Y34.804
G1 X22.76 Y34.8184
G1 X22.77 Y34.8329
G1 X22.78 Y34.8474
G1 X22.79 Y34.8619
G1 X22.8 Y34.8764
G1 X22.81 Y34.8909
G1 X22.82 Y34.9053
G1 X22.83 Y34.9198
G1 X22.84 Y34.9343
G1 X22.85 Y34.9488
G1 X22.86 Y34.9632
G1 X22.87 Y34.9777
G1 X22.88 Y34.9922
G1 X22.89 Y35.0067
G1 X22.9 Y35.0211
G1 X22.91 Y35.0356
G1 X22.92 Y35.0501
G1 X22.93 Y35.0645
G1 X22.94 Y35.079
G1 X22.95 Y35.0935
G1 X22.96 Y35.1079
G1 X22.97 Y35.1224
G1 X22.98 Y35.1369
G1 X22.99 Y35.1513
G1 X23 Y35.1658
G1 X23.01 Y35.1802
G1 X23.02 Y35.1947
G1 X23.03 Y35.2091
G1 X23.04 Y35.2236
G1 X23.05 Y35.2381
G1 X23.06 Y35.2525
G1 X23.07 Y35.267
G1 X23.08 Y35.2814
G1 X23.09 Y35.2959
G1 X23.1 Y35.3103
G1 X23.11 Y35.3248
G1 X23.12 Y35.3392
G1 X23.13 Y35.3537
G1 X23.14 Y35.3681
G1 X23.15 Y35.3825
G1 X23.16 Y35.397
G1 X23.17 Y35.4114
G1 X23.18 Y35.4259
G1 X23.19 Y35.4403
G1 X23.2 Y35.4547
G1 X23.21 Y35.4692
G1 X23.22 Y35.4836
G1 X23.23 Y35.4981
G1 X23.24 Y35.5125
G1 X23.25 Y35.5269
G1 X23.26 Y35.5414
G1 X23.27 Y35.5558
G1 X23.28 Y35.5702
G1 X23.29 Y35.5846
G1 X23.3 Y35.5991
G1 X23.31 Y35.6135
G1 X23.32 Y35.6279
G1 X23.33 Y35.6423
G1 X23.34 Y35.6568
G1 X23.35 Y35.6712
G1 X23.36 Y35.6856
G1 X23.37 Y35.7
G1 X23.38 Y35.7144
G1 X23.39 Y35.7289
G1 X23.4 Y35.7433
G1 X23.41 Y35.7577
G1 X23.42 Y35.7721
G1 X23.43 Y35.7865
G1 X23.44 Y35.8009
G1 X23.45 Y35.8153
G1 X23.46 Y35.8298
G1 X23.47 Y35.8442
G1 X23.48 Y35.8586
G1 X23.49 Y35.873
G1 X23.5 Y35.8874
G1 X23.51 Y35.9018
G1 X23.52 Y35.9162
G1 X23.53 Y35.9306
G1 X23.54 Y35.945
G1 X23.55 Y35.9594
G1 X23.56 Y35.9738
G1 X23.57 Y35.9882
G1 X23.58 Y36.0026
G1 X23.59 Y36.017
G1 X23.6 Y36.0314
G1 X23.61 Y36.0458
G1 X23.62 Y36.0602
G1 X23.63 Y36.0746
G1 X23.64 Y36.089
G1 X23.65 Y36.1033
G1 X23.66 Y36.1177
G1 X23.67 Y36.1321
G1 X23.68 Y36.1465
G1 X23.69 Y36.1609
G1 X23.7 Y36.1753
G1 X23.71 Y36.1897
G1 X23.72 Y36.204
G1 X23.73 Y36.2184
G1 X23.74 Y36.2328
G1 X23.75 Y36.2472
G1 X23.76 Y36.2616
G1 X23.77 Y36.2759
G1 X23.78 Y36.2903
G1 X23.79 Y36.3047
G1 X23.8 Y36.319
G1 X23.81 Y36.3334
G1 X23.82 Y36.3478
G1 X23.83 Y36.3622
G1 X23.84 Y36.3765
G1 X23.85 Y36.3909
G1 X23.86 Y36.4053
G1 X23.87 Y36.4196
G1 X23.88 Y36.434
G1 X23.89 Y36.4484
G1 X23.9 Y36.4627
G1 X23.91 Y36.4771
G1 X23.92 Y36.4914
G1 X23.93 Y36.5058
G1 X23.94 Y36.5201
G1 X23.95 Y36.5345
G1 X23.96 Y36.5489
G1 X23.97 Y36.5632
G1 X23.98 Y36.5776
G1 X23.99 Y36.5919
G1 X24 Y36.6063
G1 X24.01 Y36.6206
G1 X24.02 Y36.635
G1 X24.03 Y36.6493
G1 X24.04 Y36.6637
G1 X24.05 Y36.678
G1 X24.06 Y36.6923
G1 X24.07 Y36.7067
G1 X24.08 Y36.721
G1 X24.09 Y36.7354
G1 X24.1 Y36.7497
G1 X24.11 Y36.7641
G1 X24.12 Y36.7784
G1 X24.13 Y36.7927
G1 X24.14 Y36.8071
G1 X24.15 Y36.8214
G1 X24.16 Y36.8357
G1 X24.17 Y36.8501
G1 X24.18 Y36.8644
G1 X24.19 Y36.8787
G1 X24.2 Y36.893
G1 X24.21 Y36.9074
G1 X24.22 Y36.9217
G1 X24.23 Y36.936
G1 X24.24 Y36.9503
G1 X24.25 Y36.9647
G1 X24.26 Y36.979
G1 X24.27 Y36.9933
G1 X24.28 Y37.0076
G1 X24.29 Y37.0219
G1 X24.3 Y37.0363
G1 X24.31 Y37.0506
G1 X24.32 Y37.0649
G1 X24.33 Y37.0792
G1 X24.34 Y37.0935
G1 X24.35 Y37.1078
G1 X24.36 Y37.1221
G1 X24.37 Y37.1364
G1 X24.38 Y37.1508
G1 X24.39 Y37.1651
G1 X24.4 Y37.1794
G1 X24.41 Y37.1937
G1 X24.42 Y37.208
G1 X24.43 Y37.2223
G1 X24.44 Y37.2366
G1 X24.45 Y37.2509
G1 X24.46 Y37.2652
G1 X24.47 Y37.2795
G1 X24.48 Y37.2938
G1 X24.49 Y37.3081
G1 X24.5 Y37.3224
G1 X24.51 Y37.3367
G1 X24.52 Y37.3509
G1 X24.53 Y37.3652
G1 X24.54 Y37.3795
G1 X24.55 Y37.3938
G1 X24.56 Y37.4081
G1 X24.57 Y37.4224
G1 X24.58 Y37.4367
G1 X24.59 Y37.451
G1 X24.6 Y37.4652
G1 X24.61 Y37.4795
G1 X24.62 Y37.4938
G1 X24.63 Y37.5081
G1 X24.64 Y37.5224
G1 X24.65 Y37.5366
G1 X24.66 Y37.5509
G1 X24.67 Y37.5652
G1 X24.68 Y37.5795
G1 X24.69 Y37.5937
G1 X24.7 Y37.608
G1 X24.71 Y37.6223
G1 X24.72 Y37.6365
G1 X24.73 Y37.6508
G1 X24.74 Y37.6651
G1 X24.75 Y37.6793
G1 X24.76 Y37.6936
G1 X24.77 Y37.7079
G1 X24.78 Y37.7221
G1 X24.79 Y37.7364
G1 X24.8 Y37.7507
G1 X24.81 Y37.7649
G1 X24.82 Y37.7792
G1 X24.83 Y37.7934
G1 X24.84 Y37.8077
G1 X24.85 Y37.8219
G1 X24.86 Y37.8362
G1 X24.87 Y37.8504
G1 X24.88 Y37.8647
G1 X24.89 Y37.8789
G1 X24.9 Y37.8932
G1 X24.91 Y37.9074
G1 X24.92 Y37.9217
G1 X24.93 Y37.9359
G1 X24.94 Y37.9502
G1 X24.95 Y37.9644
G1 X24.96 Y37.9787
G1 X24.97 Y37.9929
G1 X24.98 Y38.0071
G1 X24.99 Y38.0214
G1 X25 Y38.0356
G1 X25.01 Y38.0498
G1 X25.02 Y38.0641
G1 X25.03 Y38.0783
G1 X25.04 Y38.0925
G1 X25.05 Y38.1068
G1 X25.06 Y38.121
G1 X25.07 Y38.1352
G1 X25.08 Y38.1495
G1 X25.09 Y38.1637
G1 X25.1 Y38.1779
G1 X25.11 Y38.1921
G1 X25.12 Y38.2064
G1 X25.13 Y38.2206
G1 X25.14 Y38.2348
G1 X25.15 Y38.249
G1 X25.16 Y38.2632
G1 X25.17 Y38.2775
G1 X25.18 Y38.2917
G1 X25.19 Y38.3059
G1 X25.2 Y38.3201
G1 X25.21 Y38.3343
G1 X25.22 Y38.3485
G1 X25.23 Y38.3627
G1 X25.24 Y38.3769
G1 X25.25 Y38.3912
G1 X25.26 Y38.4054
G1 X25.27 Y38.4196
G1 X25.28 Y38.4338
G1 X25.29 Y38.448
G1 X25.3 Y38.4622
G1 X25.31 Y38.4764
G1 X25.32 Y38.4906
G1 X25.33 Y38.5048
G1 X25.34 Y38.519
G1 X25.35 Y38.5332
G1 X25.36 Y38.5474
G1 X25.37 Y38.5616
G1 X25.38 Y38.5758
G1 X25.39 Y38.5899
G1 X25.4 Y38.6041
G1 X25.41 Y38.6183
G1 X25.42 Y38.6325
G1 X25.43 Y38.6467
G1 X25.44 Y38.6609
G1 X25.45 Y38.6751
G1 X25.46 Y38.6892
G1 X25.47 Y38.7034
G1 X25.48 Y38.7176
G1 X25.49 Y38.7318
G1 X25.5 Y38.746
G1 X25.51 Y38.7601
G1 X25.52 Y38.7743
G1 X25.53 Y38.7885
G1 X25.54 Y38.8027
G1 X25.55 Y38.8168
G1 X25.56 Y38.831
G1 X25.57 Y38.8452
G1 X25.58 Y38.8594
G1 X25.59 Y38.8735
G1 X25.6 Y38.8877
G1 X25.61 Y38.9019
G1 X25.62 Y38.916
G1 X25.63 Y38.9302
G1 X25.64 Y38.9443
G1 X25.65 Y38.9585
G1 X25.66 Y38.9727
G1 X25.67 Y38.9868
G1 X25.68 Y39.001
G1 X25.69 Y39.0151
G1 X25.7 Y39.0293
G1 X25.71 Y39.0434
G1 X25.72 Y39.0576
G1 X25.73 Y39.0717
G1 X25.74 Y39.0859
G1 X25.75 Y39.1
G1 X25.76 Y39.1142
G1 X25.77 Y39.1283
G1 X25.78 Y39.1425
G1 X25.79 Y39.1566
G1 X25.8 Y39.1708
G1 X25.81 Y39.1849
G1 X25.82 Y39.1991
G1 X25.83 Y39.2132
G1 X25.84 Y39.2273
G1 X25.85 Y39.2415
G1 X25.86 Y39.2556
G1 X25.87 Y39.2697
G1 X25.88 Y39.2839
G1 X25.89 Y39.298
G1 X25.9 Y39.3121
G1 X25.91 Y39.3263
G1 X25.92 Y39.3404
G1 X25.93 Y39.3545
G1 X25.94 Y39.3686
G1 X25.95 Y39.3828
G1 X25.96 Y39.3969
G1 X25.97 Y39.411
G1 X25.98 Y39.4251
G1 X25.99 Y39.4393
G1 X26 Y39.4534
G1 X26.01 Y39.4675
G1 X26.02 Y39.4816
G1 X26.03 Y39.4957
G1 X26.04 Y39.5098
G1 X26.05 Y39.5239
G1 X26.06 Y39.5381
G1 X26.07 Y39.5522
G1 X26.08 Y39.5663
G1 X26.09 Y39.5804
G1 X26.1 Y39.5945
G1 X26.11 Y39.6086
G1 X26.12 Y39.6227
G1 X26.13 Y39.6368
G1 X26.14 Y39.6509
G1 X26.15 Y39.665
G1 X26.16 Y39.6791
G1 X26.17 Y39.6932
G1 X26.18 Y39.7073
G1 X26.19 Y39.7214
G1 X26.2 Y39.7355
G1 X26.21 Y39.7496
G1 X26.22 Y39.7637
G1 X26.23 Y39.7778
G1 X26.24 Y39.7919
G1 X26.25 Y39.806
G1 X26.26 Y39.82
G1 X26.27 Y39.8341
G1 X26.28 Y39.8482
G1 X26.29 Y39.8623
G1 X26.3 Y39.8764
G1 X26.31 Y39.8905
G1 X26.32 Y39.9045
G1 X26.33 Y39.9186
G1 X26.34 Y39.9327
G1 X26.35 Y39.9468
G1 X26.36 Y39.9608
G1 X26.37 Y39.9749
G1 X26.38 Y39.989
G1 X26.39 Y40.0031
G1 X26.4 Y40.0171
G1 X26.41 Y40.0312
G1 X26.42 Y40.0453
G1 X26.43 Y40.0593
G1 X26.44 Y40.0734
G1 X26.45 Y40.0875
G1 X26.46 Y40.1015
G1 X26.47 Y40.1156
G1 X26.48 Y40.1297
G1 X26.49 Y40.1437
G1 X26.5 Y40.1578
G1 X26.51 Y40.1718
G1 X26.52 Y40.1859
G1 X26.53 Y40.1999
G1 X26.54 Y40.214
G1 X26.55 Y40.228
G1 X26.56 Y40.2421
G1 X26.57 Y40.2561
G1 X26.58 Y40.2702
G1 X26.59 Y40.2842
G1 X26.6 Y40.2983
G1 X26.61 Y40.3123
G1 X26.62 Y40.3264
G1 X26.63 Y40.3404
G1 X26.64 Y40.3545
G1 X26.65 Y40.3685
G1 X26.66 Y40.3825
G1 X26.67 Y40.3966
G1 X26.68 Y40.4106
G1 X26.69 Y40.4246
G1 X26.7 Y40.4387
G1 X26.71 Y40.4527
G1 X26.72 Y40.4667
G1 X26.73 Y40.4808
G1 X26.74 Y40.4948
G1 X26.75 Y40.5088
G1 X26.76 Y40.5229
G1 X26.77 Y40.5369
G1 X26.78 Y40.5509
G1 X26.79 Y40.5649
G1 X26.8 Y40.5789
G1 X26.81 Y40.593
G1 X26.82 Y40.607
G1 X26.83 Y40.621
G1 X26.84 Y40.635
G1 X26.85 Y40.649
G1 X26.86 Y40.663
G1 X26.87 Y40.6771
G1 X26.88 Y40.6911
G1 X26.89 Y40.7051
G1 X26.9 Y40.7191
G1 X26.91 Y40.7331
G1 X26.92 Y40.7471
G1 X26.93 Y40.7611
G1 X26.94 Y40.7751
G1 X26.95 Y40.7891
G1 X26.96 Y40.8031
G1 X26.97 Y40.8171
G1 X26.98 Y40.8311
G1 X26.99 Y40.8451
G1 X27 Y40.8591
G1 X27.01 Y40.8731
G1 X27.02 Y40.8871
G1 X27.03 Y40.9011
G1 X27.04 Y40.9151
G1 X27.05 Y40.9291
G1 X27.06 Y40.9431
G1 X27.07 Y40.9571
G1 X27.08 Y40.971
G1 X27.09 Y40.985
G1 X27.1 Y40.999
G1 X27.11 Y41.013
G1 X27.12 Y41.027
G1 X27.13 Y41.041
G1 X27.14 Y41.0549
G1 X27.15 Y41.0689
G1 X27.16 Y41.0829
G1 X27.17 Y41.0969
G1 X27.18 Y41.1108
G1 X27.19 Y41.1248
G1 X27.2 Y41.1388
G1 X27.21 Y41.1528
G1 X27.22 Y41.1667
G1 X27.23 Y41.1807
G1 X27.24 Y41.1947
G1 X27.25 Y41.2086
G1 X27.26 Y41.2226
G1 X27.27 Y41.2365
G1 X27.28 Y41.2505
G1 X27.29 Y41.2645
G1 X27.3 Y41.2784
G1 X27.31 Y41.2924
G1 X27.32 Y41.3063
G1 X27.33 Y41.3203
G1 X27.34 Y41.3343
G1 X27.35 Y41.3482
G1 X27.36 Y41.3622
G1 X27.37 Y41.3761
G1 X27.38 Y41.3901
G1 X27.39 Y41.404
G1 X27.4 Y41.4179
G1 X27.41 Y41.4319
G1 X27.42 Y41.4458
G1 X27.43 Y41.4598
G1 X27.44 Y41.4737
G1 X27.45 Y41.4877
G1 X27.46 Y41.5016
G1 X27.47 Y41.5155
G1 X27.48 Y41.5295
G1 X27.49 Y41.5434
G1 X27.5 Y41.5573
G1 X27.51 Y41.5713
G1 X27.52 Y41.5852
G1 X27.53 Y41.5991
G1 X27.54 Y41.6131
G1 X27.55 Y41.627
G1 X27.56 Y41.6409
G1 X27.57 Y41.6548
G1 X27.58 Y41.6688
G1 X27.59 Y41.6827
G1 X27.6 Y41.6966
G1 X27.61 Y41.7105
G1 X27.62 Y41.7244
G1 X27.63 Y41.7384
G1 X27.64 Y41.7523
G1 X27.65 Y41.7662
G1 X27.66 Y41.7801
G1 X27.67 Y41.794
G1 X27.68 Y41.8079
G1 X27.69 Y41.8218
G1 X27.7 Y41.8358
G1 X27.71 Y41.8497
G1 X27.72 Y41.8636
G1 X27.73 Y41.8775
G1 X27.74 Y41.8914
G1 X27.75 Y41.9053
G1 X27.76 Y41.9192
G1 X27.77 Y41.9331
G1 X27.78 Y41.947
G1 X27.79 Y41.9609
G1 X27.8 Y41.9748
G1 X27.81 Y41.9887
G1 X27.82 Y42.0026
G1 X27.83 Y42.0164
G1 X27.84 Y42.0303
G1 X27.85 Y42.0442
G1 X27.86 Y42.0581
G1 X27.87 Y42.072
G1 X27.88 Y42.0859
G1 X27.89 Y42.0998
G1 X27.9 Y42.1137
G1 X27.91 Y42.1275
G1 X27.92 Y42.1414
G1 X27.93 Y42.1553
G1 X27.94 Y42.1692
G1 X27.95 Y42.183
G1 X27.96 Y42.1969
G1 X27.97 Y42.2108
G1 X27.98 Y42.2247
G1 X27.99 Y42.2385
G1 X28 Y42.2524
G1 X28.01 Y42.2663
G1 X28.02 Y42.2801
G1 X28.03 Y42.294
G1 X28.04 Y42.3079
G1 X28.05 Y42.3217
G1 X28.06 Y42.3356
G1 X28.07 Y42.3495
G1 X28.08 Y42.3633
G1 X28.09 Y42.3772
G1 X28.1 Y42.391
G1 X28.11 Y42.4049
G1 X28.12 Y42.4187
G1 X28.13 Y42.4326
G1 X28.14 Y42.4465
G1 X28.15 Y42.4603
G1 X28.16 Y42.4742
G1 X28.17 Y42.488
G1 X28.18 Y42.5018
G1 X28.19 Y42.5157
G1 X28.2 Y42.5295
G1 X28.21 Y42.5434
G1 X28.22 Y42.5572
G1 X28.23 Y42.5711
G1 X28.24 Y42.5849
G1 X28.25 Y42.5987
G1 X28.26 Y42.6126
G1 X28.27 Y42.6264
G1 X28.28 Y42.6402
G1 X28.29 Y42.6541
G1 X28.3 Y42.6679
G1 X28.31 Y42.6817
G1 X28.32 Y42.6956
G1 X28.33 Y42.7094
G1 X28.34 Y42.7232
G1 X28.35 Y42.737
G1 X28.36 Y42.7509
G1 X28.37 Y42.7647
G1 X28.38 Y42.7785
G1 X28.39 Y42.7923
G1 X28.4 Y42.8061
G1 X28.41 Y42.82
G1 X28.42 Y42.8338
G1 X28.43 Y42.8476
G1 X28.44 Y42.8614
G1 X28.45 Y42.8752
G1 X28.46 Y42.889
G1 X28.47 Y42.9028
G1 X28.48 Y42.9166
G1 X28.49 Y42.9305
G1 X28.5 Y42.9443
G1 X28.51 Y42.9581
G1 X28.52 Y42.9719
G1 X28.53 Y42.9857
G1 X28.54 Y42.9995
G1 X28.55 Y43.0133
G1 X28.56 Y43.0271
G1 X28.57 Y43.0409
G1 X28.58 Y43.0546
G1 X28.59 Y43.0684
G1 X28.6 Y43.0822
G1 X28.61 Y43.096
G1 X28.62 Y43.1098
G1 X28.63 Y43.1236
G1 X28.64 Y43.1374
G1 X28.65 Y43.1512
G1 X28.66 Y43.165
G1 X28.67 Y43.1787
G1 X28.68 Y43.1925
G1 X28.69 Y43.2063
G1 X28.7 Y43.2201
G1 X28.71 Y43.2339
G1 X28.72 Y43.2476
G1 X28.73 Y43.2614
G1 X28.74 Y43.2752
G1 X28.75 Y43.289
G1 X28.76 Y43.3027
G1 X28.77 Y43.3165
G1 X28.78 Y43.3303
G1 X28.79 Y43.344
G1 X28.8 Y43.3578
G1 X28.81 Y43.3716
G1 X28.82 Y43.3853
G1 X28.83 Y43.3991
G1 X28.84 Y43.4128
G1 X28.85 Y43.4266
G1 X28.86 Y43.4404
G1 X28.87 Y43.4541
G1 X28.88 Y43.4679
G1 X28.89 Y43.4816
G1 X28.9 Y43.4954
G1 X28.91 Y43.5091
G1 X28.92 Y43.5229
G1 X28.93 Y43.5366
G1 X28.94 Y43.5504
G1 X28.95 Y43.5641
G1 X28.96 Y43.5779
G1 X28.97 Y43.5916
G1 X28.98 Y43.6054
G1 X28.99 Y43.6191
G1 X29 Y43.6328
G1 X29.01 Y43.6466
G1 X29.02 Y43.6603
G1 X29.03 Y43.674
G1 X29.04 Y43.6878
G1 X29.05 Y43.7015
G1 X29.06 Y43.7152
G1 X29.07 Y43.729
G1 X29.08 Y43.7427
G1 X29.09 Y43.7564
G1 X29.1 Y43.7702
G1 X29.11 Y43.7839
G1 X29.12 Y43.7976
G1 X29.13 Y43.8113
G1 X29.14 Y43.825
G1 X29.15 Y43.8388
G1 X29.16 Y43.8525
G1 X29.17 Y43.8662
G1 X29.18 Y43.8799
G1 X29.19 Y43.8936
G1 X29.2 Y43.9073
G1 X29.21 Y43.921
G1 X29.22 Y43.9348
G1 X29.23 Y43.9485
G1 X29.24 Y43.9622
G1 X29.25 Y43.9759
G1 X29.26 Y43.9896
G1 X29.27 Y44.0033
G1 X29.28 Y44.017
G1 X29.29 Y44.0307
G1 X29.3 Y44.0444
G1 X29.31 Y44.0581
G1 X29.32 Y44.0718
G1 X29.33 Y44.0855
G1 X29.34 Y44.0992
G1 X29.35 Y44.1129
G1 X29.36 Y44.1266
G1 X29.37 Y44.1402
G1 X29.38 Y44.1539
G1 X29.39 Y44.1676
G1 X29.4 Y44.1813
G1 X29.41 Y44.195
G1 X29.42 Y44.2087
G1 X29.43 Y44.2224
G1 X29.44 Y44.236
G1 X29.45 Y44.2497
G1 X29.46 Y44.2634
G1 X29.47 Y44.2771
G1 X29.48 Y44.2907
G1 X29.49 Y44.3044
G1 X29.5 Y44.3181
G1 X29.51 Y44.3318
G1 X29.52 Y44.3454
G1 X29.53 Y44.3591
G1 X29.54 Y44.3728
G1 X29.55 Y44.3864
G1 X29.56 Y44.4001
G1 X29.57 Y44.4138
G1 X29.58 Y44.4274
G1 X29.59 Y44.4411
G1 X29.6 Y44.4547
G1 X29.61 Y44.4684
G1 X29.62 Y44.482
G1 X29.63 Y44.4957
G1 X29.64 Y44.5094
G1 X29.65 Y44.523
G1 X29.66 Y44.5367
G1 X29.67 Y44.5503
G1 X29.68 Y44.564
G1 X29.69 Y44.5776
G1 X29.7 Y44.5912
G1 X29.71 Y44.6049
G1 X29.72 Y44.6185
G1 X29.73 Y44.6322
G1 X29.74 Y44.6458
G1 X29.75 Y44.6595
G1 X29.76 Y44.6731
G1 X29.77 Y44.6867
G1 X29.78 Y44.7004
G1 X29.79 Y44.714
G1 X29.8 Y44.7276
G1 X29.81 Y44.7413
G1 X29.82 Y44.7549
G1 X29.83 Y44.7685
G1 X29.84 Y44.7821
G1 X29.85 Y44.7958
G1 X29.86 Y44.8094
G1 X29.87 Y44.823
G1 X29.88 Y44.8366
G1 X29.89 Y44.8502
G1 X29.9 Y44.8639
G1 X29.91 Y44.8775
G1 X29.92 Y44.8911
G1 X29.93 Y44.9047
G1 X29.94 Y44.9183
G1 X29.95 Y44.9319
G1 X29.96 Y44.9455
G1 X29.97 Y44.9591
G1 X29.98 Y44.9728
G1 X29.99 Y44.9864
G1 X30 Y45
G1 X30.01 Y45.0136
G1 X30.02 Y45.0272
G1 X30.03 Y45.0408
G1 X30.04 Y45.0544
G1 X30.05 Y45.068
G1 X30.06 Y45.0816
G1 X30.07 Y45.0952
G1 X30.08 Y45.1087
G1 X30.09 Y45.1223
G1 X30.1 Y45.1359
G1 X30.11 Y45.1495
G1 X30.12 Y45.1631
G1 X30.13 Y45.1767
G1 X30.14 Y45.1903
G1 X30.15 Y45.2039
G1 X30.16 Y45.2174
G1 X30.17 Y45.231
G1 X30.18 Y45.2446
G1 X30.19 Y45.2582
G1 X30.2 Y45.2718
G1 X30.21 Y45.2853
G1 X30.22 Y45.2989
G1 X30.23 Y45.3125
G1 X30.24 Y45.3261
G1 X30.25 Y45.3396
G1 X30.26 Y45.3532
G1 X30.27 Y45.3668
G1 X30.28 Y45.3803
G1 X30.29 Y45.3939
G1 X30.3 Y45.4075
G1 X30.31 Y45.421
G1 X30.32 Y45.4346
G1 X30.33 Y45.4481
G1 X30.34 Y45.4617
G1 X30.35 Y45.4752
G1 X30.36 Y45.4888
G1 X30.37 Y45.5024
G1 X30.38 Y45.5159
G1 X30.39 Y45.5295
G1 X30.4 Y45.543
G1 X30.41 Y45.5566
G1 X30.42 Y45.5701
G1 X30.43 Y45.5836
G1 X30.44 Y45.5972
G1 X30.45 Y45.6107
G1 X30.46 Y45.6243
G1 X30.47 Y45.6378
G1 X30.48 Y45.6513
G1 X30.49 Y45.6649
G1 X30.5 Y45.6784
G1 X30.51 Y45.692
G1 X30.52 Y45.7055
G1 X30.53 Y45.719
G1 X30.54 Y45.7325
G1 X30.55 Y45.7461
G1 X30.56 Y45.7596
G1 X30.57 Y45.7731
G1 X30.58 Y45.7866
G1 X30.59 Y45.8002
G1 X30.6 Y45.8137
G1 X30.61 Y45.8272
G1 X30.62 Y45.8407
G1 X30.63 Y45.8542
G1 X30.64 Y45.8678
G1 X30.65 Y45.8813
G1 X30.66 Y45.8948
G1 X30.67 Y45.9083
G1 X30.68 Y45.9218
G1 X30.69 Y45.9353
G1 X30.7 Y45.9488
G1 X30.71 Y45.9623
G1 X30.72 Y45.9758
G1 X30.73 Y45.9893
G1 X30.74 Y46.0028
G1 X30.75 Y46.0163
G1 X30.76 Y46.0298
G1 X30.77 Y46.0433
G1 X30.78 Y46.0568
G1 X30.79 Y46.0703
G1 X30.8 Y46.0838
G1 X30.81 Y46.0973
G1 X30.82 Y46.1108
G1 X30.83 Y46.1243
G1 X30.84 Y46.1378
G1 X30.85 Y46.1513
G1 X30.86 Y46.1648
G1 X30.87 Y46.1782
G1 X30.88 Y46.1917
G1 X30.89 Y46.2052
G1 X30.9 Y46.2187
G1 X30.91 Y46.2322
G1 X30.92 Y46.2456
G1 X30.93 Y46.2591
G1 X30.94 Y46.2726
G1 X30.95 Y46.2861
G1 X30.96 Y46.2995
G1 X30.97 Y46.313
G1 X30.98 Y46.3265
G1 X30.99 Y46.3399
G1 X31 Y46.3534
G1 X31.01 Y46.3669
G1 X31.02 Y46.3803
G1 X31.03 Y46.3938
G1 X31.04 Y46.4072
G1 X31.05 Y46.4207
G1 X31.06 Y46.4342
G1 X31.07 Y46.4476
G1 X31.08 Y46.4611
G1 X31.09 Y46.4745
G1 X31.1 Y46.488
G1 X31.11 Y46.5014
G1 X31.12 Y46.5149
G1 X31.13 Y46.5283
G1 X31.14 Y46.5418
G1 X31.15 Y46.5552
G1 X31.16 Y46.5686
G1 X31.17 Y46.5821
G1 X31.18 Y46.5955
G1 X31.19 Y46.609
G1 X31.2 Y46.6224
G1 X31.21 Y46.6358
G1 X31.22 Y46.6493
G1 X31.23 Y46.6627
G1 X31.24 Y46.6761
G1 X31.25 Y46.6896
G1 X31.26 Y46.703
G1 X31.27 Y46.7164
G1 X31.28 Y46.7298
G1 X31.29 Y46.7433
G1 X31.3 Y46.7567
G1 X31.31 Y46.7701
G1 X31.32 Y46.7835
G1 X31.33 Y46.7969
G1 X31.34 Y46.8104
G1 X31.35 Y46.8238
G1 X31.36 Y46.8372
G1 X31.37 Y46.8506
G1 X31.38 Y46.864
G1 X31.39 Y46.8774
G1 X31.4 Y46.8908
G1 X31.41 Y46.9042
G1 X31.42 Y46.9176
G1 X31.43 Y46.931
G1 X31.44 Y46.9445
G1 X31.45 Y46.9579
G1 X31.46 Y46.9713
G1 X31.47 Y46.9846
G1 X31.48 Y46.998
G1 X31.49 Y47.0114
G1 X31.5 Y47.0248
G1 X31.51 Y47.0382
G1 X31.52 Y47.0516
G1 X31.53 Y47.065
G1 X31.54 Y47.0784
G1 X31.55 Y47.0918
G1 X31.56 Y47.1052
G1 X31.57 Y47.1186
G1 X31.58 Y47.1319
G1 X31.59 Y47.1453
G1 X31.6 Y47.1587
G1 X31.61 Y47.1721
G1 X31.62 Y47.1855
G1 X31.63 Y47.1988
G1 X31.64 Y47.2122
G1 X31.65 Y47.2256
G1 X31.66 Y47.2389
G1 X31.67 Y47.2523
G1 X31.68 Y47.2657
G1 X31.69 Y47.279
G1 X31.7 Y47.2924
G1 X31.71 Y47.3058
G1 X31.72 Y47.3191
G1 X31.73 Y47.3325
G1 X31.74 Y47.3459
G1 X31.75 Y47.3592
G1 X31.76 Y47.3726
G1 X31.77 Y47.3859
G1 X31.78 Y47.3993
G1 X31.79 Y47.4126
G1 X31.8 Y47.426
G1 X31.81 Y47.4393
G1 X31.82 Y47.4527
G1 X31.83 Y47.466
G1 X31.84 Y47.4794
G1 X31.85 Y47.4927
G1 X31.86 Y47.5061
G1 X31.87 Y47.5194
G1 X31.88 Y47.5327
G1 X31.89 Y47.5461
G1 X31.9 Y47.5594
G1 X31.91 Y47.5727
G1 X31.92 Y47.5861
G1 X31.93 Y47.5994
G1 X31.94 Y47.6127
G1 X31.95 Y47.6261
G1 X31.96 Y47.6394
G1 X31.97 Y47.6527
G1 X31.98 Y47.6661
G1 X31.99 Y47.6794
G1 X32 Y47.6927
G1 X32.01 Y47.706
G1 X32.02 Y47.7193
G1 X32.03 Y47.7327
G1 X32.04 Y47.746
G1 X32.05 Y47.7593
G1 X32.06 Y47.7726
G1 X32.07 Y47.7859
G1 X32.08 Y47.7992
G1 X32.09 Y47.8125
G1 X32.1 Y47.8258
G1 X32.11 Y47.8391
G1 X32.12 Y47.8524
G1 X32.13 Y47.8657
G1 X32.14 Y47.8791
G1 X32.15 Y47.8924
G1 X32.16 Y47.9056
G1 X32.17 Y47.9189
G1 X32.18 Y47.9322
G1 X32.19 Y47.9455
G1 X32.2 Y47.9588
G1 X32.21 Y47.9721
G1 X32.22 Y47.9854
G1 X32.23 Y47.9987
G1 X32.24 Y48.012
G1 X32.25 Y48.0253
G1 X32.26 Y48.0386
G1 X32.27 Y48.0518
G1 X32.28 Y48.0651
G1 X32.29 Y48.0784
G1 X32.3 Y48.0917
G1 X32.31 Y48.105
G1 X32.32 Y48.1182
G1 X32.33 Y48.1315
G1 X32.34 Y48.1448
G1 X32.35 Y48.158
G1 X32.36 Y48.1713
G1 X32.37 Y48.1846
G1 X32.38 Y48.1978
G1 X32.39 Y48.2111
G1 X32.4 Y48.2244
G1 X32.41 Y48.2376
G1 X32.42 Y48.2509
G1 X32.43 Y48.2642
G1 X32.44 Y48.2774
G1 X32.45 Y48.2907
G1 X32.46 Y48.3039
G1 X32.47 Y48.3172
G1 X32.48 Y48.3304
G1 X32.49 Y48.3437
G1 X32.5 Y48.3569
G1 X32.51 Y48.3702
G1 X32.52 Y48.3834
G1 X32.53 Y48.3967
G1 X32.54 Y48.4099
G1 X32.55 Y48.4231
G1 X32.56 Y48.4364
G1 X32.57 Y48.4496
G1 X32.58 Y48.4629
G1 X32.59 Y48.4761
G1 X32.6 Y48.4893
G1 X32.61 Y48.5026
G1 X32.62 Y48.5158
G1 X32.63 Y48.529
G1 X32.64 Y48.5423
G1 X32.65 Y48.5555
G1 X32.66 Y48.5687
G1 X32.67 Y48.5819
G1 X32.68 Y48.5952
G1 X32.69 Y48.6084
G1 X32.7 Y48.6216
G1 X32.71 Y48.6348
G1 X32.72 Y48.648
G1 X32.73 Y48.6612
G1 X32.74 Y48.6745
G1 X32.75 Y48.6877
G1 X32.76 Y48.7009
G1 X32.77 Y48.7141
G1 X32.78 Y48.7273
G1 X32.79 Y48.7405
G1 X32.8 Y48.7537
G1 X32.81 Y48.7669
G1 X32.82 Y48.7801
G1 X32.83 Y48.7933
G1 X32.84 Y48.8065
G1 X32.85 Y48.8197
G1 X32.86 Y48.8329
G1 X32.87 Y48.8461
G1 X32.88 Y48.8593
G1 X32.89 Y48.8725
G1 X32.9 Y48.8857
G1 X32.91 Y48.8989
G1 X32.92 Y48.912
G1 X32.93 Y48.9252
G1 X32.94 Y48.9384
G1 X32.95 Y48.9516
G1 X32.96 Y48.9648
G1 X32.97 Y48.9779
G1 X32.98 Y48.9911
G1 X32.99 Y49.0043
G1 X33 Y49.0175
G1 X33.01 Y49.0306
G1 X33.02 Y49.0438
G1 X33.03 Y49.057
G1 X33.04 Y49.0702
G1 X33.05 Y49.0833
G1 X33.06 Y49.0965
G1 X33.07 Y49.1097
G1 X33.08 Y49.1228
G1 X33.09 Y49.136
G1 X33.1 Y49.1491
G1 X33.11 Y49.1623
G1 X33.12 Y49.1755
G1 X33.13 Y49.1886
G1 X33.14 Y49.2018
G1 X33.15 Y49.2149
G1 X33.16 Y49.2281
G1 X33.17 Y49.2412
G1 X33.18 Y49.2544
G1 X33.19 Y49.2675
G1 X33.2 Y49.2807
G1 X33.21 Y49.2938
G1 X33.22 Y49.3069
G1 X33.23 Y49.3201
G1 X33.24 Y49.3332
G1 X33.25 Y49.3464
G1 X33.26 Y49.3595
G1 X33.27 Y49.3726
G1 X33.28 Y49.3858
G1 X33.29 Y49.3989
G1 X33.3 Y49.412
G1 X33.31 Y49.4251
G1 X33.32 Y49.4383
G1 X33.33 Y49.4514
G1 X33.34 Y49.4645
G1 X33.35 Y49.4776
G1 X33.36 Y49.4908
G1 X33.37 Y49.5039
G1 X33.38 Y49.517
G1 X33.39 Y49.5301
G1 X33.4 Y49.5432
G1 X33.41 Y49.5563
G1 X33.42 Y49.5695
G1 X33.43 Y49.5826
G1 X33.44 Y49.5957
G1 X33.45 Y49.6088
G1 X33.46 Y49.6219
G1 X33.47 Y49.635
G1 X33.48 Y49.6481
G1 X33.49 Y49.6612
G1 X33.5 Y49.6743
G1 X33.51 Y49.6874
G1 X33.52 Y49.7005
G1 X33.53 Y49.7136
G1 X33.54 Y49.7267
G1 X33.55 Y49.7398
G1 X33.56 Y49.7529
G1 X33.57 Y49.7659
G1 X33.58 Y49.779
G1 X33.59 Y49.7921
G1 X33.6 Y49.8052
G1 X33.61 Y49.8183
G1 X33.62 Y49.8314
G1 X33.63 Y49.8444
G1 X33.64 Y49.8575
G1 X33.65 Y49.8706
G1 X33.66 Y49.8837
G1 X33.67 Y49.8967
G1 X33.68 Y49.9098
G1 X33.69 Y49.9229
G1 X33.7 Y49.936
G1 X33.71 Y49.949
G1 X33.72 Y49.9621
G1 X33.73 Y49.9752
G1 X33.74 Y49.9882
G1 X33.75 Y50.0013
G1 X33.76 Y50.0143
G1 X33.77 Y50.0274
G1 X33.78 Y50.0405
G1 X33.79 Y50.0535
G1 X33.8 Y50.0666
G1 X33.81 Y50.0796
G1 X33.82 Y50.0927
G1 X33.83 Y50.1057
G1 X33.84 Y50.1188
G1 X33.85 Y50.1318
G1 X33.86 Y50.1449
G1 X33.87 Y50.1579
G1 X33.88 Y50.1709
G1 X33.89 Y50.184
G1 X33.9 Y50.197
G1 X33.91 Y50.2101
G1 X33.92 Y50.2231
G1 X33.93 Y50.2361
G1 X33.94 Y50.2492
G1 X33.95 Y50.2622
G1 X33.96 Y50.2752
G1 X33.97 Y50.2882
G1 X33.98 Y50.3013
G1 X33.99 Y50.3143
G1 X34 Y50.3273
G1 X34.01 Y50.3403
G1 X34.02 Y50.3534
G1 X34.03 Y50.3664
G1 X34.04 Y50.3794
G1 X34.05 Y50.3924
G1 X34.06 Y50.4054
G1 X34.07 Y50.4184
G1 X34.08 Y50.4315
G1 X34.09 Y50.4445
G1 X34.1 Y50.4575
G1 X34.11 Y50.4705
G1 X34.12 Y50.4835
G1 X34.13 Y50.4965
G1 X34.14 Y50.5095
G1 X34.15 Y50.5225
G1 X34.16 Y50.5355
G1 X34.17 Y50.5485
G1 X34.18 Y50.5615
G1 X34.19 Y50.5745
G1 X34.2 Y50.5875
G1 X34.21 Y50.6005
G1 X34.22 Y50.6134
G1 X34.23 Y50.6264
G1 X34.24 Y50.6394
G1 X34.25 Y50.6524
G1 X34.26 Y50.6654
G1 X34.27 Y50.6784
G1 X34.28 Y50.6914
G1 X34.29 Y50.7043
G1 X34.3 Y50.7173
G1 X34.31 Y50.7303
G1 X34.32 Y50.7433
G1 X34.33 Y50.7562
G1 X34.34 Y50.7692
G1 X34.35 Y50.7822
G1 X34.36 Y50.7951
G1 X34.37 Y50.8081
G1 X34.38 Y50.8211
G1 X34.39 Y50.834
G1 X34.4 Y50.847
G1 X34.41 Y50.86
G1 X34.42 Y50.8729
G1 X34.43 Y50.8859
G1 X34.44 Y50.8988
G1 X34.45 Y50.9118
G1 X34.46 Y50.9247
G1 X34.47 Y50.9377
G1 X34.48 Y50.9506
G1 X34.49 Y50.9636
G1 X34.5 Y50.9765
G1 X34.51 Y50.9895
G1 X34.52 Y51.0024
G1 X34.53 Y51.0154
G1 X34.54 Y51.0283
G1 X34.55 Y51.0412
G1 X34.56 Y51.0542
G1 X34.57 Y51.0671
G1 X34.58 Y51.08
G1 X34.59 Y51.093
G1 X34.6 Y51.1059
G1 X34.61 Y51.1188
G1 X34.62 Y51.1318
G1 X34.63 Y51.1447
G1 X34.64 Y51.1576
G1 X34.65 Y51.1705
G1 X34.66 Y51.1834
G1 X34.67 Y51.1964
G1 X34.68 Y51.2093
G1 X34.69 Y51.2222
G1 X34.7 Y51.2351
G1 X34.71 Y51.248
G1 X34.72 Y51.2609
G1 X34.73 Y51.2739
G1 X34.74 Y51.2868
G1 X34.75 Y51.2997
G1 X34.76 Y51.3126
G1 X34.77 Y51.3255
G1 X34.78 Y51.3384
G1 X34.79 Y51.3513
G1 X34.8 Y51.3642
G1 X34.81 Y51.3771
G1 X34.82 Y51.39
G1 X34.83 Y51.4029
G1 X34.84 Y51.4158
G1 X34.85 Y51.4287
G1 X34.86 Y51.4415
G1 X34.87 Y51.4544
G1 X34.88 Y51.4673
G1 X34.89 Y51.4802
G1 X34.9 Y51.4931
G1 X34.91 Y51.506
G1 X34.92 Y51.5189
G1 X34.93 Y51.5317
G1 X34.94 Y51.5446
G1 X34.95 Y51.5575
G1 X34.96 Y51.5704
G1 X34.97 Y51.5832
G1 X34.98 Y51.5961
G1 X34.99 Y51.609
G1 X35 Y51.6218
G1 X35.01 Y51.6347
G1 X35.02 Y51.6476
G1 X35.03 Y51.6604
G1 X35.04 Y51.6733
G1 X35.05 Y51.6862
G1 X35.06 Y51.699
G1 X35.07 Y51.7119
G1 X35.08 Y51.7247
G1 X35.09 Y51.7376
G1 X35.1 Y51.7504
G1 X35.11 Y51.7633
G1 X35.12 Y51.7761
G1 X35.13 Y51.789
G1 X35.14 Y51.8018
G1 X35.15 Y51.8147
G1 X35.16 Y51.8275
G1 X35.17 Y51.8404
G1 X35.18 Y51.8532
G1 X35.19 Y51.866
G1 X35.2 Y51.8789
G1 X35.21 Y51.8917
G1 X35.22 Y51.9045
G1 X35.23 Y51.9174
G1 X35.24 Y51.9302
G1 X35.25 Y51.943
G1 X35.26 Y51.9559
G1 X35.27 Y51.9687
G1 X35.28 Y51.9815
G1 X35.29 Y51.9943
G1 X35.3 Y52.0071
G1 X35.31 Y52.02
G1 X35.32 Y52.0328
G1 X35.33 Y52.0456
G1 X35.34 Y52.0584
G1 X35.35 Y52.0712
G1 X35.36 Y52.084
G1 X35.37 Y52.0968
G1 X35.38 Y52.1097
G1 X35.39 Y52.1225
G1 X35.4 Y52.1353
G1 X35.41 Y52.1481
G1 X35.42 Y52.1609
G1 X35.43 Y52.1737
G1 X35.44 Y52.1865
G1 X35.45 Y52.1993
G1 X35.46 Y52.2121
G1 X35.47 Y52.2249
G1 X35.48 Y52.2376
G1 X35.49 Y52.2504
G1 X35.5 Y52.2632
G1 X35.51 Y52.276
G1 X35.52 Y52.2888
G1 X35.53 Y52.3016
G1 X35.54 Y52.3144
G1 X35.55 Y52.3271
G1 X35.56 Y52.3399
G1 X35.57 Y52.3527
G1 X35.58 Y52.3655
G1 X35.59 Y52.3783
G1 X35.6 Y52.391
G1 X35.61 Y52.4038
G1 X35.62 Y52.4166
G1 X35.63 Y52.4293
G1 X35.64 Y52.4421
G1 X35.65 Y52.4549
G1 X35.66 Y52.4676
G1 X35.67 Y52.4804
G1 X35.68 Y52.4932
G1 X35.69 Y52.5059
G1 X35.7 Y52.5187
G1 X35.71 Y52.5314
G1 X35.72 Y52.5442
G1 X35.73 Y52.5569
G1 X35.74 Y52.5697
G1 X35.75 Y52.5824
G1 X35.76 Y52.5952
G1 X35.77 Y52.6079
G1 X35.78 Y52.6207
G1 X35.79 Y52.6334
G1 X35.8 Y52.6462
G1 X35.81 Y52.6589
G1 X35.82 Y52.6716
G1 X35.83 Y52.6844
G1 X35.84 Y52.6971
G1 X35.85 Y52.7098
G1 X35.86 Y52.7226
G1 X35.87 Y52.7353
G1 X35.88 Y52.748
G1 X35.89 Y52.7607
G1 X35.9 Y52.7735
G1 X35.91 Y52.7862
G1 X35.92 Y52.7989
G1 X35.93 Y52.8116
G1 X35.94 Y52.8244
G1 X35.95 Y52.8371
G1 X35.96 Y52.8498
G1 X35.97 Y52.8625
G1 X35.98 Y52.8752
G1 X35.99 Y52.8879
G1 X36 Y52.9006
G1 X36.01 Y52.9133
G1 X36.02 Y52.926
G1 X36.03 Y52.9388
G1 X36.04 Y52.9515
G1 X36.05 Y52.9642
G1 X36.06 Y52.9769
G1 X36.07 Y52.9896
G1 X36.08 Y53.0022
G1 X36.09 Y53.0149
G1 X36.1 Y53.0276
G1 X36.11 Y53.0403
G1 X36.12 Y53.053
G1 X36.13 Y53.0657
G1 X36.14 Y53.0784
G1 X36.15 Y53.0911
G1 X36.16 Y53.1038
G1 X36.17 Y53.1164
G1 X36.18 Y53.1291
G1 X36.19 Y53.1418
G1 X36.2 Y53.1545
G1 X36.21 Y53.1671
G1 X36.22 Y53.1798
G1 X36.23 Y53.1925
G1 X36.24 Y53.2052
G1 X36.25 Y53.2178
G1 X36.26 Y53.2305
G1 X36.27 Y53.2432
G1 X36.28 Y53.2558
G1 X36.29 Y53.2685
G1 X36.3 Y53.2811
G1 X36.31 Y53.2938
G1 X36.32 Y53.3065
G1 X36.33 Y53.3191
G1 X36.34 Y53.3318
G1 X36.35 Y53.3444
G1 X36.36 Y53.3571
G1 X36.37 Y53.3697
G1 X36.38 Y53.3824
G1 X36.39 Y53.395
G1 X36.4 Y53.4077
G1 X36.41 Y53.4203
G1 X36.42 Y53.4329
G1 X36.43 Y53.4456
G1 X36.44 Y53.4582
G1 X36.45 Y53.4709
G1 X36.46 Y53.4835
G1 X36.47 Y53.4961
G1 X36.48 Y53.5088
G1 X36.49 Y53.5214
G1 X36.5 Y53.534
G1 X36.51 Y53.5466
G1 X36.52 Y53.5593
G1 X36.53 Y53.5719
G1 X36.54 Y53.5845
G1 X36.55 Y53.5971
G1 X36.56 Y53.6097
G1 X36.57 Y53.6224
G1 X36.58 Y53.635
G1 X36.59 Y53.6476
G1 X36.6 Y53.6602
G1 X36.61 Y53.6728
G1 X36.62 Y53.6854
G1 X36.63 Y53.698
G1 X36.64 Y53.7106
G1 X36.65 Y53.7232
G1 X36.66 Y53.7358
G1 X36.67 Y53.7484
G1 X36.68 Y53.761
G1 X36.69 Y53.7736
G1 X36.7 Y53.7862
G1 X36.71 Y53.7988
G1 X36.72 Y53.8114
G1 X36.73 Y53.824
G1 X36.74 Y53.8366
G1 X36.75 Y53.8492
G1 X36.76 Y53.8618
G1 X36.77 Y53.8743
G1 X36.78 Y53.8869
G1 X36.79 Y53.8995
G1 X36.8 Y53.9121
G1 X36.81 Y53.9247
G1 X36.82 Y53.9372
G1 X36.83 Y53.9498
G1 X36.84 Y53.9624
G1 X36.85 Y53.975
G1 X36.86 Y53.9875
G1 X36.87 Y54.0001
G1 X36.88 Y54.0127
G1 X36.89 Y54.0252
G1 X36.9 Y54.0378
G1 X36.91 Y54.0503
G1 X36.92 Y54.0629
G1 X36.93 Y54.0755
G1 X36.94 Y54.088
G1 X36.95 Y54.1006
G1 X36.96 Y54.1131
G1 X36.97 Y54.1257
G1 X36.98 Y54.1382
G1 X36.99 Y54.1508
G1 X37 Y54.1633
G1 X37.01 Y54.1759
G1 X37.02 Y54.1884
G1 X37.03 Y54.2009
G1 X37.04 Y54.2135
G1 X37.05 Y54.226
G1 X37.06 Y54.2386
G1 X37.07 Y54.2511
G1 X37.08 Y54.2636
G1 X37.09 Y54.2762
G1 X37.1 Y54.2887
G1 X37.11 Y54.3012
G1 X37.12 Y54.3137
G1 X37.13 Y54.3263
G1 X37.14 Y54.3388
G1 X37.15 Y54.3513
G1 X37.16 Y54.3638
G1 X37.17 Y54.3763
G1 X37.18 Y54.3889
G1 X37.19 Y54.4014
G1 X37.2 Y54.4139
G1 X37.21 Y54.4264
G1 X37.22 Y54.4389
G1 X37.23 Y54.4514
G1 X37.24 Y54.4639
G1 X37.25 Y54.4764
G1 X37.26 Y54.4889
G1 X37.27 Y54.5014
G1 X37.28 Y54.5139
G1 X37.29 Y54.5264
G1 X37.3 Y54.5389
G1 X37.31 Y54.5514
G1 X37.32 Y54.5639
G1 X37.33 Y54.5764
G1 X37.34 Y54.5889
G1 X37.35 Y54.6014
G1 X37.36 Y54.6139
G1 X37.37 Y54.6263
G1 X37.38 Y54.6388
G1 X37.39 Y54.6513
G1 X37.4 Y54.6638
G1 X37.41 Y54.6763
G1 X37.42 Y54.6887
G1 X37.43 Y54.7012
G1 X37.44 Y54.7137
G1 X37.45 Y54.7262
G1 X37.46 Y54.7386
G1 X37.47 Y54.7511
G1 X37.48 Y54.7636
G1 X37.49 Y54.776
G1 X37.5 Y54.7885
G1 X37.51 Y54.801
G1 X37.52 Y54.8134
G1 X37.53 Y54.8259
G1 X37.54 Y54.8383
G1 X37.55 Y54.8508
G1 X37.56 Y54.8632
G1 X37.57 Y54.8757
G1 X37.58 Y54.8881
G1 X37.59 Y54.9006
G1 X37.6 Y54.913
G1 X37.61 Y54.9255
G1 X37.62 Y54.9379
G1 X37.63 Y54.9504
G1 X37.64 Y54.9628
G1 X37.65 Y54.9752
G1 X37.66 Y54.9877
G1 X37.67 Y55.0001
G1 X37.68 Y55.0125
G1 X37.69 Y55.025
G1 X37.7 Y55.0374
G1 X37.71 Y55.0498
G1 X37.72 Y55.0622
G1 X37.73 Y55.0747
G1 X37.74 Y55.0871
G1 X37.75 Y55.0995
G1 X37.76 Y55.1119
G1 X37.77 Y55.1244
G1 X37.78 Y55.1368
G1 X37.79 Y55.1492
G1 X37.8 Y55.1616
G1 X37.81 Y55.174
G1 X37.82 Y55.1864
G1 X37.83 Y55.1988
G1 X37.84 Y55.2112
G1 X37.85 Y55.2236
G1 X37.86 Y55.236
G1 X37.87 Y55.2484
G1 X37.88 Y55.2608
G1 X37.89 Y55.2732
G1 X37.9 Y55.2856
G1 X37.91 Y55.298
G1 X37.92 Y55.3104
G1 X37.93 Y55.3228
G1 X37.94 Y55.3352
G1 X37.95 Y55.3476
G1 X37.96 Y55.36
G1 X37.97 Y55.3724
G1 X37.98 Y55.3847
G1 X37.99 Y55.3971
G1 X38 Y55.4095
G1 X38.01 Y55.4219
G1 X38.02 Y55.4342
G1 X38.03 Y55.4466
G1 X38.04 Y55.459
G1 X38.05 Y55.4714
G1 X38.06 Y55.4837
G1 X38.07 Y55.4961
G1 X38.08 Y55.5085
G1 X38.09 Y55.5208
G1 X38.1 Y55.5332
G1 X38.11 Y55.5455
G1 X38.12 Y55.5579
G1 X38.13 Y55.5703
G1 X38.14 Y55.5826
G1 X38.15 Y55.595
G1 X38.16 Y55.6073
G1 X38.17 Y55.6197
G1 X38.18 Y55.632
G1 X38.19 Y55.6444
G1 X38.2 Y55.6567
G1 X38.21 Y55.6691
G1 X38.22 Y55.6814
G1 X38.23 Y55.6937
G1 X38.24 Y55.7061
G1 X38.25 Y55.7184
G1 X38.26 Y55.7308
G1 X38.27 Y55.7431
G1 X38.28 Y55.7554
G1 X38.29 Y55.7677
G1 X38.3 Y55.7801
G1 X38.31 Y55.7924
G1 X38.32 Y55.8047
G1 X38.33 Y55.817
G1 X38.34 Y55.8294
G1 X38.35 Y55.8417
G1 X38.36 Y55.854
G1 X38.37 Y55.8663
G1 X38.38 Y55.8786
G1 X38.39 Y55.8909
G1 X38.4 Y55.9033
G1 X38.41 Y55.9156
G1 X38.42 Y55.9279
G1 X38.43 Y55.9402
G1 X38.44 Y55.9525
G1 X38.45 Y55.9648
G1 X38.46 Y55.9771
G1 X38.47 Y55.9894
G1 X38.48 Y56.0017
G1 X38.49 Y56.014
G1 X38.5 Y56.0263
G1 X38.51 Y56.0386
G1 X38.52 Y56.0509
G1 X38.53 Y56.0631
G1 X38.54 Y56.0754
G1 X38.55 Y56.0877
G1 X38.56 Y56.1
G1 X38.57 Y56.1123
G1 X38.58 Y56.1246
G1 X38.59 Y56.1368
G1 X38.6 Y56.1491
G1 X38.61 Y56.1614
G1 X38.62 Y56.1737
G1 X38.63 Y56.1859
G1 X38.64 Y56.1982
G1 X38.65 Y56.2105
G1 X38.66 Y56.2227
G1 X38.67 Y56.235
G1 X38.68 Y56.2473
G1 X38.69 Y56.2595
G1 X38.7 Y56.2718
G1 X38.71 Y56.2841
G1 X38.72 Y56.2963
G1 X38.73 Y56.3086
G1 X38.74 Y56.3208
G1 X38.75 Y56.3331
G1 X38.76 Y56.3453
G1 X38.77 Y56.3576
G1 X38.78 Y56.3698
G1 X38.79 Y56.3821
G1 X38.8 Y56.3943
G1 X38.81 Y56.4065
G1 X38.82 Y56.4188
G1 X38.83 Y56.431
G1 X38.84 Y56.4433
G1 X38.85 Y56.4555
G1 X38.86 Y56.4677
G1 X38.87 Y56.48
G1 X38.88 Y56.4922
G1 X38.89 Y56.5044
G1 X38.9 Y56.5166
G1 X38.91 Y56.5289
G1 X38.92 Y56.5411
G1 X38.93 Y56.5533
G1 X38.94 Y56.5655
G1 X38.95 Y56.5777
G1 X38.96 Y56.59
G1 X38.97 Y56.6022
G1 X38.98 Y56.6144
G1 X38.99 Y56.6266
G1 X39 Y56.6388
G1 X39.01 Y56.651
G1 X39.02 Y56.6632
G1 X39.03 Y56.6754
G1 X39.04 Y56.6876
G1 X39.05 Y56.6998
G1 X39.06 Y56.712
G1 X39.07 Y56.7242
G1 X39.08 Y56.7364
G1 X39.09 Y56.7486
G1 X39.1 Y56.7608
G1 X39.11 Y56.773
G1 X39.12 Y56.7852
G1 X39.13 Y56.7973
G1 X39.14 Y56.8095
G1 X39.15 Y56.8217
G1 X39.16 Y56.8339
G1 X39.17 Y56.8461
G1 X39.18 Y56.8582
G1 X39.19 Y56.8704
G1 X39.2 Y56.8826
G1 X39.21 Y56.8948
G1 X39.22 Y56.9069
G1 X39.23 Y56.9191
G1 X39.24 Y56.9313
G1 X39.25 Y56.9434
G1 X39.26 Y56.9556
G1 X39.27 Y56.9678
G1 X39.28 Y56.9799
G1 X39.29 Y56.9921
G1 X39.3 Y57.0042
G1 X39.31 Y57.0164
G1 X39.32 Y57.0285
G1 X39.33 Y57.0407
G1 X39.34 Y57.0528
G1 X39.35 Y57.065
G1 X39.36 Y57.0771
G1 X39.37 Y57.0893
G1 X39.38 Y57.1014
G1 X39.39 Y57.1136
G1 X39.4 Y57.1257
G1 X39.41 Y57.1378
G1 X39.42 Y57.15
G1 X39.43 Y57.1621
G1 X39.44 Y57.1742
G1 X39.45 Y57.1864
G1 X39.46 Y57.1985
G1 X39.47 Y57.2106
G1 X39.48 Y57.2228
G1 X39.49 Y57.2349
G1 X39.5 Y57.247
G1 X39.51 Y57.2591
G1 X39.52 Y57.2712
G1 X39.53 Y57.2834
G1 X39.54 Y57.2955
G1 X39.55 Y57.3076
G1 X39.56 Y57.3197
G1 X39.57 Y57.3318
G1 X39.58 Y57.3439
G1 X39.59 Y57.356
G1 X39.6 Y57.3681
G1 X39.61 Y57.3802
G1 X39.62 Y57.3923
G1 X39.63 Y57.4044
G1 X39.64 Y57.4165
G1 X39.65 Y57.4286
G1 X39.66 Y57.4407
G1 X39.67 Y57.4528
G1 X39.68 Y57.4649
G1 X39.69 Y57.477
G1 X39.7 Y57.4891
G1 X39.71 Y57.5011
G1 X39.72 Y57.5132
G1 X39.73 Y57.5253
G1 X39.74 Y57.5374
G1 X39.75 Y57.5495
G1 X39.76 Y57.5615
G1 X39.77 Y57.5736
G1 X39.78 Y57.5857
G1 X39.79 Y57.5978
G1 X39.8 Y57.6098
G1 X39.81 Y57.6219
G1 X39.82 Y57.634
G1 X39.83 Y57.646
G1 X39.84 Y57.6581
G1 X39.85 Y57.6702
G1 X39.86 Y57.6822
G1 X39.87 Y57.6943
G1 X39.88 Y57.7063
G1 X39.89 Y57.7184
G1 X39.9 Y57.7304
G1 X39.91 Y57.7425
G1 X39.92 Y57.7545
G1 X39.93 Y57.7666
G1 X39.94 Y57.7786
G1 X39.95 Y57.7907
G1 X39.96 Y57.8027
G1 X39.97 Y57.8147
G1 X39.98 Y57.8268
G1 X39.99 Y57.8388
G1 X40 Y57.8508
G1 X40.01 Y57.8629
G1 X40.02 Y57.8749
G1 X40.03 Y57.8869
G1 X40.04 Y57.899
G1 X40.05 Y57.911
G1 X40.06 Y57.923
G1 X40.07 Y57.935
G1 X40.08 Y57.9471
G1 X40.09 Y57.9591
G1 X40.1 Y57.9711
G1 X40.11 Y57.9831
G1 X40.12 Y57.9951
G1 X40.13 Y58.0071
G1 X40.14 Y58.0191
G1 X40.15 Y58.0311
G1 X40.16 Y58.0431
G1 X40.17 Y58.0552
G1 X40.18 Y58.0672
G1 X40.19 Y58.0792
G1 X40.2 Y58.0912
G1 X40.21 Y58.1031
G1 X40.22 Y58.1151
G1 X40.23 Y58.1271
G1 X40.24 Y58.1391
G1 X40.25 Y58.1511
G1 X40.26 Y58.1631
G1 X40.27 Y58.1751
G1 X40.28 Y58.1871
G1 X40.29 Y58.1991
G1 X40.3 Y58.211
G1 X40.31 Y58.223
G1 X40.32 Y58.235
G1 X40.33 Y58.247
G1 X40.34 Y58.2589
G1 X40.35 Y58.2709
G1 X40.36 Y58.2829
G1 X40.37 Y58.2949
G1 X40.38 Y58.3068
G1 X40.39 Y58.3188
G1 X40.4 Y58.3308
G1 X40.41 Y58.3427
G1 X40.42 Y58.3547
G1 X40.43 Y58.3666
G1 X40.44 Y58.3786
G1 X40.45 Y58.3905
G1 X40.46 Y58.4025
G1 X40.47 Y58.4144
G1 X40.48 Y58.4264
G1 X40.49 Y58.4383
G1 X40.5 Y58.4503
G1 X40.51 Y58.4622
G1 X40.52 Y58.4742
G1 X40.53 Y58.4861
G1 X40.54 Y58.498
G1 X40.55 Y58.51
G1 X40.56 Y58.5219
G1 X40.57 Y58.5339
G1 X40.58 Y58.5458
G1 X40.59 Y58.5577
G1 X40.6 Y58.5696
G1 X40.61 Y58.5816
G1 X40.62 Y58.5935
G1 X40.63 Y58.6054
G1 X40.64 Y58.6173
G1 X40.65 Y58.6292
G1 X40.66 Y58.6412
G1 X40.67 Y58.6531
G1 X40.68 Y58.665
G1 X40.69 Y58.6769
G1 X40.7 Y58.6888
G1 X40.71 Y58.7007
G1 X40.72 Y58.7126
G1 X40.73 Y58.7245
G1 X40.74 Y58.7364
G1 X40.75 Y58.7483
G1 X40.76 Y58.7602
G1 X40.77 Y58.7721
G1 X40.78 Y58.784
G1 X40.79 Y58.7959
G1 X40.8 Y58.8078
G1 X40.81 Y58.8197
G1 X40.82 Y58.8316
G1 X40.83 Y58.8435
G1 X40.84 Y58.8554
G1 X40.85 Y58.8672
G1 X40.86 Y58.8791
G1 X40.87 Y58.891
G1 X40.88 Y58.9029
G1 X40.89 Y58.9148
G1 X40.9 Y58.9266
G1 X40.91 Y58.9385
G1 X40.92 Y58.9504
G1 X40.93 Y58.9622
G1 X40.94 Y58.9741
G1 X40.95 Y58.986
G1 X40.96 Y58.9978
G1 X40.97 Y59.0097
G1 X40.98 Y59.0216
G1 X40.99 Y59.0334
G1 X41 Y59.0453
G1 X41.01 Y59.0571
G1 X41.02 Y59.069
G1 X41.03 Y59.0808
G1 X41.04 Y59.0927
G1 X41.05 Y59.1045
G1 X41.06 Y59.1164
G1 X41.07 Y59.1282
G1 X41.08 Y59.1401
G1 X41.09 Y59.1519
G1 X41.1 Y59.1637
G1 X41.11 Y59.1756
G1 X41.12 Y59.1874
G1 X41.13 Y59.1992
G1 X41.14 Y59.2111
G1 X41.15 Y59.2229
G1 X41.16 Y59.2347
G1 X41.17 Y59.2465
G1 X41.18 Y59.2584
G1 X41.19 Y59.2702
G1 X41.2 Y59.282
G1 X41.21 Y59.2938
G1 X41.22 Y59.3056
G1 X41.23 Y59.3175
G1 X41.24 Y59.3293
G1 X41.25 Y59.3411
G1 X41.26 Y59.3529
G1 X41.27 Y59.3647
G1 X41.28 Y59.3765
G1 X41.29 Y59.3883
G1 X41.3 Y59.4001
G1 X41.31 Y59.4119
G1 X41.32 Y59.4237
G1 X41.33 Y59.4355
G1 X41.34 Y59.4473
G1 X41.35 Y59.4591
G1 X41.36 Y59.4709
G1 X41.37 Y59.4827
G1 X41.38 Y59.4945
G1 X41.39 Y59.5062
G1 X41.4 Y59.518
G1 X41.41 Y59.5298
G1 X41.42 Y59.5416
G1 X41.43 Y59.5534
G1 X41.44 Y59.5651
G1 X41.45 Y59.5769
G1 X41.46 Y59.5887
G1 X41.47 Y59.6005
G1 X41.48 Y59.6122
G1 X41.49 Y59.624
G1 X41.5 Y59.6358
G1 X41.51 Y59.6475
G1 X41.52 Y59.6593
G1 X41.53 Y59.671
G1 X41.54 Y59.6828
G1 X41.55 Y59.6946
G1 X41.56 Y59.7063
G1 X41.57 Y59.7181
G1 X41.58 Y59.7298
G1 X41.59 Y59.7416
G1 X41.6 Y59.7533
G1 X41.61 Y59.7651
G1 X41.62 Y59.7768
G1 X41.63 Y59.7885
G1 X41.64 Y59.8003
G1 X41.65 Y59.812
G1 X41.66 Y59.8238
G1 X41.67 Y59.8355
G1 X41.68 Y59.8472
G1 X41.69 Y59.859
G1 X41.7 Y59.8707
G1 X41.71 Y59.8824
G1 X41.72 Y59.8941
G1 X41.73 Y59.9059
G1 X41.74 Y59.9176
G1 X41.75 Y59.9293
G1 X41.76 Y59.941
G1 X41.77 Y59.9527
G1 X41.78 Y59.9645
G1 X41.79 Y59.9762
G1 X41.8 Y59.9879
G1 X41.81 Y59.9996
G1 X41.82 Y60.0113
G1 X41.83 Y60.023
G1 X41.84 Y60.0347
G1 X41.85 Y60.0464
G1 X41.86 Y60.0581
G1 X41.87 Y60.0698
G1 X41.88 Y60.0815
G1 X41.89 Y60.0932
G1 X41.9 Y60.1049
G1 X41.91 Y60.1166
G1 X41.92 Y60.1283
G1 X41.93 Y60.14
G1 X41.94 Y60.1516
G1 X41.95 Y60.1633
G1 X41.96 Y60.175
G1 X41.97 Y60.1867
G1 X41.98 Y60.1984
G1 X41.99 Y60.21
G1 X42 Y60.2217
G1 X42.01 Y60.2334
G1 X42.02 Y60.2451
G1 X42.03 Y60.2567
G1 X42.04 Y60.2684
G1 X42.05 Y60.2801
G1 X42.06 Y60.2917
G1 X42.07 Y60.3034
G1 X42.08 Y60.315
G1 X42.09 Y60.3267
G1 X42.1 Y60.3384
G1 X42.11 Y60.35
G1 X42.12 Y60.3617
G1 X42.13 Y60.3733
G1 X42.14 Y60.385
G1 X42.15 Y60.3966
G1 X42.16 Y60.4083
G1 X42.17 Y60.4199
G1 X42.18 Y60.4315
G1 X42.19 Y60.4432
G1 X42.2 Y60.4548
G1 X42.21 Y60.4664
G1 X42.22 Y60.4781
G1 X42.23 Y60.4897
G1 X42.24 Y60.5013
G1 X42.25 Y60.513
G1 X42.26 Y60.5246
G1 X42.27 Y60.5362
G1 X42.28 Y60.5478
G1 X42.29 Y60.5595
G1 X42.3 Y60.5711
G1 X42.31 Y60.5827
G1 X42.32 Y60.5943
G1 X42.33 Y60.6059
G1 X42.34 Y60.6175
G1 X42.35 Y60.6292
G1 X42.36 Y60.6408
G1 X42.37 Y60.6524
G1 X42.38 Y60.664
G1 X42.39 Y60.6756
G1 X42.4 Y60.6872
G1 X42.41 Y60.6988
G1 X42.42 Y60.7104
G1 X42.43 Y60.722
G1 X42.44 Y60.7336
G1 X42.45 Y60.7451
G1 X42.46 Y60.7567
G1 X42.47 Y60.7683
G1 X42.48 Y60.7799
G1 X42.49 Y60.7915
G1 X42.5 Y60.8031
G1 X42.51 Y60.8147
G1 X42.52 Y60.8262
G1 X42.53 Y60.8378
G1 X42.54 Y60.8494
G1 X42.55 Y60.861
G1 X42.56 Y60.8725
G1 X42.57 Y60.8841
G1 X42.58 Y60.8957
G1 X42.59 Y60.9072
G1 X42.6 Y60.9188
G1 X42.61 Y60.9304
G1 X42.62 Y60.9419
G1 X42.63 Y60.9535
G1 X42.64 Y60.965
G1 X42.65 Y60.9766
G1 X42.66 Y60.9881
G1 X42.67 Y60.9997
G1 X42.68 Y61.0112
G1 X42.69 Y61.0228
G1 X42.7 Y61.0343
G1 X42.71 Y61.0459
G1 X42.72 Y61.0574
G1 X42.73 Y61.069
G1 X42.74 Y61.0805
G1 X42.75 Y61.092
G1 X42.76 Y61.1036
G1 X42.77 Y61.1151
G1 X42.78 Y61.1266
G1 X42.79 Y61.1381
G1 X42.8 Y61.1497
G1 X42.81 Y61.1612
G1 X42.82 Y61.1727
G1 X42.83 Y61.1842
G1 X42.84 Y61.1958
G1 X42.85 Y61.2073
G1 X42.86 Y61.2188
G1 X42.87 Y61.2303
G1 X42.88 Y61.2418
G1 X42.89 Y61.2533
G1 X42.9 Y61.2648
G1 X42.91 Y61.2763
G1 X42.92 Y61.2878
G1 X42.93 Y61.2993
G1 X42.94 Y61.3108
G1 X42.95 Y61.3223
G1 X42.96 Y61.3338
G1 X42.97 Y61.3453
G1 X42.98 Y61.3568
G1 X42.99 Y61.3683
G1 X43 Y61.3798
G1 X43.01 Y61.3913
G1 X43.02 Y61.4028
G1 X43.03 Y61.4143
G1 X43.04 Y61.4257
G1 X43.05 Y61.4372
G1 X43.06 Y61.4487
G1 X43.07 Y61.4602
G1 X43.08 Y61.4717
G1 X43.09 Y61.4831
G1 X43.1 Y61.4946
G1 X43.11 Y61.5061
G1 X43.12 Y61.5175
G1 X43.13 Y61.529
G1 X43.14 Y61.5405
G1 X43.15 Y61.5519
G1 X43.16 Y61.5634
G1 X43.17 Y61.5748
G1 X43.18 Y61.5863
G1 X43.19 Y61.5977
G1 X43.2 Y61.6092
G1 X43.21 Y61.6206
G1 X43.22 Y61.6321
G1 X43.23 Y61.6435
G1 X43.24 Y61.655
G1 X43.25 Y61.6664
G1 X43.26 Y61.6779
G1 X43.27 Y61.6893
G1 X43.28 Y61.7007
G1 X43.29 Y61.7122
G1 X43.3 Y61.7236
G1 X43.31 Y61.735
G1 X43.32 Y61.7465
G1 X43.33 Y61.7579
G1 X43.34 Y61.7693
G1 X43.35 Y61.7807
G1 X43.36 Y61.7922
G1 X43.37 Y61.8036
G1 X43.38 Y61.815
G1 X43.39 Y61.8264
G1 X43.4 Y61.8378
G1 X43.41 Y61.8492
G1 X43.42 Y61.8607
G1 X43.43 Y61.8721
G1 X43.44 Y61.8835
G1 X43.45 Y61.8949
G1 X43.46 Y61.9063
G1 X43.47 Y61.9177
G1 X43.48 Y61.9291
G1 X43.49 Y61.9405
G1 X43.5 Y61.9519
G1 X43.51 Y61.9633
G1 X43.52 Y61.9747
G1 X43.53 Y61.986
G1 X43.54 Y61.9974
G1 X43.55 Y62.0088
G1 X43.56 Y62.0202
G1 X43.57 Y62.0316
G1 X43.58 Y62.043
G1 X43.59 Y62.0543
G1 X43.6 Y62.0657
G1 X43.61 Y62.0771
G1 X43.62 Y62.0885
G1 X43.63 Y62.0998
G1 X43.64 Y62.1112
G1 X43.65 Y62.1226
G1 X43.66 Y62.1339
G1 X43.67 Y62.1453
G1 X43.68 Y62.1567
G1 X43.69 Y62.168
G1 X43.7 Y62.1794
G1 X43.71 Y62.1907
G1 X43.72 Y62.2021
G1 X43.73 Y62.2134
G1 X43.74 Y62.2248
G1 X43.75 Y62.2361
G1 X43.76 Y62.2475
G1 X43.77 Y62.2588
G1 X43.78 Y62.2702
G1 X43.79 Y62.2815
G1 X43.8 Y62.2928
G1 X43.81 Y62.3042
G1 X43.82 Y62.3155
G1 X43.83 Y62.3268
G1 X43.84 Y62.3382
G1 X43.85 Y62.3495
G1 X43.86 Y62.3608
G1 X43.87 Y62.3722
G1 X43.88 Y62.3835
G1 X43.89 Y62.3948
G1 X43.9 Y62.4061
G1 X43.91 Y62.4174
G1 X43.92 Y62.4288
G1 X43.93 Y62.4401
G1 X43.94 Y62.4514
G1 X43.95 Y62.4627
G1 X43.96 Y62.474
G1 X43.97 Y62.4853
G1 X43.98 Y62.4966
G1 X43.99 Y62.5079
G1 X44 Y62.5192
G1 X44.01 Y62.5305
G1 X44.02 Y62.5418
G1 X44.03 Y62.5531
G1 X44.04 Y62.5644
G1 X44.05 Y62.5757
G1 X44.06 Y62.587
G1 X44.07 Y62.5983
G1 X44.08 Y62.6095
G1 X44.09 Y62.6208
G1 X44.1 Y62.6321
G1 X44.11 Y62.6434
G1 X44.12 Y62.6547
G1 X44.13 Y62.6659
G1 X44.14 Y62.6772
G1 X44.15 Y62.6885
G1 X44.16 Y62.6998
G1 X44.17 Y62.711
G1 X44.18 Y62.7223
G1 X44.19 Y62.7336
G1 X44.2 Y62.7448
G1 X44.21 Y62.7561
G1 X44.22 Y62.7673
G1 X44.23 Y62.7786
G1 X44.24 Y62.7898
G1 X44.25 Y62.8011
G1 X44.26 Y62.8124
G1 X44.27 Y62.8236
G1 X44.28 Y62.8348
G1 X44.29 Y62.8461
G1 X44.3 Y62.8573
G1 X44.31 Y62.8686
G1 X44.32 Y62.8798
G1 X44.33 Y62.8911
G1 X44.34 Y62.9023
G1 X44.35 Y62.9135
G1 X44.36 Y62.9248
G1 X44.37 Y62.936
