;FLAVOR:UltiGCode
;TIME:6666
;MATERIAL:6666
;MATERIAL2:0
;NOZZLE_DIAMETER:0.8

;Generated with Cura_SteamEngine 2.3.1

;LAYER_COUNT:150
;LAYER:0
G92 X108.068 Y94.736 E16569.413
G0 F15000 
;TIME_ELAPSED:10163.811230
;LAYER:97
G0 X108.067 Y94.73 Z0
G0 X104.967 Y96.001
G0 X103.109 Y97.014
G0 X101.358 Y98.206
G0 X99.733 Y99.563
G0 X96.369 Y102.751
;TYPE:FILL
G1 F3600 X93.489 Y105.631 E16569.41349
G0 X93.348 Y105.772
G0 F15000 X94.656 Y103.707
G1 F3600 X95.471 Y104.522 E16569.69011
G0 F15000 X91.72 Y109.822
G1 F3600 X93 Y111.102 E16570.12456
G0 X93.141 Y111.243
G0 F15000 X92.58 Y115.592
G1 F3600 X90.697 Y117.474 E16570.7635
G0 X90.556 Y117.615
G0 F15000 X90.712 Y117.865
G1 F3600 X93.152 Y120.305 E16571.59167
G0 X93.293 Y120.446
G0 F15000 X94.039 Y123.183
G1 F3600 X92.708 Y124.514 E16572.04342
G0 X92.567 Y124.655
G0 F15000 X97.343 Y128.931
G1 F3600 X96.389 Y129.884 E16572.36705
G0 F15000 X95.666 Y130.638
;TYPE:WALL-INNER
G1 F3600 X95.318 Y130.251 E16572.49196
G1 X94.962 Y129.837 E16572.623
G1 X94.625 Y129.428 E16572.75019
G1 X94.303 Y129.02 E16572.87493
G1 X93.678 Y128.17 E16573.12815
G1 X93.564 Y128.006 E16573.17608
G1 X93.421 Y127.771 E16573.2421
G1 X93.14 Y127.282 E16573.37746
G1 X92.883 Y126.816 E16573.50518
G1 X92.628 Y126.323 E16573.63839
G1 X92.389 Y125.838 E16573.76816
G1 X92.151 Y125.325 E16573.90388
G1 X91.935 Y124.832 E16574.03306
G1 X91.724 Y124.318 E16574.16641
G1 X91.532 Y123.817 E16574.29518
G1 X91.351 Y123.309 E16574.4246
G1 X91.171 Y122.772 E16574.56053
G1 X91.015 Y122.268 E16574.68715
G1 X90.861 Y121.725 E16574.82261
G1 X90.727 Y121.211 E16574.9501
G1 X90.597 Y120.661 E16575.08573
G1 X90.483 Y120.126 E16575.21702
G1 X90.385 Y119.599 E16575.34566
G1 X90.253 Y118.793 E16575.54168
G1 X90.183 Y118.261 E16575.67046
G1 X90.124 Y117.729 E16575.79892
G1 X90.078 Y117.201 E16575.92612
G1 X90.045 Y116.68 E16576.05142
G1 X90.022 Y116.155 E16576.17754
G1 X90.01 Y115.633 E16576.30285
G1 X90.01 Y115.101 E16576.43053
G1 X90.021 Y114.578 E16576.55608
G1 X90.078 Y113.508 E16576.81324
G1 X90.127 Y112.961 E16576.94505
G1 X90.183 Y112.448 E16577.0689
G1 X90.254 Y111.913 E16577.19842
G1 X90.337 Y111.379 E16577.32812
G1 X90.428 Y110.863 E16577.45387
G1 X90.533 Y110.334 E16577.58331
G1 X90.682 Y109.677 E16577.74499
G1 X90.941 Y108.866 E16577.94932
G1 X91.12 Y108.357 E16578.07881
G1 X91.5 Y107.384 E16578.32951
G1 X91.936 Y106.393 E16578.58935
G1 X92.151 Y105.945 E16578.70861
G1 X92.642 Y105.006 E16578.96292
G1 X93.182 Y104.074 E16579.22143
G1 X93.444 Y103.653 E16579.34044
G1 X93.734 Y103.213 E16579.46692
G1 X94.045 Y102.76 E16579.59879
G1 X94.335 Y102.359 E16579.71756
G1 X94.66 Y101.928 E16579.84711
G1 X94.972 Y101.531 E16579.9683
G1 X95.303 Y101.129 E16580.09327
G1 X95.642 Y100.736 E16580.21784
G1 X95.996 Y100.344 E16580.3446
G1 X96.357 Y99.961 E16580.47092
G1 X97.095 Y99.227 E16580.72072
G1 X97.465 Y98.884 E16580.84181
G1 X97.857 Y98.535 E16580.96777
G1 X98.249 Y98.201 E16581.09137
G1 X99.052 Y97.562 E16581.33767
G1 X99.466 Y97.255 E16581.46136
G1 X99.871 Y96.968 E16581.5805
G1 X100.295 Y96.681 E16581.70338
G1 X101.171 Y96.128 E16581.952
G1 X102.067 Y95.617 E16582.19956
G1 X102.495 Y95.393 E16582.31549
G1 X102.973 Y95.154 E16582.44376
G1 X103.404 Y94.949 E16582.5583
G1 X103.892 Y94.733 E16582.68638
G1 X104.364 Y94.533 E16582.80941
G1 X104.808 Y94.359 E16582.92386
G1 X105.288 Y94.181 E16583.04673
G1 X105.759 Y94.02 E16583.16619
G1 X106.254 Y93.861 E16583.29097
G1 X106.726 Y93.721 E16583.40912
G1 X107.229 Y93.584 E16583.53424
G1 X107.696 Y93.468 E16583.64973
G1 X108.181 Y93.36 E16583.76898
G1 X108.688 Y93.256 E16583.89319
G1 X109.169 Y93.169 E16584.01051
G1 X109.664 Y93.091 E16584.13077
G1 X110.166 Y93.023 E16584.25235
G1 X110.65 Y92.97 E16584.36921
G1 X111.154 Y92.924 E16584.49067
G1 X111.633 Y92.892 E16584.60588
G1 X112.135 Y92.868 E16584.7265
G1 X112.647 Y92.856 E16584.84942
G1 X113.121 Y92.854 E16584.96318
G1 X113.623 Y92.864 E16585.08368
G1 X114.605 Y92.915 E16585.31968
G1 X115.593 Y93.013 E16585.55796
G1 X116.072 Y93.074 E16585.67385
G1 X117.032 Y93.232 E16585.90735
G1 X117.519 Y93.329 E16586.02653
G1 X117.653 Y93.36 E16586.05954
G1 X118.034 Y93.448 E16586.15338
G1 X118.461 Y93.548 E16586.25864
G1 X118.576 Y93.58 E16586.28728
G1 X119.085 Y93.722 E16586.41411
G1 X119.4 Y93.81 E16586.4926
G1 X119.62 Y93.882 E16586.54816
G1 X120.121 Y94.046 E16586.67468
G1 X120.322 Y94.112 E16586.72545
G1 X120.643 Y94.233 E16586.80778
G1 X121.139 Y94.42 E16586.935
G1 X121.218 Y94.45 E16586.95528
G1 X121.642 Y94.624 E16587.06528
G1 X121.674 Y94.637 E16587.07357
G1 X122.139 Y94.848 E16587.19612
G1 X122.533 Y95.028 E16587.30008
G1 X122.636 Y95.08 E16587.32777
G1 X123.108 Y95.32 E16587.45486
G1 X123.412 Y95.475 E16587.53675
G1 X123.585 Y95.57 E16587.58412
G1 X123.812 Y95.695 E16587.64631
G1 X124.05 Y95.833 E16587.71234
G1 X124.241 Y95.944 E16587.76536
G1 X124.512 Y96.108 E16587.84138
G1 X124.651 Y96.193 E16587.88049
G1 X124.966 Y96.399 E16587.97082
G1 X125.407 Y96.688 E16588.09736
G1 X125.423 Y96.699 E16588.10202
G1 X125.844 Y97.002 E16588.22651
G1 X126.238 Y97.285 E16588.34293
G1 X126.277 Y97.315 E16588.35474
G1 X126.605 Y97.567 E16588.45401
G1 X126.696 Y97.641 E16588.48216
G1 X126.989 Y97.877 E16588.57246
G1 X127.106 Y97.964 E16588.60745
G1 X127.387 Y98.174 E16588.69164
G1 X127.531 Y98.288 E16588.73572
G1 X127.945 Y98.617 E16588.86263
G1 X128.126 Y98.761 E16588.91814
G1 X128.356 Y98.958 E16588.99082
G1 X128.499 Y99.08 E16589.03594
G1 X128.755 Y99.308 E16589.11821
G1 X128.84 Y99.384 E16589.14558
G1 X129.145 Y99.668 E16589.2456
G1 X129.186 Y99.706 E16589.25901
G1 X129.532 Y100.042 E16589.37476
G1 X129.87 Y100.385 E16589.49034
G1 X129.901 Y100.418 E16589.5012
G1 X130.193 Y100.728 E16589.60341
G1 X130.265 Y100.809 E16589.62942
G1 X130.614 Y101.207 E16589.75646
G1 X130.822 Y101.442 E16589.83178
G1 X130.962 Y101.612 E16589.88464
G1 X131.108 Y101.789 E16589.93971
G1 X131.295 Y102.026 E16590.01216
G1 X131.403 Y102.163 E16590.05403
G1 X131.616 Y102.451 E16590.14
G1 X131.929 Y102.876 E16590.26667
G1 X131.978 Y102.943 E16590.2866
G1 X132.223 Y103.299 E16590.39031
G1 X132.234 Y103.317 E16590.39538
G1 X132.521 Y103.765 E16590.52307
G1 X132.761 Y104.14 E16590.62992
G1 X132.805 Y104.214 E16590.65058
G1 X132.982 Y104.513 E16590.73397
G1 X133.073 Y104.674 E16590.77836
G1 X133.219 Y104.932 E16590.84951
G1 X133.33 Y105.139 E16590.90588
G1 X133.447 Y105.356 E16590.96505
G1 X133.577 Y105.611 E16591.03374
G1 X133.654 Y105.762 E16591.07442
G1 X133.811 Y106.088 E16591.16126
G1 X133.859 Y106.186 E16591.18745
G1 X134.033 Y106.569 E16591.28841
G1 X134.055 Y106.617 E16591.30108
G1 X134.241 Y107.053 E16591.41485
G1 X134.428 Y107.516 E16591.53469
G1 X134.442 Y107.553 E16591.54418
G1 X134.585 Y107.931 E16591.64118
G1 X134.628 Y108.054 E16591.67245
G1 X134.748 Y108.394 E16591.75898
G1 X134.801 Y108.555 E16591.79966
G1 X134.896 Y108.843 E16591.87245
G1 X134.964 Y109.067 E16591.92863
G1 X135.029 Y109.278 E16591.98162
G1 X135.159 Y109.743 E16592.0975
G1 X135.246 Y110.082 E16592.18149
G1 X135.275 Y110.192 E16592.2088
G1 X135.372 Y110.606 E16592.31085
G1 X135.383 Y110.652 E16592.3222
G1 X135.484 Y111.131 E16592.43968
G1 X135.568 Y111.581 E16592.54955
G1 X135.579 Y111.648 E16592.56585
G1 X135.647 Y112.056 E16592.66512
G1 X135.664 Y112.175 E16592.69397
G1 X135.716 Y112.532 E16592.78055
G1 X135.736 Y112.702 E16592.82163
G1 X135.771 Y112.981 E16592.88912
G1 X135.795 Y113.229 E16592.94891
G1 X135.817 Y113.452 E16593.00269
G1 X135.838 Y113.759 E16593.07655
G1 X135.866 Y114.154 E16593.17158
G0 X135.817 Y114.154
G0 X135.723 Y114.154
G0 X135.699 Y113.769
G0 X135.673 Y113.466
G0 X135.653 Y113.244
G0 X135.626 Y112.998
G0 X135.595 Y112.72
G0 X135.573 Y112.552
G0 X135.524 Y112.195
G0 X135.506 Y112.08
G0 X135.439 Y111.672
G0 X135.428 Y111.609
G0 X135.342 Y111.154
G0 X135.243 Y110.682
G0 X135.233 Y110.638
G0 X135.135 Y110.226
G0 X135.109 Y110.117
G0 X135.017 Y109.783
G0 X134.888 Y109.319
G0 X134.829 Y109.108
G0 X134.759 Y108.887
G0 X134.666 Y108.6
G0 X134.612 Y108.441
G0 X134.495 Y108.102
G0 X134.451 Y107.982
G0 X134.309 Y107.604
G0 X134.296 Y107.57
G0 X134.112 Y107.114
G0 X133.923 Y106.675
G0 X133.903 Y106.629
G0 X133.727 Y106.247
G0 X133.682 Y106.15
G0 X133.524 Y105.826
G0 X133.45 Y105.676
G0 X133.319 Y105.424
G0 X133.205 Y105.207
G0 X133.092 Y105.002
G0 X132.95 Y104.744
G0 X132.858 Y104.586
G0 X132.682 Y104.288
G0 X132.638 Y104.217
G0 X132.405 Y103.839
G0 X132.114 Y103.395
G0 X132.105 Y103.382
G0 X131.858 Y103.026
G0 X131.814 Y102.962
G0 X131.505 Y102.534
G0 X131.288 Y102.251
G0 X131.184 Y102.114
G0 X130.996 Y101.881
G0 X130.852 Y101.702
G0 X130.712 Y101.537
G0 X130.51 Y101.299
G0 X130.159 Y100.903
G0 X130.088 Y100.827
G0 X129.798 Y100.517
G0 X129.768 Y100.487
G0 X129.428 Y100.141
G0 X129.086 Y99.808
G0 X129.049 Y99.772
G0 X128.742 Y99.49
G0 X128.66 Y99.414
G0 X128.404 Y99.189
G0 X128.264 Y99.066
G0 X128.033 Y98.873
G0 X127.858 Y98.727
G0 X127.444 Y98.398
G0 X127.301 Y98.29
G0 X127.022 Y98.078
G0 X126.906 Y97.995
G0 X126.592 Y97.771
G0 X126.506 Y97.713
G0 X126.156 Y97.474
G0 X126.129 Y97.457
G0 X125.712 Y97.187
G0 X125.285 Y96.927
G0 X125.261 Y96.912
G0 X124.804 Y96.648
G0 X124.495 Y96.479
G0 X124.339 Y96.394
G0 X124.079 Y96.261
G0 X123.867 Y96.152
G0 X123.644 Y96.046
G0 X123.391 Y95.924
G0 X123.239 Y95.855
G0 X122.913 Y95.706
G0 X122.424 Y95.5
G0 X122.358 Y95.474
G1 X121.932 Y95.305 E16593.17749
G1 X121.488 Y95.143 E16593.19575
G0 X121.436 Y95.124
G1 X121.035 Y94.989 E16593.23159
G0 X120.937 Y94.955
G1 X120.432 Y94.797 E16593.30764
G1 X120.151 Y94.718 E16593.33786
G1 X119.923 Y94.653 E16593.36754
G1 X119.412 Y94.521 E16593.47125
G1 X119.243 Y94.482 E16593.4953
G1 X118.896 Y94.4 E16593.55989
G1 X118.378 Y94.294 E16593.67433
G1 X118.329 Y94.286 E16593.68351
G1 X117.86 Y94.201 E16593.79248
G1 X117.474 Y94.141 E16593.88459
G1 X117.337 Y94.119 E16593.9179
G1 X116.812 Y94.051 E16594.04495
G1 X116.287 Y93.996 E16594.17164
G1 X115.761 Y93.954 E16594.29828
G1 X115.232 Y93.924 E16594.42544
G1 X114.703 Y93.908 E16594.55246
G1 X114.177 Y93.905 E16594.6787
G1 X113.648 Y93.914 E16594.80568
G1 X113.12 Y93.938 E16594.93253
G1 X112.594 Y93.972 E16595.05904
G1 X112.066 Y94.021 E16595.1863
G1 X111.54 Y94.084 E16595.31344
G1 X111.018 Y94.158 E16595.43998
G1 X110.498 Y94.246 E16595.56655
G1 X109.978 Y94.345 E16595.69359
G1 X109.46 Y94.459 E16595.82089
G1 X108.947 Y94.585 E16595.94767
G1 X108.438 Y94.723 E16596.07424
G1 X107.932 Y94.874 E16596.20097
G1 X107.43 Y95.037 E16596.32764
G1 X106.931 Y95.213 E16596.45463
G1 X106.436 Y95.401 E16596.58171
G1 X105.947 Y95.601 E16596.70851
G1 X105.463 Y95.813 E16596.83532
G1 X104.984 Y96.037 E16596.96223
G1 X104.512 Y96.272 E16597.08877
G1 X104.045 Y96.519 E16597.21557
G1 X103.583 Y96.778 E16597.34268
G1 X103.129 Y97.048 E16597.46945
G1 X102.682 Y97.328 E16597.59604
G1 X102.241 Y97.621 E16597.72311
G1 X101.807 Y97.924 E16597.85015
G1 X101.382 Y98.237 E16597.97682
G1 X100.965 Y98.56 E16598.10342
G1 X100.555 Y98.894 E16598.23033
G1 X100.153 Y99.238 E16598.35732
G1 X99.76 Y99.592 E16598.48426
G1 X99.376 Y99.956 E16598.61124
G1 X99.002 Y100.329 E16598.73801
G1 X98.637 Y100.709 E16598.86447
G1 X98.28 Y101.1 E16598.99154
G1 X97.935 Y101.499 E16599.11813
G1 X97.597 Y101.906 E16599.24511
G1 X97.27 Y102.323 E16599.37229
G1 X96.954 Y102.747 E16599.4992
G1 X96.65 Y103.178 E16599.62578
G1 X96.356 Y103.616 E16599.75239
G1 X96.072 Y104.062 E16599.87929
G1 X95.799 Y104.515 E16600.00622
G1 X95.537 Y104.973 E16600.13286
G1 X95.286 Y105.441 E16600.26031
G1 X95.048 Y105.913 E16600.38718
G1 X94.822 Y106.39 E16600.51386
G1 X94.607 Y106.872 E16600.64052
G1 X94.404 Y107.359 E16600.76715
G1 X94.212 Y107.854 E16600.89458
G1 X94.035 Y108.35 E16601.02097
G1 X93.868 Y108.852 E16601.14794
G1 X93.714 Y109.357 E16601.27465
G1 X93.571 Y109.868 E16601.402
G1 X93.444 Y110.38 E16601.52861
G1 X93.327 Y110.894 E16601.65512
G1 X93.224 Y111.414 E16601.78235
G1 X93.133 Y111.934 E16601.90904
G1 X93.055 Y112.457 E16602.03595
G1 X92.99 Y112.981 E16602.16267
G1 X92.938 Y113.508 E16602.28977
G1 X92.899 Y114.033 E16602.41612
G1 X92.872 Y114.561 E16602.543
G1 X92.86 Y115.091 E16602.67023
G1 X92.86 Y115.617 E16602.79647
G1 X92.872 Y116.147 E16602.92371
G1 X92.899 Y116.675 E16603.05059
G1 X92.938 Y117.2 E16603.17694
G1 X92.99 Y117.727 E16603.30403
G1 X93.055 Y118.251 E16603.43076
G1 X93.133 Y118.774 E16603.55767
G1 X93.224 Y119.294 E16603.68436
G1 X93.327 Y119.814 E16603.81159
G1 X93.444 Y120.328 E16603.9381
G1 X93.571 Y120.84 E16604.06471
G1 X93.714 Y121.351 E16604.19206
G1 X93.868 Y121.856 E16604.31877
G1 X94.035 Y122.358 E16604.44574
G1 X94.212 Y122.854 E16604.57213
G1 X94.404 Y123.349 E16604.69956
G1 X94.607 Y123.836 E16604.82618
G1 X94.822 Y124.318 E16604.95285
G1 X95.048 Y124.795 E16605.07953
G1 X95.286 Y125.267 E16605.2064
G1 X95.537 Y125.735 E16605.33385
G1 X95.799 Y126.193 E16605.46049
G1 X96.072 Y126.646 E16605.58742
G1 X96.356 Y127.092 E16605.71432
G1 X96.65 Y127.53 E16605.84093
G1 X96.954 Y127.961 E16605.96751
G1 X97.27 Y128.385 E16606.09442
G1 X97.597 Y128.802 E16606.2216
G1 X97.935 Y129.209 E16606.34857
G1 X98.28 Y129.608 E16606.47517
G1 X98.637 Y129.999 E16606.60224
G1 X99.002 Y130.379 E16606.72869
G1 X99.376 Y130.752 E16606.85546
G1 X99.76 Y131.116 E16606.98245
G1 X100.153 Y131.47 E16607.10939
G1 X100.555 Y131.814 E16607.23637
G1 X100.965 Y132.148 E16607.36329
G1 X101.382 Y132.471 E16607.48988
G1 X101.807 Y132.784 E16607.61656
G1 X102.241 Y133.087 E16607.74359
G1 X102.682 Y133.38 E16607.87067
G1 X103.129 Y133.66 E16607.99725
G1 X103.583 Y133.93 E16608.12403
G1 X104.045 Y134.189 E16608.25114
G1 X104.512 Y134.436 E16608.37793
G1 X104.984 Y134.671 E16608.50448
G1 X105.463 Y134.895 E16608.63139
G1 X105.947 Y135.107 E16608.7582
G1 X106.436 Y135.307 E16608.885
G1 X106.931 Y135.495 E16609.01208
G1 X107.43 Y135.671 E16609.13907
G1 X107.932 Y135.834 E16609.26574
G1 X108.438 Y135.985 E16609.39247
G1 X108.947 Y136.123 E16609.51904
G1 X109.46 Y136.249 E16609.64582
G1 X109.978 Y136.363 E16609.77312
G1 X110.498 Y136.462 E16609.90016
G1 X111.018 Y136.55 E16610.02673
G1 X111.54 Y136.624 E16610.15327
G1 X112.066 Y136.687 E16610.28041
G1 X112.594 Y136.736 E16610.40767
G1 X113.12 Y136.77 E16610.53418
G1 X113.648 Y136.794 E16610.66103
G1 X114.177 Y136.803 E16610.788
G1 X114.703 Y136.8 E16610.91425
G1 X115.232 Y136.784 E16611.04126
G1 X115.761 Y136.754 E16611.16843
G1 X116.287 Y136.712 E16611.29507
G1 X116.812 Y136.657 E16611.42176
G1 X117.337 Y136.589 E16611.54881
G1 X117.86 Y136.507 E16611.67587
G1 X118.378 Y136.414 E16611.80217
G1 X118.896 Y136.308 E16611.92907
G1 X119.412 Y136.187 E16612.05627
G1 X119.923 Y136.055 E16612.18294
G1 X120.432 Y135.911 E16612.30989
G1 X120.937 Y135.753 E16612.43688
G1 X121.436 Y135.584 E16612.56333
G1 X121.932 Y135.403 E16612.69004
G1 X122.424 Y135.208 E16612.81706
G1 X122.913 Y135.002 E16612.94441
G1 X123.391 Y134.784 E16613.0705
G1 X123.867 Y134.556 E16613.19717
G1 X124.064 Y134.455 E16613.2503
G1 X124.339 Y134.314 E16613.32447
G1 X124.501 Y134.226 E16613.36871
G1 X124.804 Y134.06 E16613.45163
G1 X124.902 Y134.003 E16613.47884
G1 X125.261 Y133.796 E16613.5783
G1 X125.294 Y133.776 E16613.58756
G1 X125.712 Y133.521 E16613.70507
G1 X126.027 Y133.318 E16613.79501
G1 X126.156 Y133.234 E16613.83196
G1 X126.427 Y133.05 E16613.91057
G1 X126.592 Y132.937 E16613.95857
G1 X127.022 Y132.63 E16614.08537
G1 X127.191 Y132.502 E16614.13625
G1 X127.444 Y132.31 E16614.21248
G1 X127.858 Y131.981 E16614.33939
G1 X127.929 Y131.922 E16614.36154
G1 X128.264 Y131.642 E16614.46633
G1 X128.308 Y131.604 E16614.48028
G1 X128.66 Y131.294 E16614.59285
G1 X129.011 Y130.971 E16614.70733
G1 X129.049 Y130.936 E16614.71973
G1 X129.428 Y130.567 E16614.84668
G1 X129.684 Y130.306 E16614.93443
G1 X129.798 Y130.191 E16614.97329
G1 X130.022 Y129.951 E16615.05208
G1 X130.159 Y129.805 E16615.10013
G1 X130.336 Y129.606 E16615.16405
G1 X130.51 Y129.409 E16615.22713
G1 X130.644 Y129.252 E16615.27667
G1 X130.852 Y129.006 E16615.35399
G1 X131.184 Y128.594 E16615.48097
G1 X131.249 Y128.509 E16615.50666
G1 X131.505 Y128.174 E16615.60784
G1 X131.547 Y128.115 E16615.62522
G1 X131.814 Y127.746 E16615.73454
