; G-Code generated by Simplify3D(R) Version 3.1.0
; Sep. 19, 2016 at 12:22:54 NACHM.
; Settings Summary
;   processName,Process1
;   applyToModels,quader_50x50_flach
;   profileName,PLA-1.75mm-N80-advance
;   profileVersion,2016-08-18 13:01:26
;   baseProfile,PLA-1.75mm-N80
;   printMaterial,
;   printQuality,
;   printExtruders,
;   extruderName,Primary Extruder
;   extruderToolheadNumber,0
;   extruderDiameter,0.8
;   extruderAutoWidth,0
;   extruderWidth,0.8
;   extrusionMultiplier,1
;   extruderUseRetract,0
;   extruderRetractionDistance,4.5
;   extruderExtraRestartDistance,0
;   extruderRetractionZLift,0
;   extruderRetractionSpeed,2400
;   extruderUseCoasting,0
;   extruderCoastingDistance,1
;   extruderUseWipe,0
;   extruderWipeDistance,2
;   primaryExtruder,0
;   layerHeight,0.3
;   topSolidLayers,4
;   bottomSolidLayers,2
;   perimeterOutlines,2
;   printPerimetersInsideOut,1
;   startPointOption,3
;   startPointOriginX,0
;   startPointOriginY,0
;   startPointOriginZ,200
;   sequentialIslands,0
;   spiralVaseMode,0
;   firstLayerHeightPercentage,75
;   firstLayerWidthPercentage,100
;   firstLayerUnderspeed,0.3
;   useRaft,0
;   raftExtruder,0
;   raftLayers,1
;   raftOffset,3
;   raftSeparationDistance,0.14
;   raftInfill,50
;   disableRaftBaseLayers,1
;   useSkirt,1
;   skirtExtruder,0
;   skirtLayers,1
;   skirtOutlines,2
;   skirtOffset,3
;   usePrimePillar,0
;   primePillarExtruder,999
;   primePillarWidth,12
;   primePillarLocation,7
;   primePillarSpeedMultiplier,1
;   useOozeShield,0
;   oozeShieldExtruder,999
;   oozeShieldOffset,2
;   oozeShieldOutlines,1
;   oozeShieldSidewallShape,1
;   oozeShieldSidewallAngle,30
;   oozeShieldSpeedMultiplier,1
;   infillExtruder,0
;   internalInfillPattern,Rectilinear
;   externalInfillPattern,Rectilinear
;   infillPercentage,50
;   outlineOverlapPercentage,35
;   infillExtrusionWidthPercentage,100
;   minInfillLength,3
;   infillLayerInterval,2
;   infillAngles,45,-45
;   overlapInfillAngles,0
;   generateSupport,1
;   supportExtruder,0
;   supportInfillPercentage,30
;   supportExtraInflation,0
;   denseSupportLayers,0
;   denseSupportInfillPercentage,80
;   supportLayerInterval,1
;   supportHorizontalPartOffset,0.4
;   supportUpperSeparationLayers,1
;   supportLowerSeparationLayers,1
;   supportType,0
;   supportGridSpacing,2.5
;   maxOverhangAngle,45
;   supportAngles,45
;   temperatureName,Primary Extruder,Heated Build Platform
;   temperatureNumber,0,1
;   temperatureSetpointCount,1,1
;   temperatureSetpointLayers,1,1
;   temperatureSetpointTemperatures,205,60
;   temperatureStabilizeAtStartup,1,1
;   temperatureHeatedBed,0,1
;   temperatureRelayBetweenLayers,0,0
;   temperatureRelayBetweenLoops,0,0
;   fanLayers,1,2,3,4,5
;   fanSpeeds,0,25,50,75,100
;   blipFanToFullPower,1
;   adjustSpeedForCooling,1
;   minSpeedLayerTime,5
;   minCoolingSpeedSlowdown,10
;   increaseFanForCooling,0
;   minFanLayerTime,10
;   maxCoolingFanSpeed,30
;   increaseFanForBridging,0
;   bridgingFanSpeed,45
;   use5D,1
;   relativeEdistances,0
;   allowEaxisZeroing,1
;   independentExtruderAxes,0
;   includeM10123,0
;   stickySupport,1
;   applyToolheadOffsets,0
;   gcodeXoffset,0
;   gcodeYoffset,0
;   gcodeZoffset,0
;   overrideMachineDefinition,1
;   machineTypeOverride,0
;   strokeXoverride,225
;   strokeYoverride,225
;   strokeZoverride,212
;   originOffsetXoverride,0
;   originOffsetYoverride,0
;   originOffsetZoverride,0
;   homeXdirOverride,-1
;   homeYdirOverride,-1
;   homeZdirOverride,-1
;   flipXoverride,1
;   flipYoverride,-1
;   flipZoverride,1
;   toolheadOffsets,0,0|0,0|0,0|0,0|0,0|0,0
;   overrideFirmwareConfiguration,1
;   firmwareTypeOverride,RepRap (Marlin/Repetier/Sprinter)
;   GPXconfigOverride,r2
;   baudRateOverride,250000
;   overridePrinterModels,0
;   printerModelsOverride
;   startingGcode,M907 E1400 ; increase extruder current,G28 ; home all axes,;G1 X20 Y10 F3000 ; bring extruder to front,;G92 E0 ; zero the extruded length,;G1 Z10 ; lower,;G1 E19 F200 ; purge nozzle quickly,;G1 E26 F60 ; purge nozzle slowly,;G92 E0 ; zero the extruded length again,;G1 E-5.5 F400 ; retract,;G1 X190 Z0 F9000 ; pull away filament,;G1 X210 F9000 ; wipe,;G1 Y20 F9000 ; wipe,;G1 E0 ; feed filament back
;   layerChangeGcode,
;   retractionGcode,
;   toolChangeGcode,
;   endingGcode,G28 X0 ; home the X-axis,M104 S0 ; turn off heaters,M140 S0 ; turn off bed,M84 ; disable motors,M107 ; fan off
;   exportFileFormat,gcode
;   celebration,0
;   celebrationSong,Random Song
;   postProcessing,
;   defaultSpeed,4500
;   outlineUnderspeed,1
;   solidInfillUnderspeed,1
;   supportUnderspeed,1
;   rapidXYspeed,15000
;   rapidZspeed,1998
;   minBridgingArea,5
;   bridgingExtraInflation,0
;   bridgingExtrusionMultiplier,1
;   bridgingSpeedMultiplier,0.5
;   filamentDiameter,1.75
;   filamentPricePerKg,25
;   filamentDensity,1.25
;   useMinPrintHeight,0
;   minPrintHeight,0
;   useMaxPrintHeight,0
;   maxPrintHeight,0
;   useDiaphragm,0
;   diaphragmLayerInterval,20
;   robustSlicing,1
;   mergeAllIntoSolid,0
;   onlyRetractWhenCrossingOutline,1
;   retractBetweenLayers,0
;   useRetractionMinTravel,1
;   retractionMinTravel,0.02
;   retractWhileWiping,0
;   onlyWipeOutlines,1
;   avoidCrossingOutline,0
;   maxMovementDetourFactor,3
;   toolChangeRetractionDistance,12
;   toolChangeExtraRestartDistance,-0.5
;   toolChangeRetractionSpeed,600
;   allowThinWallGapFill,1
;   thinWallAllowedOverlapPercentage,10
;   horizontalSizeCompensation,0
G90
M82
M106 S0
M140 S60
M190 S60
M104 S205 T0
M109 S205 T0
M907 E1400 ; increase extruder current
G28 ; home all axes
;G1 X20 Y10 F3000 ; bring extruder to front
;G92 E0 ; zero the extruded length
;G1 Z10 ; lower
;G1 E19 F200 ; purge nozzle quickly
;G1 E26 F60 ; purge nozzle slowly
;G92 E0 ; zero the extruded length again
;G1 E-5.5 F400 ; retract
;G1 X190 Z0 F9000 ; pull away filament
;G1 X210 F9000 ; wipe
;G1 Y20 F9000 ; wipe
;G1 E0 ; feed filament back
G92 E0
G1 E-4.5000 F2400
G1 Z0.225 F1998
; layer 1, Z = 0.225
T0
; tool H0.300 W0.800
; skirt
G1 X21.919 Y119.200 F15000
G1 E0.0000 F720
G92 E0
G1 X78.081 Y119.200 E5.6039 F1350
G1 X78.522 Y119.383 E5.6516
G1 X80.617 Y121.478 E5.9472
G1 X80.800 Y121.919 E5.9948
G1 X80.800 Y178.081 E11.5988
G1 X80.617 Y178.522 E11.6464
G1 X78.522 Y180.617 E11.9420
G1 X78.081 Y180.800 E11.9896
G1 X21.919 Y180.800 E17.5936
G1 X21.478 Y180.617 E17.6412
G1 X19.383 Y178.522 E17.9368
G1 X19.200 Y178.081 E17.9845
G1 X19.200 Y121.919 E23.5884
G1 X19.383 Y121.478 E23.6360
G1 X21.478 Y119.383 E23.9316
G1 X21.919 Y119.200 E23.9793
G1 X22.078 Y120.000 F15000
G92 E0
G1 X77.922 Y120.000 E5.5722 F1350
G1 X78.069 Y120.061 E5.5881
G1 X79.939 Y121.931 E5.8519
G1 X80.000 Y122.078 E5.8678
G1 X80.000 Y177.922 E11.4400
G1 X79.939 Y178.069 E11.4558
G1 X78.069 Y179.939 E11.7197
G1 X77.922 Y180.000 E11.7356
G1 X22.078 Y180.000 E17.3078
G1 X21.931 Y179.939 E17.3236
G1 X20.061 Y178.069 E17.5875
G1 X20.000 Y177.922 E17.6034
G1 X20.000 Y122.078 E23.1756
G1 X20.061 Y121.931 E23.1914
G1 X21.931 Y120.061 E23.4553
G1 X22.078 Y120.000 E23.4712
; inner perimeter
G1 X24.600 Y175.400 F15000
G92 E0
G1 X24.600 Y124.600 E5.0688 F1350
G1 X75.400 Y124.600 E10.1377
G1 X75.400 Y175.400 E15.2065
G1 X24.600 Y175.400 E20.2754
; outer perimeter
G1 X23.800 Y176.200 F15000
G92 E0
G1 X23.800 Y123.800 E5.2285 F1350
G1 X76.200 Y123.800 E10.4570
G1 X76.200 Y176.200 E15.6855
G1 X23.800 Y176.200 E20.9140
; solid layer
G1 X26.231 Y174.880 F15000
G92 E0
G1 X25.120 Y173.769 E0.1568 F1350
G1 X25.120 Y172.638 E0.2697
G1 X27.362 Y174.880 E0.5861
G1 X28.494 Y174.880 E0.6990
G1 X25.120 Y171.506 E1.1751
G1 X25.120 Y170.375 E1.2880
G1 X29.625 Y174.880 E1.9237
G1 X30.757 Y174.880 E2.0366
G1 X25.120 Y169.243 E2.8320
G1 X25.120 Y168.112 E2.9448
G1 X31.888 Y174.880 E3.8999
G1 X33.019 Y174.880 E4.0128
G1 X25.120 Y166.981 E5.1274
G1 X25.120 Y165.849 E5.2403
G1 X34.151 Y174.880 E6.5147
G1 X35.282 Y174.880 E6.6275
G1 X25.120 Y164.718 E8.0615
G1 X25.120 Y163.587 E8.1744
G1 X36.413 Y174.880 E9.7680
G1 X37.545 Y174.880 E9.8809
G1 X25.120 Y162.455 E11.6342
G1 X25.120 Y161.324 E11.7471
G1 X38.676 Y174.880 E13.6600
G1 X39.808 Y174.880 E13.7729
G1 X25.120 Y160.192 E15.8454
G1 X25.120 Y159.061 E15.9583
G1 X40.939 Y174.880 E18.1905
G1 X42.070 Y174.880 E18.3034
G1 X25.120 Y157.930 E20.6953
G1 X25.120 Y156.798 E20.8082
G1 X43.202 Y174.880 E23.3597
G1 X44.333 Y174.880 E23.4726
G1 X25.120 Y155.667 E26.1838
G1 X25.120 Y154.536 E26.2966
G1 X45.464 Y174.880 E29.1675
G1 X46.596 Y174.880 E29.2803
G1 X25.120 Y153.404 E32.3108
G1 X25.120 Y152.273 E32.4237
G1 X47.727 Y174.880 E35.6138
G1 X48.858 Y174.880 E35.7267
G1 X25.120 Y151.142 E39.0764
G1 X25.120 Y150.010 E39.1893
G1 X49.990 Y174.880 E42.6987
G1 X51.121 Y174.880 E42.8116
G1 X25.120 Y148.879 E46.4807
G1 X25.120 Y147.747 E46.5936
G1 X52.253 Y174.880 E50.4223
G1 X53.384 Y174.880 E50.5352
G1 X25.120 Y146.616 E54.5235
G1 X25.120 Y145.485 E54.6364
G1 X54.515 Y174.880 E58.7844
G1 X55.647 Y174.880 E58.8973
G1 X25.120 Y144.353 E63.2049
G1 X25.120 Y143.222 E63.3178
G1 X56.778 Y174.880 E67.7851
G1 X57.909 Y174.880 E67.8980
G1 X25.120 Y142.091 E72.5250
G1 X25.120 Y140.959 E72.6378
G1 X59.041 Y174.880 E77.4244
G1 X60.172 Y174.880 E77.5373
G1 X25.120 Y139.828 E82.4836
G1 X25.120 Y138.696 E82.5965
G1 X61.304 Y174.880 E87.7024
G1 X62.435 Y174.880 E87.8152
G1 X25.120 Y137.565 E93.0808
G1 X25.120 Y136.434 E93.1937
G1 X63.566 Y174.880 E98.6189
G1 X64.698 Y174.880 E98.7317
G1 X25.120 Y135.302 E104.3166
G1 X25.120 Y134.171 E104.4295
G1 X65.829 Y174.880 E110.1740
G1 X66.960 Y174.880 E110.2868
G1 X25.120 Y133.040 E116.1910
G1 X25.120 Y131.908 E116.3039
G1 X68.092 Y174.880 E122.3677
G1 X69.223 Y174.880 E122.4805
G1 X25.120 Y130.777 E128.7040
G1 X25.120 Y129.645 E128.8169
G1 X70.355 Y174.880 E135.1999
G1 X71.486 Y174.880 E135.3128
G1 X25.120 Y128.514 E141.8556
G1 X25.120 Y127.383 E141.9685
G1 X72.617 Y174.880 E148.6708
G1 X73.749 Y174.880 E148.7837
G1 X25.120 Y126.251 E155.6457
G1 X25.120 Y125.120 E155.7586
G1 X74.880 Y174.880 E162.7803
G1 X74.880 Y173.749 E162.8932
G1 X26.251 Y125.120 E169.7552
G1 X27.383 Y125.120 E169.8681
G1 X74.880 Y172.617 E176.5705
G1 X74.880 Y171.486 E176.6834
G1 X28.514 Y125.120 E183.2261
G1 X29.645 Y125.120 E183.3390
G1 X74.880 Y170.354 E189.7221
G1 X74.880 Y169.223 E189.8349
G1 X30.777 Y125.120 E196.0584
G1 X31.908 Y125.120 E196.1713
G1 X74.880 Y168.092 E202.2350
G1 X74.880 Y166.960 E202.3479
G1 X33.040 Y125.120 E208.2521
G1 X34.171 Y125.120 E208.3649
G1 X74.880 Y165.829 E214.1094
G1 X74.880 Y164.698 E214.2223
G1 X35.302 Y125.120 E219.8071
G1 X36.434 Y125.120 E219.9200
G1 X74.880 Y163.566 E225.3452
G1 X74.880 Y162.435 E225.4581
G1 X37.565 Y125.120 E230.7236
G1 X38.696 Y125.120 E230.8365
G1 X74.880 Y161.304 E235.9424
G1 X74.880 Y160.172 E236.0553
G1 X39.828 Y125.120 E241.0015
G1 X40.959 Y125.120 E241.1144
G1 X74.880 Y159.041 E245.9010
G1 X74.880 Y157.909 E246.0139
G1 X42.091 Y125.120 E250.6409
G1 X43.222 Y125.120 E250.7537
G1 X74.880 Y156.778 E255.2210
G1 X74.880 Y155.647 E255.3339
G1 X44.353 Y125.120 E259.6416
G1 X45.485 Y125.120 E259.7545
G1 X74.880 Y154.515 E263.9024
G1 X74.880 Y153.384 E264.0153
G1 X46.616 Y125.120 E268.0037
G1 X47.747 Y125.120 E268.1166
G1 X74.880 Y152.253 E271.9453
G1 X74.880 Y151.121 E272.0582
G1 X48.879 Y125.120 E275.7272
G1 X50.010 Y125.120 E275.8401
G1 X74.880 Y149.990 E279.3495
G1 X74.880 Y148.858 E279.4624
G1 X51.142 Y125.120 E282.8121
G1 X52.273 Y125.120 E282.9250
G1 X74.880 Y147.727 E286.1151
G1 X74.880 Y146.596 E286.2280
G1 X53.404 Y125.120 E289.2585
G1 X54.536 Y125.120 E289.3714
G1 X74.880 Y145.464 E292.2422
G1 X74.880 Y144.333 E292.3550
G1 X55.667 Y125.120 E295.0662
G1 X56.798 Y125.120 E295.1791
G1 X74.880 Y143.202 E297.7306
G1 X74.880 Y142.070 E297.8435
G1 X57.930 Y125.120 E300.2353
G1 X59.061 Y125.120 E300.3482
G1 X74.880 Y140.939 E302.5804
G1 X74.880 Y139.807 E302.6933
G1 X60.193 Y125.120 E304.7659
G1 X61.324 Y125.120 E304.8788
G1 X74.880 Y138.676 E306.7917
G1 X74.880 Y137.545 E306.9046
G1 X62.455 Y125.120 E308.6579
G1 X63.587 Y125.120 E308.7707
G1 X74.880 Y136.413 E310.3644
G1 X74.880 Y135.282 E310.4772
G1 X64.718 Y125.120 E311.9112
G1 X65.849 Y125.120 E312.0241
G1 X74.880 Y134.151 E313.2984
G1 X74.880 Y133.019 E313.4113
G1 X66.981 Y125.120 E314.5260
G1 X68.112 Y125.120 E314.6389
G1 X74.880 Y131.888 E315.5939
G1 X74.880 Y130.757 E315.7068
G1 X69.243 Y125.120 E316.5022
G1 X70.375 Y125.120 E316.6150
G1 X74.880 Y129.625 E317.2508
G1 X74.880 Y128.494 E317.3637
G1 X71.506 Y125.120 E317.8397
G1 X72.638 Y125.120 E317.9526
G1 X74.880 Y127.362 E318.2690
G1 X74.880 Y126.231 E318.3819
G1 X73.769 Y125.120 E318.5387
; layer 2, Z = 0.525
M106 S255
G4 P500
M106 S63
; inner perimeter
G1 X24.600 Y175.400 F15000
G1 Z0.525 F1998
G92 E0
G1 X24.600 Y124.600 E5.0688 F4500
G1 X75.400 Y124.600 E10.1377
G1 X75.400 Y175.400 E15.2065
G1 X24.600 Y175.400 E20.2754
; outer perimeter
G1 X23.800 Y176.200 F15000
G92 E0
G1 X23.800 Y123.800 E5.2285 F4500
G1 X76.200 Y123.800 E10.4570
G1 X76.200 Y176.200 E15.6855
G1 X23.800 Y176.200 E20.9140
; solid layer
G1 X25.120 Y126.231 F15000
G92 E0
G1 X26.231 Y125.120 E0.1568 F4500
G1 X27.362 Y125.120 E0.2697
G1 X25.120 Y127.362 E0.5861
G1 X25.120 Y128.494 E0.6990
G1 X28.494 Y125.120 E1.1751
G1 X29.625 Y125.120 E1.2880
G1 X25.120 Y129.625 E1.9237
G1 X25.120 Y130.757 E2.0366
G1 X30.757 Y125.120 E2.8320
G1 X31.888 Y125.120 E2.9449
G1 X25.120 Y131.888 E3.8999
G1 X25.120 Y133.019 E4.0128
G1 X33.019 Y125.120 E5.1275
G1 X34.151 Y125.120 E5.2404
G1 X25.120 Y134.151 E6.5147
G1 X25.120 Y135.282 E6.6276
G1 X35.282 Y125.120 E8.0615
G1 X36.413 Y125.120 E8.1744
G1 X25.120 Y136.413 E9.7681
G1 X25.120 Y137.545 E9.8809
G1 X37.545 Y125.120 E11.6342
G1 X38.676 Y125.120 E11.7471
G1 X25.120 Y138.676 E13.6600
G1 X25.120 Y139.808 E13.7729
G1 X39.808 Y125.120 E15.8455
G1 X40.939 Y125.120 E15.9584
G1 X25.120 Y140.939 E18.1906
G1 X25.120 Y142.070 E18.3035
G1 X42.070 Y125.120 E20.6954
G1 X43.202 Y125.120 E20.8082
G1 X25.120 Y143.202 E23.3598
G1 X25.120 Y144.333 E23.4727
G1 X44.333 Y125.120 E26.1838
G1 X45.464 Y125.120 E26.2967
G1 X25.120 Y145.464 E29.1675
G1 X25.120 Y146.596 E29.2804
G1 X46.596 Y125.120 E32.3109
G1 X47.727 Y125.120 E32.4238
G1 X25.120 Y147.727 E35.6139
G1 X25.120 Y148.859 E35.7268
G1 X48.859 Y125.120 E39.0765
G1 X49.990 Y125.120 E39.1894
G1 X25.120 Y149.990 E42.6988
G1 X25.120 Y151.121 E42.8117
G1 X51.121 Y125.120 E46.4808
G1 X52.253 Y125.120 E46.5937
G1 X25.120 Y152.253 E50.4224
G1 X25.120 Y153.384 E50.5352
G1 X53.384 Y125.120 E54.5236
G1 X54.515 Y125.120 E54.6365
G1 X25.120 Y154.515 E58.7845
G1 X25.120 Y155.647 E58.8974
G1 X55.647 Y125.120 E63.2050
G1 X56.778 Y125.120 E63.3179
G1 X25.120 Y156.778 E67.7852
G1 X25.120 Y157.909 E67.8981
G1 X57.909 Y125.120 E72.5251
G1 X59.041 Y125.120 E72.6380
G1 X25.120 Y159.041 E77.4246
G1 X25.120 Y160.172 E77.5374
G1 X60.172 Y125.120 E82.4837
G1 X61.304 Y125.120 E82.5966
G1 X25.120 Y161.304 E87.7025
G1 X25.120 Y162.435 E87.8154
G1 X62.435 Y125.120 E93.0809
G1 X63.566 Y125.120 E93.1938
G1 X25.120 Y163.566 E98.6190
G1 X25.120 Y164.698 E98.7319
G1 X64.698 Y125.120 E104.3167
G1 X65.829 Y125.120 E104.4296
G1 X25.120 Y165.829 E110.1741
G1 X25.120 Y166.960 E110.2870
G1 X66.960 Y125.120 E116.1911
G1 X68.092 Y125.120 E116.3040
G1 X25.120 Y168.092 E122.3678
G1 X25.120 Y169.223 E122.4807
G1 X69.223 Y125.120 E128.7041
G1 X70.355 Y125.120 E128.8170
G1 X25.120 Y170.355 E135.2001
G1 X25.120 Y171.486 E135.3130
G1 X71.486 Y125.120 E141.8557
G1 X72.617 Y125.120 E141.9686
G1 X25.120 Y172.617 E148.6710
G1 X25.120 Y173.749 E148.7839
G1 X73.749 Y125.120 E155.6459
G1 X74.880 Y125.120 E155.7588
G1 X25.120 Y174.880 E162.7805
G1 X26.251 Y174.880 E162.8933
G1 X74.880 Y126.251 E169.7554
G1 X74.880 Y127.383 E169.8682
G1 X27.383 Y174.880 E176.5706
G1 X28.514 Y174.880 E176.6835
G1 X74.880 Y128.514 E183.2262
G1 X74.880 Y129.646 E183.3391
G1 X29.646 Y174.880 E189.7222
G1 X30.777 Y174.880 E189.8351
G1 X74.880 Y130.777 E196.0585
G1 X74.880 Y131.908 E196.1714
G1 X31.908 Y174.880 E202.2352
G1 X33.040 Y174.880 E202.3481
G1 X74.880 Y133.040 E208.2522
G1 X74.880 Y134.171 E208.3651
