; G-Code generated by Simplify3D(R) Version 3.0.2
; Sep. 19, 2016 at 10:53:32 VORM.
; Settings Summary
;   processName,Process1
;   applyToModels,quader_20x50_flach
;   profileName,PLA-1.75mm-N80-advance
;   profileVersion,2016-08-18 13:01:26
;   baseProfile,PLA-1.75mm-N80
;   printMaterial,
;   printQuality,
;   printExtruders,
;   extruderName,Primary Extruder
;   extruderToolheadNumber,0
;   extruderDiameter,0.8
;   extruderAutoWidth,0
;   extruderWidth,0.8
;   extrusionMultiplier,1
;   extruderUseRetract,0
;   extruderRetractionDistance,4.5
;   extruderExtraRestartDistance,0
;   extruderRetractionZLift,0
;   extruderRetractionSpeed,2400
;   extruderUseCoasting,0
;   extruderCoastingDistance,1
;   extruderUseWipe,0
;   extruderWipeDistance,2
;   primaryExtruder,0
;   layerHeight,0.3
;   topSolidLayers,4
;   bottomSolidLayers,2
;   perimeterOutlines,2
;   printPerimetersInsideOut,1
;   startPointOption,3
;   startPointOriginX,0
;   startPointOriginY,0
;   startPointOriginZ,200
;   sequentialIslands,0
;   spiralVaseMode,0
;   firstLayerHeightPercentage,75
;   firstLayerWidthPercentage,100
;   firstLayerUnderspeed,0.3
;   useRaft,0
;   raftExtruder,0
;   raftLayers,1
;   raftOffset,3
;   raftSeparationDistance,0.14
;   raftInfill,50
;   disableRaftBaseLayers,1
;   useSkirt,1
;   skirtExtruder,0
;   skirtLayers,1
;   skirtOutlines,2
;   skirtOffset,3
;   usePrimePillar,0
;   primePillarExtruder,999
;   primePillarWidth,12
;   primePillarLocation,7
;   primePillarSpeedMultiplier,1
;   useOozeShield,0
;   oozeShieldExtruder,999
;   oozeShieldOffset,2
;   oozeShieldOutlines,1
;   oozeShieldSidewallShape,1
;   oozeShieldSidewallAngle,30
;   oozeShieldSpeedMultiplier,1
;   infillExtruder,0
;   internalInfillPattern,Rectilinear
;   externalInfillPattern,Rectilinear
;   infillPercentage,25
;   outlineOverlapPercentage,35
;   infillExtrusionWidthPercentage,100
;   minInfillLength,3
;   infillLayerInterval,2
;   infillAngles,45,-45
;   overlapInfillAngles,0
;   generateSupport,0
;   supportExtruder,0
;   supportInfillPercentage,30
;   supportExtraInflation,0
;   denseSupportLayers,0
;   denseSupportInfillPercentage,80
;   supportLayerInterval,1
;   supportHorizontalPartOffset,0.4
;   supportUpperSeparationLayers,1
;   supportLowerSeparationLayers,1
;   supportType,0
;   supportGridSpacing,2.5
;   maxOverhangAngle,45
;   supportAngles,45
;   temperatureName,Primary Extruder,Heated Build Platform
;   temperatureNumber,0,1
;   temperatureSetpointCount,1,1
;   temperatureSetpointLayers,1,1
;   temperatureSetpointTemperatures,205,60
;   temperatureStabilizeAtStartup,1,1
;   temperatureHeatedBed,0,1
;   temperatureRelayBetweenLayers,0,0
;   temperatureRelayBetweenLoops,0,0
;   fanLayers,1,2,3,4,5
;   fanSpeeds,0,25,50,75,100
;   blipFanToFullPower,1
;   adjustSpeedForCooling,1
;   minSpeedLayerTime,5
;   minCoolingSpeedSlowdown,10
;   increaseFanForCooling,0
;   minFanLayerTime,10
;   maxCoolingFanSpeed,30
;   increaseFanForBridging,0
;   bridgingFanSpeed,45
;   use5D,1
;   relativeEdistances,0
;   allowEaxisZeroing,1
;   independentExtruderAxes,0
;   includeM10123,0
;   stickySupport,1
;   applyToolheadOffsets,0
;   gcodeXoffset,0
;   gcodeYoffset,0
;   gcodeZoffset,0
;   overrideMachineDefinition,1
;   machineTypeOverride,0
;   strokeXoverride,225
;   strokeYoverride,225
;   strokeZoverride,212
;   originOffsetXoverride,0
;   originOffsetYoverride,0
;   originOffsetZoverride,0
;   homeXdirOverride,-1
;   homeYdirOverride,-1
;   homeZdirOverride,-1
;   flipXoverride,1
;   flipYoverride,-1
;   flipZoverride,1
;   toolheadOffsets,0,0|0,0|0,0|0,0|0,0|0,0
;   overrideFirmwareConfiguration,1
;   firmwareTypeOverride,RepRap (Marlin/Repetier/Sprinter)
;   GPXconfigOverride,r2
;   baudRateOverride,250000
;   overridePrinterModels,0
;   printerModelsOverride
;   startingGcode,M907 E1400 ; increase extruder current,G28 ; home all axes,;G1 X20 Y10 F3000 ; bring extruder to front,;G92 E0 ; zero the extruded length,;G1 Z10 ; lower,;G1 E19 F200 ; purge nozzle quickly,;G1 E26 F60 ; purge nozzle slowly,;G92 E0 ; zero the extruded length again,;G1 E-5.5 F400 ; retract,;G1 X190 Z0 F9000 ; pull away filament,;G1 X210 F9000 ; wipe,;G1 Y20 F9000 ; wipe,;G1 E0 ; feed filament back
;   layerChangeGcode,
;   retractionGcode,
;   toolChangeGcode,
;   endingGcode,G28 X0 ; home the X-axis,M104 S0 ; turn off heaters,M140 S0 ; turn off bed,M84 ; disable motors,M107 ; fan off
;   createX3G,0
;   celebration,0
;   celebrationSong,Random Song
;   createMB5G,0
;   postProcessing,
;   defaultSpeed,4500
;   outlineUnderspeed,1
;   solidInfillUnderspeed,0.5
;   supportUnderspeed,1
;   rapidXYspeed,15000
;   rapidZspeed,1998
;   minBridgingArea,5
;   bridgingExtraInflation,0
;   bridgingExtrusionMultiplier,1
;   bridgingSpeedMultiplier,0.5
;   filamentDiameter,1.75
;   filamentPricePerKg,25
;   filamentDensity,1.25
;   useMinPrintHeight,0
;   minPrintHeight,0
;   useMaxPrintHeight,0
;   maxPrintHeight,0
;   useDiaphragm,0
;   diaphragmLayerInterval,20
;   robustSlicing,1
;   mergeAllIntoSolid,0
;   onlyRetractWhenCrossingOutline,1
;   retractBetweenLayers,0
;   useRetractionMinTravel,1
;   retractionMinTravel,0.02
;   retractWhileWiping,0
;   onlyWipeOutlines,1
;   avoidCrossingOutline,0
;   maxMovementDetourFactor,3
;   toolChangeRetractionDistance,12
;   toolChangeExtraRestartDistance,-0.5
;   toolChangeRetractionSpeed,600
;   allowThinWallGapFill,1
;   thinWallAllowedOverlapPercentage,10
;   horizontalSizeCompensation,0
G90
M82
M106 S0
M140 S60
M190 S60
M104 S205 T0
M109 S205 T0
M907 E1400 ; increase extruder current
G28 ; home all axes
;G1 X20 Y10 F3000 ; bring extruder to front
;G92 E0 ; zero the extruded length
;G1 Z10 ; lower
;G1 E19 F200 ; purge nozzle quickly
;G1 E26 F60 ; purge nozzle slowly
;G92 E0 ; zero the extruded length again
;G1 E-5.5 F400 ; retract
;G1 X190 Z0 F9000 ; pull away filament
;G1 X210 F9000 ; wipe
;G1 Y20 F9000 ; wipe
;G1 E0 ; feed filament back
G92 E0
G1 E-4.5000 F2400
G1 Z0.225 F1998
; layer 1, Z = 0.225
T0
; tool H0.300 W0.800
; skirt
G1 X36.919 Y119.200 F15000
G1 E0.0000 F720
G92 E0
G1 X63.081 Y119.200 E2.6105 F1350
G1 X63.522 Y119.383 E2.6582
G1 X65.617 Y121.478 E2.9538
G1 X65.800 Y121.919 E3.0014
G1 X65.800 Y178.081 E8.6053
G1 X65.617 Y178.522 E8.6530
G1 X63.522 Y180.617 E8.9486
G1 X63.081 Y180.800 E8.9962
G1 X36.919 Y180.800 E11.6067
G1 X36.478 Y180.617 E11.6544
G1 X34.383 Y178.522 E11.9500
G1 X34.200 Y178.081 E11.9976
G1 X34.200 Y121.919 E17.6016
G1 X34.383 Y121.478 E17.6492
G1 X36.478 Y119.383 E17.9448
G1 X36.919 Y119.200 E17.9924
G1 X37.078 Y120.000 F15000
G92 E0
G1 X62.922 Y120.000 E2.5788 F1350
G1 X63.069 Y120.061 E2.5946
G1 X64.939 Y121.931 E2.8585
G1 X65.000 Y122.078 E2.8744
G1 X65.000 Y177.922 E8.4466
G1 X64.939 Y178.069 E8.4624
G1 X63.069 Y179.939 E8.7263
G1 X62.922 Y180.000 E8.7422
G1 X37.078 Y180.000 E11.3209
G1 X36.931 Y179.939 E11.3368
G1 X35.061 Y178.069 E11.6007
G1 X35.000 Y177.922 E11.6166
G1 X35.000 Y122.078 E17.1887
G1 X35.061 Y121.931 E17.2046
G1 X36.931 Y120.061 E17.4685
G1 X37.078 Y120.000 E17.4844
; inner perimeter
G1 X39.600 Y175.400 F15000
G92 E0
G1 X39.600 Y124.600 E5.0688 F1350
G1 X60.400 Y124.600 E7.1443
G1 X60.400 Y175.400 E12.2131
G1 X39.600 Y175.400 E14.2886
; outer perimeter
G1 X38.800 Y176.200 F15000
G92 E0
G1 X38.800 Y123.800 E5.2285 F1350
G1 X61.200 Y123.800 E7.4636
G1 X61.200 Y176.200 E12.6921
G1 X38.800 Y176.200 E14.9271
; solid layer
G1 X59.880 Y174.061 F15000
G92 E0
G1 X59.061 Y174.880 E0.1155 F675
G1 X57.930 Y174.880 E0.2284
G1 X59.880 Y172.930 E0.5036
G1 X59.880 Y171.798 E0.6165
G1 X56.798 Y174.880 E1.0514
G1 X55.667 Y174.880 E1.1643
G1 X59.880 Y170.667 E1.7587
G1 X59.880 Y169.536 E1.8716
G1 X54.536 Y174.880 E2.6258
G1 X53.404 Y174.880 E2.7387
G1 X59.880 Y168.404 E3.6524
G1 X59.880 Y167.273 E3.7653
G1 X52.273 Y174.880 E4.8388
G1 X51.142 Y174.880 E4.9517
G1 X59.880 Y166.142 E6.1848
G1 X59.880 Y165.010 E6.2976
G1 X50.010 Y174.880 E7.6904
G1 X48.879 Y174.880 E7.8033
G1 X59.880 Y163.879 E9.3556
G1 X59.880 Y162.747 E9.4685
G1 X47.747 Y174.880 E11.1806
G1 X46.616 Y174.880 E11.2935
G1 X59.880 Y161.616 E13.1651
G1 X59.880 Y160.485 E13.2780
G1 X45.485 Y174.880 E15.3094
G1 X44.353 Y174.880 E15.4222
G1 X59.880 Y159.353 E17.6132
G1 X59.880 Y158.222 E17.7261
G1 X43.222 Y174.880 E20.0767
G1 X42.091 Y174.880 E20.1896
G1 X59.880 Y157.091 E22.6999
G1 X59.880 Y155.959 E22.8128
G1 X40.959 Y174.880 E25.4827
G1 X40.120 Y174.880 E25.5665
G1 X40.120 Y174.588 E25.5956
G1 X59.880 Y154.828 E28.3840
G1 X59.880 Y153.696 E28.4968
G1 X40.120 Y173.456 E31.2852
G1 X40.120 Y172.325 E31.3981
G1 X59.880 Y152.565 E34.1864
G1 X59.880 Y151.434 E34.2993
G1 X40.120 Y171.194 E37.0877
G1 X40.120 Y170.062 E37.2006
G1 X59.880 Y150.302 E39.9889
G1 X59.880 Y149.171 E40.1018
G1 X40.120 Y168.931 E42.8901
G1 X40.120 Y167.800 E43.0030
G1 X59.880 Y148.040 E45.7914
G1 X59.880 Y146.908 E45.9043
G1 X40.120 Y166.668 E48.6926
G1 X40.120 Y165.537 E48.8055
G1 X59.880 Y145.777 E51.5938
G1 X59.880 Y144.646 E51.7067
G1 X40.120 Y164.406 E54.4951
G1 X40.120 Y163.274 E54.6080
G1 X59.880 Y143.514 E57.3963
G1 X59.880 Y142.383 E57.5092
G1 X40.120 Y162.143 E60.2976
G1 X40.120 Y161.011 E60.4104
G1 X59.880 Y141.251 E63.1988
G1 X59.880 Y140.120 E63.3117
G1 X40.120 Y159.880 E66.1000
G1 X40.120 Y158.749 E66.2129
G1 X59.880 Y138.989 E69.0013
G1 X59.880 Y137.857 E69.1142
G1 X40.120 Y157.617 E71.9025
G1 X40.120 Y156.486 E72.0154
G1 X59.880 Y136.726 E74.8037
G1 X59.880 Y135.595 E74.9166
G1 X40.120 Y155.355 E77.7050
G1 X40.120 Y154.223 E77.8179
G1 X59.880 Y134.463 E80.6062
G1 X59.880 Y133.332 E80.7191
G1 X40.120 Y153.092 E83.5075
G1 X40.120 Y151.960 E83.6203
G1 X59.880 Y132.200 E86.4087
G1 X59.880 Y131.069 E86.5216
G1 X40.120 Y150.829 E89.3099
G1 X40.120 Y149.698 E89.4228
G1 X59.880 Y129.938 E92.2112
G1 X59.880 Y128.806 E92.3241
G1 X40.120 Y148.566 E95.1124
G1 X40.120 Y147.435 E95.2253
G1 X59.880 Y127.675 E98.0136
G1 X59.880 Y126.544 E98.1265
G1 X40.120 Y146.304 E100.9149
G1 X40.120 Y145.172 E101.0278
G1 X59.880 Y125.412 E103.8161
G1 X59.880 Y125.120 E103.8453
G1 X59.041 Y125.120 E103.9290
G1 X40.120 Y144.041 E106.5989
G1 X40.120 Y142.909 E106.7118
G1 X57.909 Y125.120 E109.2221
G1 X56.778 Y125.120 E109.3350
G1 X40.120 Y141.778 E111.6856
G1 X40.120 Y140.647 E111.7985
G1 X55.647 Y125.120 E113.9895
G1 X54.515 Y125.120 E114.1024
G1 X40.120 Y139.515 E116.1337
G1 X40.120 Y138.384 E116.2466
G1 X53.384 Y125.120 E118.1183
G1 X52.253 Y125.120 E118.2312
G1 X40.120 Y137.253 E119.9433
G1 X40.120 Y136.121 E120.0561
G1 X51.121 Y125.120 E121.6085
G1 X49.990 Y125.120 E121.7214
G1 X40.120 Y134.990 E123.1142
G1 X40.120 Y133.859 E123.2271
G1 X48.859 Y125.120 E124.4602
G1 X47.727 Y125.120 E124.5730
G1 X40.120 Y132.727 E125.6465
G1 X40.120 Y131.596 E125.7594
G1 X46.596 Y125.120 E126.6732
G1 X45.464 Y125.120 E126.7861
G1 X40.120 Y130.464 E127.5402
G1 X40.120 Y129.333 E127.6531
G1 X44.333 Y125.120 E128.2476
G1 X43.202 Y125.120 E128.3605
G1 X40.120 Y128.202 E128.7954
G1 X40.120 Y127.070 E128.9082
G1 X42.070 Y125.120 E129.1834
G1 X40.939 Y125.120 E129.2963
G1 X40.120 Y125.939 E129.4119
; layer 2, Z = 0.525
M106 S255
G4 P500
M106 S63
; inner perimeter
G1 X39.600 Y175.400 F15000
G1 Z0.525 F1998
G92 E0
G1 X39.600 Y124.600 E5.0688 F4500
G1 X60.400 Y124.600 E7.1443
G1 X60.400 Y175.400 E12.2131
G1 X39.600 Y175.400 E14.2886
; outer perimeter
G1 X38.800 Y176.200 F15000
G92 E0
G1 X38.800 Y123.800 E5.2285 F4500
G1 X61.200 Y123.800 E7.4636
G1 X61.200 Y176.200 E12.6921
G1 X38.800 Y176.200 E14.9271
; solid layer
G1 X40.939 Y174.880 F15000
G92 E0
G1 X40.120 Y174.061 E0.1156 F2250
G1 X40.120 Y172.930 E0.2284
G1 X42.070 Y174.880 E0.5036
G1 X43.202 Y174.880 E0.6165
G1 X40.120 Y171.798 E1.0514
G1 X40.120 Y170.667 E1.1643
G1 X44.333 Y174.880 E1.7588
G1 X45.464 Y174.880 E1.8717
G1 X40.120 Y169.536 E2.6258
G1 X40.120 Y168.404 E2.7387
G1 X46.596 Y174.880 E3.6525
G1 X47.727 Y174.880 E3.7654
G1 X40.120 Y167.273 E4.8388
G1 X40.120 Y166.142 E4.9517
G1 X48.858 Y174.880 E6.1848
G1 X49.990 Y174.880 E6.2977
G1 X40.120 Y165.010 E7.6904
G1 X40.120 Y163.879 E7.8033
G1 X51.121 Y174.880 E9.3557
G1 X52.253 Y174.880 E9.4686
G1 X40.120 Y162.747 E11.1807
G1 X40.120 Y161.616 E11.2935
G1 X53.384 Y174.880 E13.1652
G1 X54.515 Y174.880 E13.2781
G1 X40.120 Y160.485 E15.3095
G1 X40.120 Y159.353 E15.4223
G1 X55.647 Y174.880 E17.6133
G1 X56.778 Y174.880 E17.7262
G1 X40.120 Y158.222 E20.0769
G1 X40.120 Y157.091 E20.1897
G1 X57.909 Y174.880 E22.7000
G1 X59.041 Y174.880 E22.8129
G1 X40.120 Y155.959 E25.4829
G1 X40.120 Y154.828 E25.5957
G1 X59.880 Y174.588 E28.3841
G1 X59.880 Y173.456 E28.4970
G1 X40.120 Y153.696 E31.2853
G1 X40.120 Y152.565 E31.3982
G1 X59.880 Y172.325 E34.1866
G1 X59.880 Y171.194 E34.2995
G1 X40.120 Y151.434 E37.0878
G1 X40.120 Y150.302 E37.2007
G1 X59.880 Y170.062 E39.9890
G1 X59.880 Y168.931 E40.1019
G1 X40.120 Y149.171 E42.8903
G1 X40.120 Y148.040 E43.0032
G1 X59.880 Y167.800 E45.7915
G1 X59.880 Y166.668 E45.9044
G1 X40.120 Y146.908 E48.6927
G1 X40.120 Y145.777 E48.8056
G1 X59.880 Y165.537 E51.5940
G1 X59.880 Y164.405 E51.7069
G1 X40.120 Y144.645 E54.4952
G1 X40.120 Y143.514 E54.6081
G1 X59.880 Y163.274 E57.3965
G1 X59.880 Y162.143 E57.5093
G1 X40.120 Y142.383 E60.2977
G1 X40.120 Y141.251 E60.4106
G1 X59.880 Y161.011 E63.1989
G1 X59.880 Y159.880 E63.3118
G1 X40.120 Y140.120 E66.1002
G1 X40.120 Y138.989 E66.2131
G1 X59.880 Y158.749 E69.0014
G1 X59.880 Y157.617 E69.1143
G1 X40.120 Y137.857 E71.9026
G1 X40.120 Y136.726 E72.0155
G1 X59.880 Y156.486 E74.8039
G1 X59.880 Y155.354 E74.9168
G1 X40.120 Y135.595 E77.7051
G1 X40.120 Y134.463 E77.8180
G1 X59.880 Y154.223 E80.6063
G1 X59.880 Y153.092 E80.7192
G1 X40.120 Y133.332 E83.5076
G1 X40.120 Y132.200 E83.6205
G1 X59.880 Y151.960 E86.4088
G1 X59.880 Y150.829 E86.5217
G1 X40.120 Y131.069 E89.3101
G1 X40.120 Y129.938 E89.4229
G1 X59.880 Y149.698 E92.2113
G1 X59.880 Y148.566 E92.3242
G1 X40.120 Y128.806 E95.1125
G1 X40.120 Y127.675 E95.2254
G1 X59.880 Y147.435 E98.0138
G1 X59.880 Y146.304 E98.1267
G1 X40.120 Y126.544 E100.9150
G1 X40.120 Y125.412 E101.0279
G1 X59.880 Y145.172 E103.8162
G1 X59.880 Y144.041 E103.9291
G1 X40.959 Y125.120 E106.5991
G1 X42.091 Y125.120 E106.7119
G1 X59.880 Y142.909 E109.2222
G1 X59.880 Y141.778 E109.3351
G1 X43.222 Y125.120 E111.6857
G1 X44.353 Y125.120 E111.7986
G1 X59.880 Y140.647 E113.9896
G1 X59.880 Y139.515 E114.1025
G1 X45.485 Y125.120 E116.1338
G1 X46.616 Y125.120 E116.2467
G1 X59.880 Y138.384 E118.1184
G1 X59.880 Y137.253 E118.2313
G1 X47.747 Y125.120 E119.9433
G1 X48.879 Y125.120 E120.0562
G1 X59.880 Y136.121 E121.6086
G1 X59.880 Y134.990 E121.7215
G1 X50.010 Y125.120 E123.1142
G1 X51.142 Y125.120 E123.2271
G1 X59.880 Y133.858 E124.4602
G1 X59.880 Y132.727 E124.5731
G1 X52.273 Y125.120 E125.6465
G1 X53.404 Y125.120 E125.7594
G1 X59.880 Y131.596 E126.6732
G1 X59.880 Y130.464 E126.7861
G1 X54.536 Y125.120 E127.5403
G1 X55.667 Y125.120 E127.6531
G1 X59.880 Y129.333 E128.2476
G1 X59.880 Y128.202 E128.3605
G1 X56.798 Y125.120 E128.7954
G1 X57.930 Y125.120 E128.9083
G1 X59.880 Y127.070 E129.1835
G1 X59.880 Y125.939 E129.2963
G1 X59.061 Y125.120 E129.4119
; layer end
G28 X0 ; home the X-axis
M104 S0 ; turn off heaters
M140 S0 ; turn off bed
M84 ; disable motors
M107 ; fan off
; Build Summary
;   Build time: 0 hours 3 minutes
;   Filament length: 352.7 mm (0.35 m)
;   Plastic volume: 848.42 mm^3 (0.85 cc)
;   Plastic weight: 1.06 g (0.00 lb)
;   Material cost: 0.03
