; G-Code generated by Simplify3D(R) Version 3.0.2
; Sep. 18, 2016 at 9:51:43 NACHM.
; Settings Summary
;   processName,Process1
;   applyToModels,quader_10x20
;   profileName,PLA-1.75mm-N80-advance (modified)
;   profileVersion,2016-08-18 13:01:26
;   baseProfile,PLA-1.75mm-N80
;   printMaterial,
;   printQuality,
;   printExtruders,
;   extruderName,Primary Extruder
;   extruderToolheadNumber,0
;   extruderDiameter,0.8
;   extruderAutoWidth,0
;   extruderWidth,0.8
;   extrusionMultiplier,1
;   extruderUseRetract,0
;   extruderRetractionDistance,4.5
;   extruderExtraRestartDistance,0
;   extruderRetractionZLift,0
;   extruderRetractionSpeed,2400
;   extruderUseCoasting,0
;   extruderCoastingDistance,1
;   extruderUseWipe,0
;   extruderWipeDistance,2
;   primaryExtruder,0
;   layerHeight,0.3
;   topSolidLayers,4
;   bottomSolidLayers,2
;   perimeterOutlines,2
;   printPerimetersInsideOut,1
;   startPointOption,3
;   startPointOriginX,0
;   startPointOriginY,0
;   startPointOriginZ,200
;   sequentialIslands,0
;   spiralVaseMode,0
;   firstLayerHeightPercentage,75
;   firstLayerWidthPercentage,100
;   firstLayerUnderspeed,0.3
;   useRaft,0
;   raftExtruder,0
;   raftLayers,1
;   raftOffset,3
;   raftSeparationDistance,0.14
;   raftInfill,50
;   disableRaftBaseLayers,1
;   useSkirt,1
;   skirtExtruder,0
;   skirtLayers,1
;   skirtOutlines,2
;   skirtOffset,3
;   usePrimePillar,0
;   primePillarExtruder,999
;   primePillarWidth,12
;   primePillarLocation,7
;   primePillarSpeedMultiplier,1
;   useOozeShield,0
;   oozeShieldExtruder,999
;   oozeShieldOffset,2
;   oozeShieldOutlines,1
;   oozeShieldSidewallShape,1
;   oozeShieldSidewallAngle,30
;   oozeShieldSpeedMultiplier,1
;   infillExtruder,0
;   internalInfillPattern,Rectilinear
;   externalInfillPattern,Rectilinear
;   infillPercentage,25
;   outlineOverlapPercentage,35
;   infillExtrusionWidthPercentage,100
;   minInfillLength,3
;   infillLayerInterval,2
;   infillAngles,45,-45
;   overlapInfillAngles,0
;   generateSupport,0
;   supportExtruder,0
;   supportInfillPercentage,30
;   supportExtraInflation,0
;   denseSupportLayers,0
;   denseSupportInfillPercentage,80
;   supportLayerInterval,1
;   supportHorizontalPartOffset,0.4
;   supportUpperSeparationLayers,1
;   supportLowerSeparationLayers,1
;   supportType,0
;   supportGridSpacing,2.5
;   maxOverhangAngle,45
;   supportAngles,45
;   temperatureName,Primary Extruder,Heated Build Platform
;   temperatureNumber,0,1
;   temperatureSetpointCount,1,1
;   temperatureSetpointLayers,1,1
;   temperatureSetpointTemperatures,205,60
;   temperatureStabilizeAtStartup,1,1
;   temperatureHeatedBed,0,1
;   temperatureRelayBetweenLayers,0,0
;   temperatureRelayBetweenLoops,0,0
;   fanLayers,1,2,3,4,5
;   fanSpeeds,0,25,50,75,100
;   blipFanToFullPower,1
;   adjustSpeedForCooling,1
;   minSpeedLayerTime,5
;   minCoolingSpeedSlowdown,10
;   increaseFanForCooling,0
;   minFanLayerTime,10
;   maxCoolingFanSpeed,30
;   increaseFanForBridging,0
;   bridgingFanSpeed,45
;   use5D,1
;   relativeEdistances,0
;   allowEaxisZeroing,1
;   independentExtruderAxes,0
;   includeM10123,0
;   stickySupport,1
;   applyToolheadOffsets,0
;   gcodeXoffset,0
;   gcodeYoffset,0
;   gcodeZoffset,0
;   overrideMachineDefinition,1
;   machineTypeOverride,0
;   strokeXoverride,225
;   strokeYoverride,225
;   strokeZoverride,212
;   originOffsetXoverride,0
;   originOffsetYoverride,0
;   originOffsetZoverride,0
;   homeXdirOverride,-1
;   homeYdirOverride,-1
;   homeZdirOverride,-1
;   flipXoverride,1
;   flipYoverride,-1
;   flipZoverride,1
;   toolheadOffsets,0,0|0,0|0,0|0,0|0,0|0,0
;   overrideFirmwareConfiguration,1
;   firmwareTypeOverride,RepRap (Marlin/Repetier/Sprinter)
;   GPXconfigOverride,r2
;   baudRateOverride,250000
;   overridePrinterModels,0
;   printerModelsOverride
;   startingGcode,M907 E1400 ; increase extruder current,G28 ; home all axes,;G1 X20 Y10 F3000 ; bring extruder to front,;G92 E0 ; zero the extruded length,;G1 Z10 ; lower,;G1 E19 F200 ; purge nozzle quickly,;G1 E26 F60 ; purge nozzle slowly,;G92 E0 ; zero the extruded length again,;G1 E-5.5 F400 ; retract,;G1 X190 Z0 F9000 ; pull away filament,;G1 X210 F9000 ; wipe,;G1 Y20 F9000 ; wipe,;G1 E0 ; feed filament back
;   layerChangeGcode,
;   retractionGcode,
;   toolChangeGcode,
;   endingGcode,G28 X0 ; home the X-axis,M104 S0 ; turn off heaters,M140 S0 ; turn off bed,M84 ; disable motors,M107 ; fan off
;   createX3G,0
;   celebration,0
;   celebrationSong,Random Song
;   createMB5G,0
;   postProcessing,
;   defaultSpeed,4500
;   outlineUnderspeed,1
;   solidInfillUnderspeed,0.5
;   supportUnderspeed,1
;   rapidXYspeed,15000
;   rapidZspeed,1998
;   minBridgingArea,5
;   bridgingExtraInflation,0
;   bridgingExtrusionMultiplier,1
;   bridgingSpeedMultiplier,0.5
;   filamentDiameter,1.75
;   filamentPricePerKg,25
;   filamentDensity,1.25
;   useMinPrintHeight,0
;   minPrintHeight,0
;   useMaxPrintHeight,0
;   maxPrintHeight,0
;   useDiaphragm,0
;   diaphragmLayerInterval,20
;   robustSlicing,1
;   mergeAllIntoSolid,0
;   onlyRetractWhenCrossingOutline,1
;   retractBetweenLayers,0
;   useRetractionMinTravel,1
;   retractionMinTravel,0.02
;   retractWhileWiping,0
;   onlyWipeOutlines,1
;   avoidCrossingOutline,0
;   maxMovementDetourFactor,3
;   toolChangeRetractionDistance,12
;   toolChangeExtraRestartDistance,-0.5
;   toolChangeRetractionSpeed,600
;   allowThinWallGapFill,1
;   thinWallAllowedOverlapPercentage,10
;   horizontalSizeCompensation,0
G90
M82
M106 S0
M140 S60
M190 S60
M104 S205 T0
M109 S205 T0
M907 E1400 ; increase extruder current
G28 ; home all axes
;G1 X20 Y10 F3000 ; bring extruder to front
;G92 E0 ; zero the extruded length
;G1 Z10 ; lower
;G1 E19 F200 ; purge nozzle quickly
;G1 E26 F60 ; purge nozzle slowly
;G92 E0 ; zero the extruded length again
;G1 E-5.5 F400 ; retract
;G1 X190 Z0 F9000 ; pull away filament
;G1 X210 F9000 ; wipe
;G1 Y20 F9000 ; wipe
;G1 E0 ; feed filament back
G92 E0
G1 E-4.5000 F2400
G1 Z0.225 F1998
; layer 1, Z = 0.225
T0
; tool H0.300 W0.800
; skirt
G1 X41.919 Y134.200 F15000
G1 E0.0000 F720
G92 E0
G1 X58.081 Y134.200 E1.6127 F1350
G1 X58.522 Y134.383 E1.6604
G1 X60.617 Y136.478 E1.9560
G1 X60.800 Y136.919 E2.0036
G1 X60.800 Y163.081 E4.6141
G1 X60.617 Y163.522 E4.6618
G1 X58.522 Y165.617 E4.9574
G1 X58.081 Y165.800 E5.0050
G1 X41.919 Y165.800 E6.6177
G1 X41.478 Y165.617 E6.6654
G1 X39.383 Y163.522 E6.9610
G1 X39.200 Y163.081 E7.0086
G1 X39.200 Y136.919 E9.6191
G1 X39.383 Y136.478 E9.6668
G1 X41.478 Y134.383 E9.9624
G1 X41.919 Y134.200 E10.0100
G1 X42.078 Y135.000 F15000
G92 E0
G1 X57.922 Y135.000 E1.5810 F1350
G1 X58.069 Y135.061 E1.5968
G1 X59.939 Y136.931 E1.8607
G1 X60.000 Y137.078 E1.8766
G1 X60.000 Y162.922 E4.4553
G1 X59.939 Y163.069 E4.4712
G1 X58.069 Y164.939 E4.7351
G1 X57.922 Y165.000 E4.7510
G1 X42.078 Y165.000 E6.3319
G1 X41.931 Y164.939 E6.3478
G1 X40.061 Y163.069 E6.6117
G1 X40.000 Y162.922 E6.6275
G1 X40.000 Y137.078 E9.2063
G1 X40.061 Y136.931 E9.2222
G1 X41.931 Y135.061 E9.4860
G1 X42.078 Y135.000 E9.5019
; inner perimeter
G1 X44.600 Y160.400 F15000
G92 E0
G1 X44.600 Y139.600 E2.0754 F1350
G1 X55.400 Y139.600 E3.1531
G1 X55.400 Y160.400 E5.2285
G1 X44.600 Y160.400 E6.3061
; outer perimeter
G1 X43.800 Y161.200 F15000
G92 E0
G1 X43.800 Y138.800 E2.2351 F1350
G1 X56.200 Y138.800 E3.4724
G1 X56.200 Y161.200 E5.7074
G1 X43.800 Y161.200 E6.9447
; solid layer
G1 X54.880 Y159.828 F15000
G92 E0
G1 X54.828 Y159.880 E0.0074 F675
G1 X53.696 Y159.880 E0.1202
G1 X54.880 Y158.697 E0.2872
G1 X54.880 Y157.565 E0.4001
G1 X52.565 Y159.880 E0.7268
G1 X51.434 Y159.880 E0.8397
G1 X54.880 Y156.434 E1.3260
G1 X54.880 Y155.302 E1.4389
G1 X50.302 Y159.880 E2.0848
G1 X49.171 Y159.880 E2.1977
G1 X54.880 Y154.171 E3.0033
G1 X54.880 Y153.040 E3.1162
G1 X48.040 Y159.880 E4.0814
G1 X46.908 Y159.880 E4.1943
G1 X54.880 Y151.908 E5.3192
G1 X54.880 Y150.777 E5.4321
G1 X45.777 Y159.880 E6.7167
G1 X45.120 Y159.880 E6.7822
G1 X45.120 Y159.406 E6.8296
G1 X54.880 Y149.646 E8.2068
G1 X54.880 Y148.514 E8.3197
G1 X45.120 Y158.274 E9.6969
G1 X45.120 Y157.143 E9.8098
G1 X54.880 Y147.383 E11.1870
G1 X54.880 Y146.251 E11.2999
G1 X45.120 Y156.011 E12.6772
G1 X45.120 Y154.880 E12.7901
G1 X54.880 Y145.120 E14.1673
G1 X54.880 Y143.989 E14.2802
G1 X45.120 Y153.749 E15.6574
G1 X45.120 Y152.617 E15.7703
G1 X54.880 Y142.857 E17.1476
G1 X54.880 Y141.726 E17.2605
G1 X45.120 Y151.486 E18.6377
G1 X45.120 Y150.355 E18.7506
G1 X54.880 Y140.595 E20.1278
G1 X54.880 Y140.120 E20.1752
G1 X54.223 Y140.120 E20.2407
G1 X45.120 Y149.223 E21.5253
G1 X45.120 Y148.092 E21.6382
G1 X53.092 Y140.120 E22.7631
G1 X51.960 Y140.120 E22.8760
G1 X45.120 Y146.960 E23.8412
G1 X45.120 Y145.829 E23.9541
G1 X50.829 Y140.120 E24.7597
G1 X49.698 Y140.120 E24.8726
G1 X45.120 Y144.698 E25.5186
G1 X45.120 Y143.566 E25.6315
G1 X48.566 Y140.120 E26.1178
G1 X47.435 Y140.120 E26.2307
G1 X45.120 Y142.435 E26.5573
G1 X45.120 Y141.304 E26.6702
G1 X46.304 Y140.120 E26.8372
G1 X45.172 Y140.120 E26.9501
G1 X45.120 Y140.172 E26.9575
; layer 2, Z = 0.525
M106 S255
G4 P500
M106 S63
; inner perimeter
G1 X44.600 Y160.400 F15000
G1 Z0.525 F1998
G92 E0
G1 X44.600 Y139.600 E2.0754 F4500
G1 X55.400 Y139.600 E3.1531
G1 X55.400 Y160.400 E5.2285
G1 X44.600 Y160.400 E6.3061
; outer perimeter
G1 X43.800 Y161.200 F15000
G92 E0
G1 X43.800 Y138.800 E2.2351 F4500
G1 X56.200 Y138.800 E3.4724
G1 X56.200 Y161.200 E5.7074
G1 X43.800 Y161.200 E6.9447
; solid layer
G1 X45.172 Y159.880 F15000
G92 E0
G1 X45.120 Y159.828 E0.0074 F2250
G1 X45.120 Y158.696 E0.1203
G1 X46.304 Y159.880 E0.2873
G1 X47.435 Y159.880 E0.4002
G1 X45.120 Y157.565 E0.7268
G1 X45.120 Y156.434 E0.8397
G1 X48.566 Y159.880 E1.3260
G1 X49.698 Y159.880 E1.4389
G1 X45.120 Y155.302 E2.0849
G1 X45.120 Y154.171 E2.1977
G1 X50.829 Y159.880 E3.0034
G1 X51.960 Y159.880 E3.1162
G1 X45.120 Y153.040 E4.0815
G1 X45.120 Y151.908 E4.1944
G1 X53.092 Y159.880 E5.3193
G1 X54.223 Y159.880 E5.4322
G1 X45.120 Y150.777 E6.7167
G1 X45.120 Y149.645 E6.8296
G1 X54.880 Y159.405 E8.2069
G1 X54.880 Y158.274 E8.3198
G1 X45.120 Y148.514 E9.6970
G1 X45.120 Y147.383 E9.8099
G1 X54.880 Y157.143 E11.1871
G1 X54.880 Y156.011 E11.3000
G1 X45.120 Y146.251 E12.6772
G1 X45.120 Y145.120 E12.7901
G1 X54.880 Y154.880 E14.1674
G1 X54.880 Y153.749 E14.2803
G1 X45.120 Y143.989 E15.6575
G1 X45.120 Y142.857 E15.7704
G1 X54.880 Y152.617 E17.1476
G1 X54.880 Y151.486 E17.2605
G1 X45.120 Y141.726 E18.6378
G1 X45.120 Y140.595 E18.7507
G1 X54.880 Y150.355 E20.1279
G1 X54.880 Y149.223 E20.2408
G1 X45.777 Y140.120 E21.5253
G1 X46.908 Y140.120 E21.6382
G1 X54.880 Y148.092 E22.7631
G1 X54.880 Y146.960 E22.8760
G1 X48.040 Y140.120 E23.8413
G1 X49.171 Y140.120 E23.9542
G1 X54.880 Y145.829 E24.7598
G1 X54.880 Y144.698 E24.8727
G1 X50.302 Y140.120 E25.5186
G1 X51.434 Y140.120 E25.6315
G1 X54.880 Y143.566 E26.1178
G1 X54.880 Y142.435 E26.2307
G1 X52.565 Y140.120 E26.5574
G1 X53.696 Y140.120 E26.6702
G1 X54.880 Y141.304 E26.8373
G1 X54.880 Y140.172 E26.9501
G1 X54.828 Y140.120 E26.9575
; layer 3, Z = 0.825
M106 S127
; inner perimeter
G1 X44.600 Y160.400 F15000
G1 Z0.825 F1998
G92 E0
G1 X44.600 Y139.600 E2.0754 F4500
G1 X55.400 Y139.600 E3.1531
G1 X55.400 Y160.400 E5.2285
G1 X44.600 Y160.400 E6.3061
; outer perimeter
G1 X43.800 Y161.200 F15000
G92 E0
G1 X43.800 Y138.800 E2.2351 F4500
G1 X56.200 Y138.800 E3.4724
G1 X56.200 Y161.200 E5.7074
G1 X43.800 Y161.200 E6.9447
; solid layer
G1 X54.880 Y159.828 F15000
G92 E0
G1 X54.828 Y159.880 E0.0074 F2250
G1 X53.696 Y159.880 E0.1202
G1 X54.880 Y158.697 E0.2872
G1 X54.880 Y157.565 E0.4001
G1 X52.565 Y159.880 E0.7268
G1 X51.434 Y159.880 E0.8397
G1 X54.880 Y156.434 E1.3260
G1 X54.880 Y155.302 E1.4389
G1 X50.302 Y159.880 E2.0848
G1 X49.171 Y159.880 E2.1977
G1 X54.880 Y154.171 E3.0033
G1 X54.880 Y153.040 E3.1162
G1 X48.040 Y159.880 E4.0814
G1 X46.908 Y159.880 E4.1943
G1 X54.880 Y151.908 E5.3192
G1 X54.880 Y150.777 E5.4321
G1 X45.777 Y159.880 E6.7167
G1 X45.120 Y159.880 E6.7822
G1 X45.120 Y159.406 E6.8296
G1 X54.880 Y149.646 E8.2068
G1 X54.880 Y148.514 E8.3197
G1 X45.120 Y158.274 E9.6969
G1 X45.120 Y157.143 E9.8098
G1 X54.880 Y147.383 E11.1870
G1 X54.880 Y146.251 E11.2999
G1 X45.120 Y156.011 E12.6772
G1 X45.120 Y154.880 E12.7901
G1 X54.880 Y145.120 E14.1673
G1 X54.880 Y143.989 E14.2802
G1 X45.120 Y153.749 E15.6574
G1 X45.120 Y152.617 E15.7703
G1 X54.880 Y142.857 E17.1476
G1 X54.880 Y141.726 E17.2605
G1 X45.120 Y151.486 E18.6377
G1 X45.120 Y150.355 E18.7506
G1 X54.880 Y140.595 E20.1278
G1 X54.880 Y140.120 E20.1752
G1 X54.223 Y140.120 E20.2407
G1 X45.120 Y149.223 E21.5253
G1 X45.120 Y148.092 E21.6382
G1 X53.092 Y140.120 E22.7631
G1 X51.960 Y140.120 E22.8760
G1 X45.120 Y146.960 E23.8412
G1 X45.120 Y145.829 E23.9541
G1 X50.829 Y140.120 E24.7597
G1 X49.698 Y140.120 E24.8726
G1 X45.120 Y144.698 E25.5186
G1 X45.120 Y143.566 E25.6315
G1 X48.566 Y140.120 E26.1178
G1 X47.435 Y140.120 E26.2307
G1 X45.120 Y142.435 E26.5573
G1 X45.120 Y141.304 E26.6702
G1 X46.304 Y140.120 E26.8372
G1 X45.172 Y140.120 E26.9501
G1 X45.120 Y140.172 E26.9575
; layer 4, Z = 1.125
M106 S191
; inner perimeter
; outer perimeter
G1 X43.800 Y161.200 F15000
G1 Z1.125 F1998
G92 E0
G1 X43.800 Y138.800 E2.2351 F1594
G1 X56.200 Y138.800 E3.4724
G1 X56.200 Y161.200 E5.7074
G1 X43.800 Y161.200 E6.9447
; inner perimeter
; outer perimeter
G1 X44.600 Y160.400 F15000
G92 E0
G1 X55.400 Y160.400 E1.0776 F1594
G1 X55.400 Y139.600 E3.1531
G1 X44.600 Y139.600 E4.2307
G1 X44.600 Y160.400 E6.3061
; layer 5, Z = 1.425
M106 S255
; inner perimeter
; outer perimeter
G1 X43.800 Y161.200 F15000
G1 Z1.425 F1998
G92 E0
G1 X43.800 Y138.800 E2.2351 F1594
G1 X56.200 Y138.800 E3.4724
G1 X56.200 Y161.200 E5.7074
G1 X43.800 Y161.200 E6.9447
; inner perimeter
; outer perimeter
G1 X44.600 Y160.400 F15000
G92 E0
G1 X55.400 Y160.400 E1.0776 F1594
G1 X55.400 Y139.600 E3.1531
G1 X44.600 Y139.600 E4.2307
G1 X44.600 Y160.400 E6.3061
; layer 6, Z = 1.725
; inner perimeter
; outer perimeter
G1 X43.800 Y161.200 F15000
G1 Z1.725 F1998
G92 E0
G1 X43.800 Y138.800 E2.2351 F1594
G1 X56.200 Y138.800 E3.4724
G1 X56.200 Y161.200 E5.7074
G1 X43.800 Y161.200 E6.9447
; inner perimeter
; outer perimeter
G1 X44.600 Y160.400 F15000
G92 E0
G1 X55.400 Y160.400 E1.0776 F1594
G1 X55.400 Y139.600 E3.1531
G1 X44.600 Y139.600 E4.2307
G1 X44.600 Y160.400 E6.3061
; layer 7, Z = 2.025
; inner perimeter
; outer perimeter
G1 X43.800 Y161.200 F15000
G1 Z2.025 F1998
G92 E0
G1 X43.800 Y138.800 E2.2351 F1594
G1 X56.200 Y138.800 E3.4724
G1 X56.200 Y161.200 E5.7074
G1 X43.800 Y161.200 E6.9447
; inner perimeter
; outer perimeter
G1 X44.600 Y160.400 F15000
G92 E0
G1 X55.400 Y160.400 E1.0776 F1594
G1 X55.400 Y139.600 E3.1531
G1 X44.600 Y139.600 E4.2307
G1 X44.600 Y160.400 E6.3061
; layer 8, Z = 2.325
; inner perimeter
; outer perimeter
G1 X43.800 Y161.200 F15000
G1 Z2.325 F1998
G92 E0
G1 X43.800 Y138.800 E2.2351 F1594
G1 X56.200 Y138.800 E3.4724
G1 X56.200 Y161.200 E5.7074
G1 X43.800 Y161.200 E6.9447
; inner perimeter
; outer perimeter
G1 X44.600 Y160.400 F15000
G92 E0
G1 X55.400 Y160.400 E1.0776 F1594
G1 X55.400 Y139.600 E3.1531
G1 X44.600 Y139.600 E4.2307
G1 X44.600 Y160.400 E6.3061
; layer 9, Z = 2.625
; inner perimeter
; outer perimeter
G1 X43.800 Y161.200 F15000
G1 Z2.625 F1998
G92 E0
G1 X43.800 Y138.800 E2.2351 F1594
G1 X56.200 Y138.800 E3.4724
G1 X56.200 Y161.200 E5.7074
G1 X43.800 Y161.200 E6.9447
; inner perimeter
; outer perimeter
G1 X44.600 Y160.400 F15000
G92 E0
G1 X55.400 Y160.400 E1.0776 F1594
G1 X55.400 Y139.600 E3.1531
G1 X44.600 Y139.600 E4.2307
G1 X44.600 Y160.400 E6.3061
; layer 10, Z = 2.925
; inner perimeter
; outer perimeter
G1 X43.800 Y161.200 F15000
G1 Z2.925 F1998
G92 E0
G1 X43.800 Y138.800 E2.2351 F1594
G1 X56.200 Y138.800 E3.4724
G1 X56.200 Y161.200 E5.7074
G1 X43.800 Y161.200 E6.9447
; inner perimeter
; outer perimeter
G1 X44.600 Y160.400 F15000
G92 E0
G1 X55.400 Y160.400 E1.0776 F1594
G1 X55.400 Y139.600 E3.1531
G1 X44.600 Y139.600 E4.2307
G1 X44.600 Y160.400 E6.3061
; layer 11, Z = 3.225
; inner perimeter
; outer perimeter
G1 X43.800 Y161.200 F15000
G1 Z3.225 F1998
G92 E0
