
; G-Code generated by Simplify3D(R) Version 3.0.1
; Aug. 10, 2015 at 1:10:31 VORM.
; Settings Summary
;   processName,Process1
;   applyToModels,fan_mount_verstaerkt
;   profileName,first08 (modified)
;   profileVersion,2015-08-08 12:00:13
;   baseProfile,Ultimaker 2 (modified)
;   printMaterial,PLA
;   printQuality,Medium
;   printExtruders,
;   extruderName,Primary Extruder
;   extruderToolheadNumber,0
;   extruderDiameter,0.8
;   extruderAutoWidth,0
;   extruderWidth,0.8
;   extrusionMultiplier,1
;   extruderUseRetract,1
;   extruderRetractionDistance,5
;   extruderExtraRestartDistance,0.1
;   extruderRetractionZLift,0
;   extruderRetractionSpeed,2400
;   extruderUseCoasting,1
;   extruderCoastingDistance,1
;   extruderUseWipe,0
;   extruderWipeDistance,2
;   primaryExtruder,0
;   layerHeight,0.15
;   topSolidLayers,4
;   bottomSolidLayers,3
;   perimeterOutlines,2
;   printPerimetersInsideOut,1
;   startPointOption,2
;   startPointOriginX,0
;   startPointOriginY,0
;   startPointOriginZ,300
;   sequentialIslands,0
;   spiralVaseMode,0
;   firstLayerHeightPercentage,130
;   firstLayerWidthPercentage,120
;   firstLayerUnderspeed,0.23
;   useRaft,0
;   raftExtruder,0
;   raftLayers,3
;   raftOffset,3
;   raftSeparationDistance,0.14
;   raftInfill,85
;   disableRaftBaseLayers,0
;   useSkirt,1
;   skirtExtruder,0
;   skirtLayers,1
;   skirtOutlines,2
;   skirtOffset,2
;   usePrimePillar,0
;   primePillarExtruder,999
;   primePillarWidth,12
;   primePillarLocation,7
;   primePillarSpeedMultiplier,1
;   useOozeShield,0
;   oozeShieldExtruder,999
;   oozeShieldOffset,2
;   oozeShieldOutlines,1
;   oozeShieldSidewallShape,1
;   oozeShieldSidewallAngle,30
;   oozeShieldSpeedMultiplier,1
;   infillExtruder,0
;   internalInfillPattern,Rectilinear
;   externalInfillPattern,Rectilinear
;   infillPercentage,30
;   outlineOverlapPercentage,35
;   infillExtrusionWidthPercentage,110
;   minInfillLength,3
;   infillLayerInterval,1
;   infillAngles,45,-45
;   overlapInfillAngles,0
;   generateSupport,1
;   supportExtruder,0
;   supportInfillPercentage,50
;   supportExtraInflation,0
;   denseSupportLayers,0
;   denseSupportInfillPercentage,70
;   supportLayerInterval,1
;   supportHorizontalPartOffset,0.3
;   supportUpperSeparationLayers,1
;   supportLowerSeparationLayers,1
;   supportType,0
;   supportGridSpacing,8
;   maxOverhangAngle,45
;   supportAngles,0
;   temperatureName
;   temperatureNumber
;   temperatureSetpointCount
;   temperatureSetpointLayers
;   temperatureSetpointTemperatures
;   temperatureStabilizeAtStartup
;   temperatureHeatedBed
;   temperatureRelayBetweenLayers
;   temperatureRelayBetweenLoops
;   fanLayers,1,2
;   fanSpeeds,0,100
;   blipFanToFullPower,1
;   adjustSpeedForCooling,1
;   minSpeedLayerTime,5
;   minCoolingSpeedSlowdown,10
;   increaseFanForCooling,0
;   minFanLayerTime,10
;   maxCoolingFanSpeed,30
;   increaseFanForBridging,0
;   bridgingFanSpeed,45
;   use5D,1
;   relativeEdistances,0
;   allowEaxisZeroing,1
;   independentExtruderAxes,0
;   includeM10123,0
;   stickySupport,1
;   applyToolheadOffsets,0
;   gcodeXoffset,0
;   gcodeYoffset,0
;   gcodeZoffset,0
;   overrideMachineDefinition,1
;   machineTypeOverride,0
;   strokeXoverride,225
;   strokeYoverride,225
;   strokeZoverride,212
;   originOffsetXoverride,0
;   originOffsetYoverride,0
;   originOffsetZoverride,0
;   homeXdirOverride,-1
;   homeYdirOverride,-1
;   homeZdirOverride,-1
;   flipXoverride,1
;   flipYoverride,-1
;   flipZoverride,1
;   toolheadOffsets,0,0|0,0|0,0|0,0|0,0|0,0
;   overrideFirmwareConfiguration,1
;   firmwareTypeOverride,RepRap (Marlin/Repetier/Sprinter)
;   GPXconfigOverride,r2
;   baudRateOverride,250000
;   overridePrinterModels,1
;   printerModelsOverride
;   startingGcode,M907 E1400 ; increase extruder current,G28 ; home all axes,;G1 X20 Y10 F3000 ; bring extruder to front,;G92 E0 ; zero the extruded length,;G1 Z10 ; lower,;G1 E19 F200 ; purge nozzle quickly,;G1 E26 F60 ; purge nozzle slowly,;G92 E0 ; zero the extruded length again,;G1 E-5.5 F400 ; retract,;G1 X190 Z0 F9000 ; pull away filament,;G1 X210 F9000 ; wipe,;G1 Y20 F9000 ; wipe,;G1 E0 ; feed filament back
;   layerChangeGcode,
;   retractionGcode,
;   toolChangeGcode,
;   endingGcode,G28 X0 ; home the X-axis,M104 S0 ; turn off heaters,M140 S0 ; turn off bed,M84 ; disable motors,M107 ; fan off
;   createX3G,0
;   celebration,0
;   celebrationSong,Random Song
;   createMB5G,0
;   postProcessing,
;   defaultSpeed,5100
;   outlineUnderspeed,0.8
;   solidInfillUnderspeed,0.45
;   supportUnderspeed,0.3
;   rapidXYspeed,12000
;   rapidZspeed,1998
;   minBridgingArea,5
;   bridgingExtraInflation,0
;   bridgingExtrusionMultiplier,1
;   bridgingSpeedMultiplier,0.5
;   filamentDiameter,3
;   filamentPricePerKg,25
;   filamentDensity,1.25
;   useMinPrintHeight,0
;   minPrintHeight,0
;   useMaxPrintHeight,0
;   maxPrintHeight,0
;   useDiaphragm,0
;   diaphragmLayerInterval,20
;   robustSlicing,1
;   mergeAllIntoSolid,0
;   onlyRetractWhenCrossingOutline,1
;   retractBetweenLayers,0
;   useRetractionMinTravel,1
;   retractionMinTravel,0.02
;   retractWhileWiping,0
;   onlyWipeOutlines,1
;   avoidCrossingOutline,0
;   maxMovementDetourFactor,3
;   toolChangeRetractionDistance,12
;   toolChangeExtraRestartDistance,-0.5
;   toolChangeRetractionSpeed,600
;   allowThinWallGapFill,1
;   thinWallAllowedOverlapPercentage,10
;   horizontalSizeCompensation,0
G90
M82
M106 S0
M907 E1400 ; increase extruder current
G28 ; home all axes
;G1 X20 Y10 F3000 ; bring extruder to front
;G92 E0 ; zero the extruded length
;G1 Z10 ; lower
;G1 E19 F200 ; purge nozzle quickly
;G1 E26 F60 ; purge nozzle slowly
;G92 E0 ; zero the extruded length again
;G1 E-5.5 F400 ; retract
;G1 X190 Z0 F9000 ; pull away filament
;G1 X210 F9000 ; wipe
;G1 Y20 F9000 ; wipe
;G1 E0 ; feed filament back
G92 E0
G1 E-5.0000 F2400
G1 Z0.195 F1998
; layer 82, Z = 12.345
; tool H0.150 W0.800
; inner perimeter
G1 X18.045 Y115.249 F12000
G1 Z12.345 F1998
G92 E0
G1 X35.393 Y152.052 E0.0517 F5100
G1 X39.541 Y152.052 E0.1292
G1 X33.210 Y158.384 E0.2964
G1 X32.949 Y158.751 E0.3048
G1 X32.620 Y159.120 E0.3141
G1 X32.435 Y159.285 E0.3187
G1 X33.175 Y159.275 E0.3325
G1 X34.073 Y159.322 E0.3493
G1 X34.821 Y159.408 E0.3634
G1 X35.590 Y159.528 E0.3779
G1 X36.102 Y159.640 E0.3877
G1 X43.690 Y152.052 E0.5881
G1 X47.838 Y152.052 E0.6655
G1 X39.127 Y160.763 E0.8956
G1 X39.558 Y160.996 E0.9047
G1 X40.125 Y161.341 E0.9171
G1 X40.925 Y161.889 E0.9352
G1 X41.494 Y162.322 E0.9486
G1 X41.617 Y162.422 E0.9515
G1 X44.645 Y159.394 E1.0315
G1 X44.850 Y159.686 E1.0382
G1 X45.214 Y160.064 E1.0480
G1 X45.633 Y160.383 E1.0578
G1 X46.095 Y160.635 E1.0676
G1 X46.590 Y160.812 E1.0774
G1 X47.106 Y160.912 E1.0873
G1 X47.268 Y160.919 E1.0903
G1 X43.813 Y164.374 E1.1815
G1 X44.147 Y164.714 E1.1904
G1 X44.970 Y165.618 E1.2133
G1 X45.378 Y166.101 E1.2251
G1 X45.759 Y166.576 E1.2364
G1 X49.740 Y162.595 E1.3416
G1 X49.740 Y166.744 E1.4190
G1 X47.495 Y168.989 E1.4783
G1 X47.863 Y169.546 E1.4908
G1 X48.211 Y170.165 E1.5041
G1 X48.499 Y170.796 E1.5170
G1 X48.671 Y171.273 E1.5265
G1 X48.793 Y171.717 E1.5351
G1 X48.803 Y171.829 E1.5372
G1 X49.033 Y171.599 E1.5433
G1 X49.740 Y170.892 F5100
G92 E0
G1 E-5.0000 F2400
G1 X27.511 Y159.934 F12000
G1 E0.1000 F2400
G92 E0
G1 X26.564 Y160.881 E0.0250 F5100
G1 X26.459 Y160.934 E0.0272
G1 X25.601 Y161.413 E0.0456
G1 X24.741 Y161.953 E0.0645
G1 X23.901 Y162.544 E0.0837
G1 X23.086 Y163.172 E0.1029
G1 X22.305 Y163.833 E0.1220
G1 X21.709 Y164.375 E0.1371
G1 X21.143 Y164.923 E0.1518
G1 X20.607 Y165.474 E0.1661
G1 X20.102 Y166.025 E0.1801
G1 X19.622 Y166.581 E0.1938
G1 X18.800 Y167.625 E0.2186
G1 X18.474 Y168.083 E0.2291
G1 X17.977 Y168.698 E0.2439
G1 X17.623 Y169.199 E0.2553
G1 X17.337 Y169.654 E0.2654
G1 X17.074 Y170.125 E0.2755
G1 X16.849 Y170.596 E0.2852
G1 X15.967 Y171.478 E0.3085
G1 X15.260 Y172.185 F5100
G1 X18.322 Y160.826 F12000
G92 E0
G1 X15.260 Y163.888 E0.0809 F5100
G1 X15.260 Y168.037 E0.1583
G1 X25.483 Y157.814 E0.4283
G1 X25.336 Y157.457 E0.4355
G1 X25.199 Y156.982 E0.4448
G1 X25.116 Y156.494 E0.4540
G1 X25.088 Y156.000 E0.4632
G1 X25.091 Y155.950 E0.4642
G1 X25.116 Y155.506 E0.4725
G1 X25.186 Y155.090 E0.4804
G1 X25.186 Y155.090 E0.4804
G1 X25.198 Y155.020 E0.4817
G1 X25.326 Y154.576 E0.4903
G1 X25.336 Y154.543 E0.4910
G1 X25.495 Y154.158 E0.4988
G1 X25.521 Y154.094 E0.5000
G1 X25.522 Y154.092 E0.5001
G1 X25.608 Y153.886 E0.5042
G1 X25.635 Y153.886 E0.5048
G1 X25.726 Y153.721 E0.5083
G1 X25.758 Y153.663 E0.5095
G1 X25.759 Y153.661 E0.5095
G1 X25.764 Y153.653 E0.5097
G1 X26.004 Y153.315 E0.5175
G1 X26.043 Y153.260 E0.5187
G1 X26.044 Y153.259 E0.5188
G1 X26.051 Y153.249 E0.5190
G1 X26.330 Y152.937 E0.5268
G1 X26.370 Y152.892 E0.5279
G1 X26.371 Y152.891 E0.5280
G1 X26.380 Y152.880 E0.5282
G1 X26.690 Y152.604 E0.5360
G1 X26.739 Y152.560 E0.5372
G1 X26.741 Y152.558 E0.5372
G1 X26.750 Y152.550 E0.5375
G1 X27.086 Y152.312 E0.5452
G1 X27.142 Y152.272 E0.5464
G1 X27.143 Y152.271 E0.5465
G1 X27.153 Y152.264 E0.5467
G1 X27.513 Y152.065 E0.5544
G1 X27.536 Y152.052 E0.5549
G1 X27.096 Y152.052 E0.5631
G1 X20.825 Y158.323 E0.7287
G1 X20.895 Y158.024 E0.7344
G1 X20.935 Y157.500 E0.7443
G1 X20.895 Y156.976 E0.7541
G1 X20.775 Y156.464 E0.7639
G1 X20.578 Y155.976 E0.7737
G1 X20.310 Y155.524 E0.7836
G1 X19.975 Y155.118 E0.7934
G1 X19.926 Y155.074 E0.7946
G1 X22.948 Y152.052 E0.8744
G1 X18.799 Y152.052 E0.9519
G1 X17.389 Y153.463 E0.9891
G1 X16.682 Y154.170 F5100
G92 E0
G1 E-5.0000 F2400
G1 X15.263 Y114.105 F12000
G1 E0.1000 F2400
