; G-Code generated by Simplify3D(R) Version 3.0.1
; Mai 13, 2016 at 5:02:57 NACHM.
; Settings Summary
;   processName,Process1
;   applyToModels,square_150
;   profileName,PLA-1.75mm-N80 (modified)
;   profileVersion,2016-05-01 10:03:38
;   baseProfile,
;   printMaterial,
;   printQuality,
;   printExtruders,
;   extruderName,Primary Extruder
;   extruderToolheadNumber,0
;   extruderDiameter,0.8
;   extruderAutoWidth,0
;   extruderWidth,0.8
;   extrusionMultiplier,1
;   extruderUseRetract,0
;   extruderRetractionDistance,4.5
;   extruderExtraRestartDistance,0
;   extruderRetractionZLift,0
;   extruderRetractionSpeed,2400
;   extruderUseCoasting,0
;   extruderCoastingDistance,1
;   extruderUseWipe,0
;   extruderWipeDistance,2
;   primaryExtruder,0
;   layerHeight,0.2
;   topSolidLayers,4
;   bottomSolidLayers,2
;   perimeterOutlines,2
;   printPerimetersInsideOut,1
;   startPointOption,2
;   startPointOriginX,0
;   startPointOriginY,0
;   startPointOriginZ,300
;   sequentialIslands,0
;   spiralVaseMode,0
;   firstLayerHeightPercentage,80
;   firstLayerWidthPercentage,100
;   firstLayerUnderspeed,0.3
;   useRaft,0
;   raftExtruder,0
;   raftLayers,1
;   raftOffset,3
;   raftSeparationDistance,0.14
;   raftInfill,50
;   disableRaftBaseLayers,1
;   useSkirt,1
;   skirtExtruder,0
;   skirtLayers,1
;   skirtOutlines,2
;   skirtOffset,3
;   usePrimePillar,0
;   primePillarExtruder,999
;   primePillarWidth,12
;   primePillarLocation,7
;   primePillarSpeedMultiplier,1
;   useOozeShield,0
;   oozeShieldExtruder,999
;   oozeShieldOffset,2
;   oozeShieldOutlines,1
;   oozeShieldSidewallShape,1
;   oozeShieldSidewallAngle,30
;   oozeShieldSpeedMultiplier,1
;   infillExtruder,0
;   internalInfillPattern,Rectilinear
;   externalInfillPattern,Rectilinear
;   infillPercentage,25
;   outlineOverlapPercentage,35
;   infillExtrusionWidthPercentage,100
;   minInfillLength,3
;   infillLayerInterval,1
;   infillAngles,45,-45
;   overlapInfillAngles,0
;   generateSupport,1
;   supportExtruder,0
;   supportInfillPercentage,10
;   supportExtraInflation,0
;   denseSupportLayers,0
;   denseSupportInfillPercentage,80
;   supportLayerInterval,1
;   supportHorizontalPartOffset,0.4
;   supportUpperSeparationLayers,1
;   supportLowerSeparationLayers,1
;   supportType,0
;   supportGridSpacing,2.5
;   maxOverhangAngle,45
;   supportAngles,45
;   temperatureName,Primary Extruder,Heated Build Platform
;   temperatureNumber,0,1
;   temperatureSetpointCount,1,1
;   temperatureSetpointLayers,1,1
;   temperatureSetpointTemperatures,205,60
;   temperatureStabilizeAtStartup,1,1
;   temperatureHeatedBed,0,1
;   temperatureRelayBetweenLayers,0,0
;   temperatureRelayBetweenLoops,0,0
;   fanLayers,1,2,3,4,5
;   fanSpeeds,0,25,50,75,100
;   blipFanToFullPower,1
;   adjustSpeedForCooling,1
;   minSpeedLayerTime,5
;   minCoolingSpeedSlowdown,10
;   increaseFanForCooling,0
;   minFanLayerTime,10
;   maxCoolingFanSpeed,30
;   increaseFanForBridging,0
;   bridgingFanSpeed,45
;   use5D,1
;   relativeEdistances,0
;   allowEaxisZeroing,1
;   independentExtruderAxes,0
;   includeM10123,0
;   stickySupport,1
;   applyToolheadOffsets,0
;   gcodeXoffset,0
;   gcodeYoffset,0
;   gcodeZoffset,0
;   overrideMachineDefinition,1
;   machineTypeOverride,0
;   strokeXoverride,225
;   strokeYoverride,225
;   strokeZoverride,212
;   originOffsetXoverride,0
;   originOffsetYoverride,0
;   originOffsetZoverride,0
;   homeXdirOverride,-1
;   homeYdirOverride,-1
;   homeZdirOverride,-1
;   flipXoverride,1
;   flipYoverride,-1
;   flipZoverride,1
;   toolheadOffsets,0,0|0,0|0,0|0,0|0,0|0,0
;   overrideFirmwareConfiguration,1
;   firmwareTypeOverride,RepRap (Marlin/Repetier/Sprinter)
;   GPXconfigOverride,r2
;   baudRateOverride,250000
;   overridePrinterModels,0
;   printerModelsOverride
;   startingGcode,M907 E1400 ; increase extruder current,G28 ; home all axes,;G1 X20 Y10 F3000 ; bring extruder to front,;G92 E0 ; zero the extruded length,;G1 Z10 ; lower,;G1 E19 F200 ; purge nozzle quickly,;G1 E26 F60 ; purge nozzle slowly,;G92 E0 ; zero the extruded length again,;G1 E-5.5 F400 ; retract,;G1 X190 Z0 F9000 ; pull away filament,;G1 X210 F9000 ; wipe,;G1 Y20 F9000 ; wipe,;G1 E0 ; feed filament back
;   layerChangeGcode,
;   retractionGcode,
;   toolChangeGcode,
;   endingGcode,G28 X0 ; home the X-axis,M104 S0 ; turn off heaters,M140 S0 ; turn off bed,M84 ; disable motors,M107 ; fan off
;   createX3G,0
;   celebration,0
;   celebrationSong,Random Song
;   createMB5G,0
;   postProcessing,
;   defaultSpeed,4500
;   outlineUnderspeed,1
;   solidInfillUnderspeed,0.5
;   supportUnderspeed,1
;   rapidXYspeed,15000
;   rapidZspeed,1998
;   minBridgingArea,5
;   bridgingExtraInflation,0
;   bridgingExtrusionMultiplier,1
;   bridgingSpeedMultiplier,0.5
;   filamentDiameter,1.75
;   filamentPricePerKg,25
;   filamentDensity,1.25
;   useMinPrintHeight,0
;   minPrintHeight,0
;   useMaxPrintHeight,0
;   maxPrintHeight,0
;   useDiaphragm,0
;   diaphragmLayerInterval,20
;   robustSlicing,1
;   mergeAllIntoSolid,0
;   onlyRetractWhenCrossingOutline,1
;   retractBetweenLayers,0
;   useRetractionMinTravel,1
;   retractionMinTravel,0.02
;   retractWhileWiping,0
;   onlyWipeOutlines,1
;   avoidCrossingOutline,0
;   maxMovementDetourFactor,3
;   toolChangeRetractionDistance,12
;   toolChangeExtraRestartDistance,-0.5
;   toolChangeRetractionSpeed,600
;   allowThinWallGapFill,1
;   thinWallAllowedOverlapPercentage,10
;   horizontalSizeCompensation,0
G90
M82
M106 S0
M140 S60
M190 S60
M104 S205 T0
M109 S205 T0
M907 E1400 ; increase extruder current
G28 ; home all axes
;G1 X20 Y10 F3000 ; bring extruder to front
;G92 E0 ; zero the extruded length
;G1 Z10 ; lower
;G1 E19 F200 ; purge nozzle quickly
;G1 E26 F60 ; purge nozzle slowly
;G92 E0 ; zero the extruded length again
;G1 E-5.5 F400 ; retract
;G1 X190 Z0 F9000 ; pull away filament
;G1 X210 F9000 ; wipe
;G1 Y20 F9000 ; wipe
;G1 E0 ; feed filament back
G92 E0
G1 E-4.5000 F2400
G1 Z0.160 F1998
; layer 1, Z = 0.16
T0
; tool H0.200 W0.800
; skirt
G1 X33.483 Y35.578 F15000
G1 E0.0000 F720
G92 E0
G1 X35.578 Y33.483 E0.1971 F1350
G1 X36.019 Y33.300 E0.2288
G1 X188.981 Y33.300 E10.4040
G1 X189.422 Y33.483 E10.4357
G1 X191.517 Y35.578 E10.6328
G1 X191.700 Y36.019 E10.6645
G1 X191.700 Y188.981 E20.8397
G1 X191.517 Y189.422 E20.8714
G1 X189.422 Y191.517 E21.0685
G1 X188.981 Y191.700 E21.1003
G1 X36.019 Y191.700 E31.2754
G1 X35.578 Y191.517 E31.3071
G1 X33.483 Y189.422 E31.5042
G1 X33.300 Y188.981 E31.5360
G1 X33.300 Y36.019 E41.7111
G1 X33.483 Y35.578 E41.7428
G1 X34.161 Y36.031 F15000
G92 E0
G1 X36.031 Y34.161 E0.1759 F1350
G1 X36.178 Y34.100 E0.1865
G1 X188.822 Y34.100 E10.3404
G1 X188.969 Y34.161 E10.3510
G1 X190.839 Y36.031 E10.5269
G1 X190.900 Y36.178 E10.5375
G1 X190.900 Y188.822 E20.6915
G1 X190.839 Y188.969 E20.7020
G1 X188.969 Y190.839 E20.8780
G1 X188.822 Y190.900 E20.8885
G1 X36.178 Y190.900 E31.0425
G1 X36.031 Y190.839 E31.0531
G1 X34.161 Y188.969 E31.2290
G1 X34.100 Y188.822 E31.2396
G1 X34.100 Y36.178 E41.3935
G1 X34.161 Y36.031 E41.4041
; inner perimeter
; outer perimeter
G1 X37.900 Y37.900 F15000
G92 E0
G1 X187.100 Y37.900 E9.9248 F1350
G1 X187.100 Y187.100 E19.8496
G1 X37.900 Y187.100 E29.7745
G1 X37.900 Y37.900 E39.6993
; inner perimeter
; outer perimeter
G1 X38.700 Y38.700 F15000
G92 E0
G1 X38.700 Y186.300 E9.8184 F1350
G1 X186.300 Y186.300 E19.6368
G1 X186.300 Y38.700 E29.4552
G1 X38.700 Y38.700 E39.2736
; layer 2, Z = 0.36
M106 S255
G4 P500
M106 S63
; inner perimeter
; outer perimeter
G1 X37.900 Y37.900 F15000
G1 Z0.360 F1998
G92 E0
G1 X187.100 Y37.900 E9.9248 F4500
G1 X187.100 Y187.100 E19.8496
G1 X37.900 Y187.100 E29.7745
G1 X37.900 Y37.900 E39.6993
; inner perimeter
; outer perimeter
G1 X38.700 Y38.700 F15000
G92 E0
G1 X38.700 Y186.300 E9.8184 F4500
G1 X186.300 Y186.300 E19.6368
G1 X186.300 Y38.700 E29.4552
G1 X38.700 Y38.700 E39.2736
; layer 3, Z = 0.56
M106 S127
; inner perimeter
; outer perimeter
G1 X37.900 Y37.900 F15000
G1 Z0.560 F1998
G92 E0
G1 X187.100 Y37.900 E9.9248 F4500
G1 X187.100 Y187.100 E19.8496
G1 X37.900 Y187.100 E29.7745
G1 X37.900 Y37.900 E39.6993
; inner perimeter
; outer perimeter
G1 X38.700 Y38.700 F15000
G92 E0
G1 X38.700 Y186.300 E9.8184 F4500
G1 X186.300 Y186.300 E19.6368
G1 X186.300 Y38.700 E29.4552
G1 X38.700 Y38.700 E39.2736
; layer 4, Z = 0.76
M106 S191
; inner perimeter
; outer perimeter
G1 X37.900 Y37.900 F15000
G1 Z0.760 F1998
G92 E0
G1 X187.100 Y37.900 E9.9248 F4500
G1 X187.100 Y187.100 E19.8496
G1 X37.900 Y187.100 E29.7745
G1 X37.900 Y37.900 E39.6993
; inner perimeter
; outer perimeter
G1 X38.700 Y38.700 F15000
G92 E0
G1 X38.700 Y186.300 E9.8184 F4500
G1 X186.300 Y186.300 E19.6368
G1 X186.300 Y38.700 E29.4552
G1 X38.700 Y38.700 E39.2736
; layer 5, Z = 0.96
M106 S255
; inner perimeter
; outer perimeter
G1 X37.900 Y37.900 F15000
G1 Z0.960 F1998
G92 E0
G1 X187.100 Y37.900 E9.9248 F4500
G1 X187.100 Y187.100 E19.8496
G1 X37.900 Y187.100 E29.7745
G1 X37.900 Y37.900 E39.6993
; inner perimeter
; outer perimeter
G1 X38.700 Y38.700 F15000
G92 E0
G1 X38.700 Y186.300 E9.8184 F4500
G1 X186.300 Y186.300 E19.6368
G1 X186.300 Y38.700 E29.4552
G1 X38.700 Y38.700 E39.2736
; layer 6, Z = 1.16
; inner perimeter
; outer perimeter
G1 X37.900 Y37.900 F15000
G1 Z1.160 F1998
G92 E0
G1 X187.100 Y37.900 E9.9248 F4500
G1 X187.100 Y187.100 E19.8496
G1 X37.900 Y187.100 E29.7745
G1 X37.900 Y37.900 E39.6993
; inner perimeter
; outer perimeter
G1 X38.700 Y38.700 F15000
G92 E0
G1 X38.700 Y186.300 E9.8184 F4500
G1 X186.300 Y186.300 E19.6368
G1 X186.300 Y38.700 E29.4552
G1 X38.700 Y38.700 E39.2736
; layer 7, Z = 1.36
; inner perimeter
; outer perimeter
G1 X37.900 Y37.900 F15000
G1 Z1.360 F1998
G92 E0
G1 X187.100 Y37.900 E9.9248 F4500
G1 X187.100 Y187.100 E19.8496
G1 X37.900 Y187.100 E29.7745
G1 X37.900 Y37.900 E39.6993
; inner perimeter
; outer perimeter
G1 X38.700 Y38.700 F15000
G92 E0
G1 X38.700 Y186.300 E9.8184 F4500
G1 X186.300 Y186.300 E19.6368
G1 X186.300 Y38.700 E29.4552
G1 X38.700 Y38.700 E39.2736
; layer 8, Z = 1.56
; inner perimeter
; outer perimeter
G1 X37.900 Y37.900 F15000
G1 Z1.560 F1998
G92 E0
G1 X187.100 Y37.900 E9.9248 F4500
G1 X187.100 Y187.100 E19.8496
G1 X37.900 Y187.100 E29.7745
G1 X37.900 Y37.900 E39.6993
; inner perimeter
; outer perimeter
G1 X38.700 Y38.700 F15000
G92 E0
G1 X38.700 Y186.300 E9.8184 F4500
G1 X186.300 Y186.300 E19.6368
G1 X186.300 Y38.700 E29.4552
G1 X38.700 Y38.700 E39.2736
; layer 9, Z = 1.76
; inner perimeter
; outer perimeter
G1 X37.900 Y37.900 F15000
G1 Z1.760 F1998
G92 E0
G1 X187.100 Y37.900 E9.9248 F4500
G1 X187.100 Y187.100 E19.8496
G1 X37.900 Y187.100 E29.7745
G1 X37.900 Y37.900 E39.6993
; inner perimeter
; outer perimeter
G1 X38.700 Y38.700 F15000
G92 E0
G1 X38.700 Y186.300 E9.8184 F4500
G1 X186.300 Y186.300 E19.6368
G1 X186.300 Y38.700 E29.4552
G1 X38.700 Y38.700 E39.2736
; layer 10, Z = 1.96
; inner perimeter
; outer perimeter
G1 X37.900 Y37.900 F15000
G1 Z1.960 F1998
G92 E0
G1 X187.100 Y37.900 E9.9248 F4500
G1 X187.100 Y187.100 E19.8496
G1 X37.900 Y187.100 E29.7745
G1 X37.900 Y37.900 E39.6993
; inner perimeter
; outer perimeter
G1 X38.700 Y38.700 F15000
G92 E0
G1 X38.700 Y186.300 E9.8184 F4500
G1 X186.300 Y186.300 E19.6368
G1 X186.300 Y38.700 E29.4552
G1 X38.700 Y38.700 E39.2736
; layer 11, Z = 2.16
; inner perimeter
; outer perimeter
G1 X37.900 Y37.900 F15000
G1 Z2.160 F1998
G92 E0
G1 X187.100 Y37.900 E9.9248 F4500
G1 X187.100 Y187.100 E19.8496
G1 X37.900 Y187.100 E29.7745
G1 X37.900 Y37.900 E39.6993
; inner perimeter
; outer perimeter
G1 X38.700 Y38.700 F15000
G92 E0
G1 X38.700 Y186.300 E9.8184 F4500
G1 X186.300 Y186.300 E19.6368
G1 X186.300 Y38.700 E29.4552
G1 X38.700 Y38.700 E39.2736
; layer 12, Z = 2.36
; inner perimeter
; outer perimeter
G1 X37.900 Y37.900 F15000
G1 Z2.360 F1998
G92 E0
G1 X187.100 Y37.900 E9.9248 F4500
G1 X187.100 Y187.100 E19.8496
G1 X37.900 Y187.100 E29.7745
G1 X37.900 Y37.900 E39.6993
; inner perimeter
; outer perimeter
G1 X38.700 Y38.700 F15000
G92 E0
G1 X38.700 Y186.300 E9.8184 F4500
G1 X186.300 Y186.300 E19.6368
G1 X186.300 Y38.700 E29.4552
G1 X38.700 Y38.700 E39.2736
; layer 13, Z = 2.56
; inner perimeter
; outer perimeter
G1 X37.900 Y37.900 F15000
G1 Z2.560 F1998
G92 E0
G1 X187.100 Y37.900 E9.9248 F4500
G1 X187.100 Y187.100 E19.8496
G1 X37.900 Y187.100 E29.7745
G1 X37.900 Y37.900 E39.6993
; inner perimeter
; outer perimeter
G1 X38.700 Y38.700 F15000
G92 E0
G1 X38.700 Y186.300 E9.8184 F4500
G1 X186.300 Y186.300 E19.6368
G1 X186.300 Y38.700 E29.4552
G1 X38.700 Y38.700 E39.2736
; layer 14, Z = 2.76
; inner perimeter
; outer perimeter
G1 X37.900 Y37.900 F15000
G1 Z2.760 F1998
G92 E0
G1 X187.100 Y37.900 E9.9248 F4500
G1 X187.100 Y187.100 E19.8496
G1 X37.900 Y187.100 E29.7745
G1 X37.900 Y37.900 E39.6993
; inner perimeter
; outer perimeter
G1 X38.700 Y38.700 F15000
G92 E0
G1 X38.700 Y186.300 E9.8184 F4500
G1 X186.300 Y186.300 E19.6368
G1 X186.300 Y38.700 E29.4552
G1 X38.700 Y38.700 E39.2736
; layer 15, Z = 2.96
; inner perimeter
; outer perimeter
G1 X37.900 Y37.900 F15000
G1 Z2.960 F1998
G92 E0
G1 X187.100 Y37.900 E9.9248 F4500
G1 X187.100 Y187.100 E19.8496
G1 X37.900 Y187.100 E29.7745
G1 X37.900 Y37.900 E39.6993
; inner perimeter
; outer perimeter
G1 X38.700 Y38.700 F15000
G92 E0
G1 X38.700 Y186.300 E9.8184 F4500
G1 X186.300 Y186.300 E19.6368
G1 X186.300 Y38.700 E29.4552
G1 X38.700 Y38.700 E39.2736
; layer 16, Z = 3.16
; inner perimeter
; outer perimeter
G1 X37.900 Y37.900 F15000
G1 Z3.160 F1998
G92 E0
G1 X187.100 Y37.900 E9.9248 F4500
G1 X187.100 Y187.100 E19.8496
G1 X37.900 Y187.100 E29.7745
G1 X37.900 Y37.900 E39.6993
; inner perimeter
; outer perimeter
G1 X38.700 Y38.700 F15000
G92 E0
G1 X38.700 Y186.300 E9.8184 F4500
G1 X186.300 Y186.300 E19.6368
G1 X186.300 Y38.700 E29.4552
G1 X38.700 Y38.700 E39.2736
; layer 17, Z = 3.36
; inner perimeter
; outer perimeter
G1 X37.900 Y37.900 F15000
G1 Z3.360 F1998
G92 E0
G1 X187.100 Y37.900 E9.9248 F4500
G1 X187.100 Y187.100 E19.8496
G1 X37.900 Y187.100 E29.7745
G1 X37.900 Y37.900 E39.6993
; inner perimeter
; outer perimeter
G1 X38.700 Y38.700 F15000
G92 E0
G1 X38.700 Y186.300 E9.8184 F4500
G1 X186.300 Y186.300 E19.6368
G1 X186.300 Y38.700 E29.4552
G1 X38.700 Y38.700 E39.2736
; layer 18, Z = 3.56
; inner perimeter
; outer perimeter
G1 X37.900 Y37.900 F15000
G1 Z3.560 F1998
G92 E0
G1 X187.100 Y37.900 E9.9248 F4500
G1 X187.100 Y187.100 E19.8496
G1 X37.900 Y187.100 E29.7745
G1 X37.900 Y37.900 E39.6993
; inner perimeter
; outer perimeter
G1 X38.700 Y38.700 F15000
G92 E0
G1 X38.700 Y186.300 E9.8184 F4500
G1 X186.300 Y186.300 E19.6368
G1 X186.300 Y38.700 E29.4552
G1 X38.700 Y38.700 E39.2736
; layer 19, Z = 3.76
; inner perimeter
; outer perimeter
G1 X37.900 Y37.900 F15000
G1 Z3.760 F1998
G92 E0
G1 X187.100 Y37.900 E9.9248 F4500
G1 X187.100 Y187.100 E19.8496
G1 X37.900 Y187.100 E29.7745
G1 X37.900 Y37.900 E39.6993
; inner perimeter
; outer perimeter
G1 X38.700 Y38.700 F15000
G92 E0
G1 X38.700 Y186.300 E9.8184 F4500
G1 X186.300 Y186.300 E19.6368
G1 X186.300 Y38.700 E29.4552
G1 X38.700 Y38.700 E39.2736
; layer 20, Z = 3.96
; inner perimeter
; outer perimeter
G1 X37.900 Y37.900 F15000
G1 Z3.960 F1998
G92 E0
G1 X187.100 Y37.900 E9.9248 F4500
G1 X187.100 Y187.100 E19.8496
G1 X37.900 Y187.100 E29.7745
G1 X37.900 Y37.900 E39.6993
; inner perimeter
; outer perimeter
G1 X38.700 Y38.700 F15000
G92 E0
G1 X38.700 Y186.300 E9.8184 F4500
G1 X186.300 Y186.300 E19.6368
G1 X186.300 Y38.700 E29.4552
G1 X38.700 Y38.700 E39.2736
; layer end
G28 X0 ; home the X-axis
M104 S0 ; turn off heaters
M140 S0 ; turn off bed
M84 ; disable motors
M107 ; fan off
; Build Summary
;   Build time: 0 hours 6 minutes
;   Filament length: 1662.6 mm (1.66 m)
;   Plastic volume: 3999.03 mm^3 (4.00 cc)
;   Plastic weight: 5.00 g (0.01 lb)
;   Material cost: 0.12
