;FLAVOR:UltiGCode
;TIME:31        
;MATERIAL:74        
;MATERIAL2:0         

;Layer count: 1
;LAYER:0
M107
G0 F9000 X86.80 Y84.30 Z0.30
G0 X86.80 Y84.30
;TYPE:SKIRT
G11
G1 F1200 X143.20 Y84.30 E6.76800
G1 X143.20 Y140.70 E13.53600
G1 X86.80 Y140.70 E20.30400
G1 X86.80 Y84.30 E27.07200
G10
G0 F9000 X90.20 Y87.70
;TYPE:WALL-OUTER
G11
G1 F1200 X139.80 Y87.70 E33.02400
G1 X139.80 Y137.30 E38.97600
G1 X90.20 Y137.30 E44.92800
G1 X90.20 Y87.70 E50.88000
G0 F9000 X90.40 Y87.90
G1 F1200 X90.40 Y137.10 E56.78376
G1 X139.60 Y137.10 E62.68752
G1 X139.60 Y87.90 E68.59128
G1 X90.40 Y87.90 E74.49504
G10
G0 F9000 X90.40 Y87.90 Z5.20
M25 ;Stop reading from this point on.
;CURA_PROFILE_STRING:eNrtWFFv2zYQfjWC/Yh73LDGk2S7aWvopV2Sl7YokAxL8yLQEm1zkUSBpGI7gf/7PpKSLCfO1q4BtgH1QxId74533313JydnG66SJReLpYmDYTRYsTxPzFKkNyXXGqLxQHGjWGqELBNeslnO40tV84GWuciS3DnYN5gL+Mh4qYXZxFEwKOXdXc4TLe64O6+UKE2iK86zeBI0j4YXFVfM1IrHUXRAGsUHhKNDwnEnnPFsz/FJMNB1VUll4o+y5IMqZ2YuVZGwbMk1MvTiRifJapYnfG1U7c7eSrMcrETFEyNXXMVnLNe8J0huZV4XPA4nAynvkPBS8Dxr1AAKKzhiygR+G5hHw1eTx2Kb5iPh6JBw3BfOc7mKwyAYBv16eYzHD6SskHVp4vFw0pe6ZJuj8OX+WSHKBA+3PI/D/ZNUFjNRLjwl9i1EsYcegoj6GktZWdlgJo2RxR6FRgM5+4On4Igob5ySvOUqZ5ULEgIg7MNpMgwnPU+ekv4ARBKl46N/tmqi1NwEDwXrniCVMnc5N+wWKCpKxdoGyJoOuBEgSS5KDhgcbI1owap4BD/+qYUi5+XCLJtYrbN5jbi63vMXNPkEwe4pKdjaSbqw5pCC0WBaI1xyhlYUc9OQzfemAcK9VvXweImDpAHVgtQy3mwqHp8rkXUSVi7Q8S93Ks7U3z7phOsNaKkNK1PuUmnld30x4KmEYrmdAz7OmRJFH0BEotgckDG1EGU8GTbPTkVXLLVUG7XSGdP8AW92cmuyEpkFvNXHROBqztJ9o+jk4enO1I0/e8iEskWFduQFum50LUN0HAHRNSitlAA/krp0fWZHKQBNWAv60yqzbkz0dZCHrHiZzITRhxTQXXbM3gIcI0y6tPB4tSqvgSBgBfsXcdtPKbdJJuv4OHwg2kD0AyqlzHCRyozH04tcpDwjZt7QfcY2W/vTcPyy7bA9mr5lWqSEzjG4Vb+h9xYJ8nSGSd7bLFv6HYlC535/vWzpDGSCuL8x4PqTHd5k78FZM979pWfNvCNAk3lDP//84NoWPdHK373oWaVSm76VfYbXD+HrgC7uD+6MLU1/KzHlnL2RxLKMNrJWJFclQZd6umSZY90Frzt3X+rqkZvzKKTmM8W8VwD7luU110fniLY9YTM0d204VRLggVIoxtGHV1GngAKRG8IZqmMvbQ0KVPkIoZ50mrb6tBJmSWbJCfOH5HyOOF7RVUCfAxsHRgZd/fLZOsIgIl5mGlNGO6XroAnWKl0/VgnpOkRH09l9f3ZvGwN7ZbuOKbOIhJOiQK4RnXbp7j7TO66kM2qSy8jPV3vPWRQEdDp6YNEo0qgokBjZIUoILb35+kuILZgo3VX7yYC7tSFXeRSCCpCcLTjJkt6/+5V0qjgvAXp4Qp8aneFwOABGbdedlhmdv2tKM6aLA1H1crH9hqZUrlAfwnHwpIHTyxxhdyb0o5hbBtISKZAwPwGJkL7gM1UcpcLc2aMd4Dg9BiSjIPgbY/cS4FnWtiYjDDnEh/rbBpg7/KyGf3t8YfmEWzlmO2lZcFtCxxkFjNE0jl8/Y/cghgldHUegrP1xmG3XVFfNlQyItxF10fBbXqJDrNsd/f8yqada4wWidYHaHU1CkwRBmthXbINeHT/tVBteYSpo34ivn47h8ByYYgZJ5GTXA+i22A5cj0ffR/wzjPjxt494vykuw0Oeon/kKvh3985/fZtcPjHdphcr+/pkb7GWEUZCO2G/ZQOFweENFAbPuoLcXcf3h7/LbY8ugy9Kei6UNv+ntJ9p80ZPrN7L4Cu3r7UJv2/s7xv7eTd28026/92sE+5eHP3/AfaUnKSnoTgmYsqHqb6FB9f7pw0puxcCPxFm3KzQLi7jtFbK4dvy16LvqgxJJ31BqyUMuvZzc7+ocyOqvOthpYdNw3vijV7S2SQIglZ4ed8qbq3C1T2+hifrLX12f+D15Nr9cbd91PvW3QNvfwL5FcuW

